;PYCAM-META-DATA: Filename: None
;PYCAM-META-DATA: Timestamp: 2016-08-19 21:37:01.436558
;PYCAM-META-DATA: Version: 0.5.1
;Estimated machine time: 0 minutes
G40 (disable tool radius compensation)
G49 (disable tool length compensation)
G80 (cancel modal motion)
G54 (select coordinate system 1)
G90 (disable incremental moves)
G21 (metric)
G64 P0.050000 Q0.050000 (continuous mode with tolerance and cleanup)
F1600.00000
S12000.00000
;PYCAM_TOOLPATH_SETTINGS: START
;[Bounds]
;maxz = 0.0
;maxx = 32.9666658
;maxy = 32.9666658
;minx = -32.9666658
;miny = -32.9666658
;minz = 0.0
;
;[Tool]
;torus_radius = 0.25
;speed = 10000.0
;shape = CylindricalCutter
;tool_radius = 0.9
;feedrate = 2400.0
;
;[Process]
;engrave_offset = 0.9
;step_down = 4.0
;generator = EngraveCutter
;postprocessor = SimpleCutter
;milling_style = conventional
;material_allowance = 0.0
;pocketing_type = none
;path_direction = x
;
;PYCAM_TOOLPATH_SETTINGS: END
T1 M6
G0 Z3.0000
M3 (start spindle)
G04 P3 (wait for 3 seconds)
 X-1.9370 Y21.6126
G1 z-10.50000
 X-1.7959 Y22.0184
 X-1.5618 Y22.3949
 X-1.2530 Y22.7087
 X-0.8820 Y22.9476
 X-0.4618 Y23.0996
 X0.0019 Y23.1536
 X0.4459 Y23.1037
 X0.8517 Y22.9626
 X1.2282 Y22.7285
 X1.5420 Y22.4197
 X1.7810 Y22.0487
 X1.9329 Y21.6285
 X1.9869 Y21.1648
 X1.9370 Y20.7208
 X1.7959 Y20.3150
 X1.5618 Y19.9384
 X1.2530 Y19.6246
 X0.8820 Y19.3857
 X0.4618 Y19.2338
 X-0.0019 Y19.1798
 X-0.4459 Y19.2296
 X-0.8517 Y19.3708
 X-1.2282 Y19.6048
 X-1.5420 Y19.9137
 X-1.7810 Y20.2847
 X-1.9329 Y20.7049
 X-1.9869 Y21.1685
 X-1.9370 Y21.6126
G0 Z3.0000
 X-8.9944 Y0.9820
G1 z-10.50000
 X-8.8412 Y1.9269
 X-8.5217 Y3.0439
 X-8.0631 Y4.1059
 X-7.4714 Y5.1017
 X-6.7591 Y6.0120
 X-5.8363 Y6.9113
 X-4.8036 Y7.6665
 X-3.6817 Y8.2654
 X-2.4916 Y8.6988
 X-1.2746 Y8.9571
 X0.0073 Y9.0467
 X0.9820 Y8.9944
 X1.9269 Y8.8412
 X3.0439 Y8.5217
 X4.1059 Y8.0631
 X5.1017 Y7.4714
 X6.0120 Y6.7591
 X6.9113 Y5.8363
 X7.6665 Y4.8036
 X8.2654 Y3.6817
 X8.6988 Y2.4916
 X8.9571 Y1.2746
 X9.0467 Y-0.0073
 X8.9944 Y-0.9820
 X8.8412 Y-1.9269
 X8.5217 Y-3.0439
 X8.0631 Y-4.1059
 X7.4714 Y-5.1017
 X6.7591 Y-6.0120
 X5.8363 Y-6.9113
 X4.8036 Y-7.6665
 X3.6817 Y-8.2654
 X2.4916 Y-8.6988
 X1.2746 Y-8.9571
 X-0.0073 Y-9.0467
 X-0.9820 Y-8.9944
 X-1.9269 Y-8.8412
 X-3.0439 Y-8.5217
 X-4.1059 Y-8.0631
 X-5.1017 Y-7.4714
 X-6.0120 Y-6.7591
 X-6.9113 Y-5.8363
 X-7.6665 Y-4.8036
 X-8.2654 Y-3.6817
 X-8.6988 Y-2.4916
 X-8.9571 Y-1.2746
 X-9.0467 Y0.0073
 X-8.9944 Y0.9820
G0 Z3.0000
 X-19.2296 Y-0.4459
G1 z-10.50000
 X-19.3708 Y-0.8517
 X-19.6048 Y-1.2282
 X-19.9137 Y-1.5420
 X-20.2847 Y-1.7810
 X-20.7049 Y-1.9329
 X-21.1685 Y-1.9869
 X-21.6126 Y-1.9370
 X-22.0184 Y-1.7959
 X-22.3949 Y-1.5618
 X-22.7087 Y-1.2530
 X-22.9476 Y-0.8820
 X-23.0996 Y-0.4618
 X-23.1536 Y0.0019
 X-23.1037 Y0.4459
 X-22.9626 Y0.8517
 X-22.7285 Y1.2282
 X-22.4197 Y1.5420
 X-22.0487 Y1.7810
 X-21.6285 Y1.9329
 X-21.1648 Y1.9869
 X-20.7208 Y1.9370
 X-20.3150 Y1.7959
 X-19.9384 Y1.5618
 X-19.6246 Y1.2530
 X-19.3857 Y0.8820
 X-19.2338 Y0.4618
 X-19.1798 Y-0.0019
 X-19.2296 Y-0.4459
G0 Z3.0000
 X0.4459 Y-19.2296
G1 z-10.50000
 X0.8517 Y-19.3708
 X1.2282 Y-19.6048
 X1.5420 Y-19.9137
 X1.7810 Y-20.2847
 X1.9329 Y-20.7049
 X1.9869 Y-21.1685
 X1.9370 Y-21.6126
 X1.7959 Y-22.0184
 X1.5618 Y-22.3949
 X1.2530 Y-22.7087
 X0.8820 Y-22.9476
 X0.4618 Y-23.0996
 X-0.0019 Y-23.1536
 X-0.4459 Y-23.1037
 X-0.8517 Y-22.9626
 X-1.2282 Y-22.7285
 X-1.5420 Y-22.4197
 X-1.7810 Y-22.0487
 X-1.9329 Y-21.6285
 X-1.9869 Y-21.1648
 X-1.9370 Y-20.7208
 X-1.7959 Y-20.3150
 X-1.5618 Y-19.9384
 X-1.2530 Y-19.6246
 X-0.8820 Y-19.3857
 X-0.4618 Y-19.2338
 X0.0019 Y-19.1798
 X0.4459 Y-19.2296
G0 Z3.0000
 X21.6126 Y1.9370
G1 z-10.50000
 X22.0184 Y1.7959
 X22.3949 Y1.5618
 X22.7087 Y1.2530
 X22.9476 Y0.8820
 X23.0996 Y0.4618
 X23.1536 Y-0.0019
 X23.1037 Y-0.4459
 X22.9626 Y-0.8517
 X22.7285 Y-1.2282
 X22.4197 Y-1.5420
 X22.0487 Y-1.7810
 X21.6285 Y-1.9329
 X21.1648 Y-1.9869
 X20.7208 Y-1.9370
 X20.3150 Y-1.7959
 X19.9384 Y-1.5618
 X19.6246 Y-1.2530
 X19.3857 Y-0.8820
 X19.2338 Y-0.4618
 X19.1798 Y0.0019
 X19.2296 Y0.4459
 X19.3708 Y0.8517
 X19.6048 Y1.2282
 X19.9137 Y1.5420
 X20.2847 Y1.7810
 X20.7049 Y1.9329
 X21.1685 Y1.9869
 X21.6126 Y1.9370
G0 Z3.0000
 X1.6023 Y-28.9653
G1 z-10.50000
 X3.0978 Y-28.5010
 X4.4506 Y-27.7668
 X5.6283 Y-26.7950
 X6.6001 Y-25.6172
 X7.3344 Y-24.2645
 X7.7986 Y-22.7690
 X7.9594 Y-21.1735
 X7.9057 Y-20.5460
 X9.5670 Y-19.8584
 X11.7405 Y-18.6550
 X13.7532 Y-17.2243
 X15.5882 Y-15.5827
 X17.2292 Y-13.7471
 X18.6593 Y-11.7340
 X19.8620 Y-9.5601
 X20.5474 Y-7.9026
 X21.1700 Y-7.9596
 X22.7264 Y-7.8056
 X24.2128 Y-7.3540
 X25.5832 Y-6.6223
 X26.7952 Y-5.6285
 X27.7890 Y-4.4165
 X28.5206 Y-3.0461
 X28.9723 Y-1.5597
 X29.1266 Y0.0000
 X28.9723 Y1.5597
 X28.5206 Y3.0461
 X27.7890 Y4.4165
 X26.7952 Y5.6285
 X25.5832 Y6.6223
 X24.2128 Y7.3540
 X22.7264 Y7.8056
 X21.1726 Y7.9594
 X20.5460 Y7.9057
 X19.8584 Y9.5670
 X18.6550 Y11.7405
 X17.2243 Y13.7532
 X15.5827 Y15.5882
 X13.7471 Y17.2292
 X11.7340 Y18.6593
 X9.5601 Y19.8620
 X7.9026 Y20.5474
 X7.9596 Y21.1700
 X7.8056 Y22.7264
 X7.3540 Y24.2128
 X6.6223 Y25.5832
 X5.6285 Y26.7952
 X4.4165 Y27.7890
 X3.0461 Y28.5206
 X1.5597 Y28.9723
 X0.0000 Y29.1266
 X-1.5597 Y28.9723
 X-3.0461 Y28.5206
 X-4.4165 Y27.7890
 X-5.6285 Y26.7952
 X-6.6223 Y25.5832
 X-7.3540 Y24.2128
 X-7.8056 Y22.7264
 X-7.9594 Y21.1726
 X-7.9057 Y20.5460
 X-9.5670 Y19.8584
 X-11.7405 Y18.6550
 X-13.7532 Y17.2243
 X-15.5882 Y15.5827
 X-17.2292 Y13.7471
 X-18.6593 Y11.7340
 X-19.8620 Y9.5601
 X-20.5474 Y7.9026
 X-21.1700 Y7.9596
 X-22.7264 Y7.8056
 X-24.2128 Y7.3540
 X-25.5832 Y6.6223
 X-26.7952 Y5.6285
 X-27.7890 Y4.4165
 X-28.5206 Y3.0461
 X-28.9723 Y1.5597
 X-29.1266 Y0.0000
 X-28.9723 Y-1.5597
 X-28.5206 Y-3.0461
 X-27.7890 Y-4.4165
 X-26.7952 Y-5.6285
 X-25.5832 Y-6.6223
 X-24.2128 Y-7.3540
 X-22.7264 Y-7.8056
 X-21.1726 Y-7.9594
 X-20.5460 Y-7.9057
 X-19.8584 Y-9.5670
 X-18.6550 Y-11.7405
 X-17.2243 Y-13.7532
 X-15.5827 Y-15.5882
 X-13.7471 Y-17.2292
 X-11.7340 Y-18.6593
 X-9.5601 Y-19.8620
 X-7.9026 Y-20.5474
 X-7.9596 Y-21.1700
 X-7.8056 Y-22.7264
 X-7.3540 Y-24.2128
 X-6.6223 Y-25.5832
 X-5.6285 Y-26.7952
 X-4.4165 Y-27.7890
 X-3.0461 Y-28.5206
 X-1.5597 Y-28.9723
 X0.0008 Y-29.1267
 X1.6023 Y-28.9653
G0 Z3.0000
M5 (stop spindle)
G04 P3 (wait for 3 seconds)
G0 Z3.0000
M2 (end program)
