;PYCAM-META-DATA: Filename: None
;PYCAM-META-DATA: Timestamp: 2016-08-19 23:34:39.753834
;PYCAM-META-DATA: Version: 0.5.1
;Estimated machine time: 0 minutes
G40 (disable tool radius compensation)
G49 (disable tool length compensation)
G80 (cancel modal motion)
G54 (select coordinate system 1)
G90 (disable incremental moves)
G21 (metric)
G64 P0.050000 Q0.050000 (continuous mode with tolerance and cleanup)
F2400.00000
S10000.00000
;PYCAM_TOOLPATH_SETTINGS: START
;[Bounds]
;maxz = 0.0
;maxx = 73.1397840977
;maxy = 10.0209537506
;minx = -5.83088946342
;miny = -1.28419075012
;minz = 0.0
;
;[Tool]
;torus_radius = 0.25
;speed = 10000.0
;shape = CylindricalCutter
;tool_radius = 0.9
;feedrate = 2400.0
;
;[Process]
;engrave_offset = 0.9
;step_down = 40.0
;generator = EngraveCutter
;postprocessor = SimpleCutter
;milling_style = conventional
;material_allowance = 0.0
;pocketing_type = none
;path_direction = xy
;
;PYCAM_TOOLPATH_SETTINGS: END
T1 M6
G0 Z1.0000
M3 (start spindle)
G04 P3 (wait for 3 seconds)
 X3.0294 Y5.3924
G1 Z-3.0000
 X2.9477 Y5.3521
 X2.7656 Y5.3040
 X2.4793 Y5.2822
 X2.0135
 Y6.5745
 X2.4848
 X2.7333 Y6.5586
 X2.8888 Y6.5250
 X3.0135 Y6.4717
 X3.1174 Y6.3948
 X3.1199 Y6.3922
 X3.1244 Y6.3864
 X3.1781 Y6.2872
 X3.2192 Y6.1427
 X3.2381 Y5.9130
 X3.2336 Y5.8054
 X3.2219 Y5.7187
 X3.1825 Y5.5795
 X3.1410 Y5.4997
 X3.0895 Y5.4386
 X3.0294 Y5.3924
G0 Z1.0000
 X7.8314 Y2.1988
G1 Z-3.0000
 X7.8428 Y2.2074
 X7.8966 Y2.2326
 X8.0241 Y2.2708
 X8.4322 Y2.3349
 X9.0783 Y2.3624
 X9.0751 Y2.3511
 X8.9928 Y2.1788
 X8.8830 Y2.0246
 X8.7978 Y1.9380
 X8.7132 Y1.8751
 X8.5881 Y1.8126
 X8.4274 Y1.7687
 X8.2147 Y1.7512
 X8.0764 Y1.7597
 X7.9788 Y1.7797
 X7.8968 Y1.8128
 X7.8506 Y1.8448
 X7.8406 Y1.8557
 X7.8320 Y1.8702
 X7.8164 Y1.9171
 X7.8045 Y2.0357
 X7.8114 Y2.1311
 X7.8247 Y2.1849
 X7.8314 Y2.1988
G0 Z1.0000
 X22.2006 Y4.6949
G1 Z-3.0000
 X22.2626 Y4.7072
 X22.4617 Y4.7194
 X22.6758 Y4.6956
 X22.2006 Y4.6949
G0 Z1.0000
 X36.7466 Y6.4136
G1 Z-3.0000
 X36.7856 Y6.3444
 X36.8220 Y6.2192
 X36.8401 Y6.0011
 X36.8358 Y5.8999
 X36.8250 Y5.8207
 X36.7894 Y5.6976
 X36.7561 Y5.6351
 X36.7165 Y5.5898
 X36.6745 Y5.5591
 X36.6040 Y5.5260
 X36.4019 Y5.4755
 X36.0839 Y5.4530
 X35.6155
 Y6.5745
 X36.0897
 X36.3610 Y6.5588
 X36.5343 Y6.5245
 X36.6575 Y6.4757
 X36.7466 Y6.4136
G0 Z1.0000
 X51.5978 Y2.8384
G1 Z-3.0000
 X51.5410 Y2.5110
 X51.4438 Y2.2237
 X51.3126 Y1.9943
 X51.2624 Y1.9329
 X51.2191 Y1.8918
 X51.0970 Y1.8135
 X50.9711 Y1.7711
 X50.7756 Y1.7515
 X50.6801 Y1.7570
 X50.6082 Y1.7704
 X50.4701 Y1.8236
 X50.3656 Y1.8964
 X50.2557 Y2.0183
 X50.1624 Y2.1763
 X50.0816 Y2.3843
 X50.0002 Y2.7670
 X49.9706 Y3.2460
 X49.9909 Y3.6441
 X50.0470 Y3.9711
 X50.1429 Y4.2573
 X50.2712 Y4.4826
 X50.3229 Y4.5458
 X50.3693 Y4.5896
 X50.4929 Y4.6687
 X50.6193 Y4.7113
 X50.8130 Y4.7308
 X50.9086 Y4.7251
 X50.9796 Y4.7116
 X51.1137 Y4.6590
 X51.2150 Y4.5872
 X51.3279 Y4.4596
 X51.4265 Y4.2954
 X51.5080 Y4.0882
 X51.5889 Y3.7107
 X51.6184 Y3.2364
 X51.5978 Y2.8384
G0 Z1.0000
 X56.8124 Y2.1988
G1 Z-3.0000
 X56.8238 Y2.2074
 X56.8776 Y2.2326
 X57.0051 Y2.2708
 X57.4132 Y2.3349
 X58.0593 Y2.3624
 X58.0561 Y2.3511
 X57.9738 Y2.1788
 X57.8640 Y2.0246
 X57.7787 Y1.9380
 X57.6942 Y1.8751
 X57.5691 Y1.8126
 X57.4083 Y1.7687
 X57.1957 Y1.7512
 X57.0574 Y1.7597
 X56.9598 Y1.7797
 X56.8778 Y1.8128
 X56.8315 Y1.8448
 X56.8216 Y1.8557
 X56.8130 Y1.8702
 X56.7974 Y1.9171
 X56.7855 Y2.0357
 X56.7924 Y2.1311
 X56.8057 Y2.1848
 X56.8124 Y2.1988
G0 Z1.0000
 X63.4341 Y7.2335
G1 Z-3.0000
 X61.2385
 Y-0.7401
 X64.0582
 Y3.6210
 X64.0768 Y3.9188
 X64.1197 Y4.1250
 X64.2016 Y4.3243
 X64.3096 Y4.4762
 X64.3965 Y4.5552
 X64.4940 Y4.6132
 X64.6631 Y4.6694
 X64.9507 Y4.6982
 X65.0289 Y4.6944
 X65.0874 Y4.6851
 X65.1753 Y4.6561
 X65.2117 Y4.6339
 X65.2520 Y4.5934
 X65.2708 Y4.5650
 X65.2928 Y4.5182
 X65.3648 Y4.2418
 X65.3947 Y3.8211
 Y-0.7401
 X68.2089
 Y3.9103
 X68.1735 Y4.5665
 X68.0561 Y5.2024
 X67.8219 Y5.8385
 X67.4771 Y6.3746
 X67.2481 Y6.6215
 X66.9927 Y6.8383
 X66.4870 Y7.1319
 X65.8463 Y7.3254
 X65.1594 Y7.3852
 X64.6004 Y7.3438
 X64.0704 Y7.2158
 X63.5725 Y6.9962
 X63.1267 Y6.6900
 X62.7378 Y6.3112
 X63.4341 Y7.2335
G0 Z1.0000
 X54.5177 Y3.7445
G1 Z-3.0000
 X54.2297 Y3.2752
 X54.0272 Y2.6418
 X53.9648 Y1.9642
 X54.0062 Y1.4179
 X54.1374 Y0.8959
 X54.4044 Y0.3507
 X54.7919 Y-0.1179
 X55.1732 Y-0.4191
 X55.5991 Y-0.6492
 X56.2354 Y-0.8419
 X56.9234 Y-0.9025
 X57.5295 Y-0.8649
 X58.0912 Y-0.7476
 X58.6182 Y-0.5389
 X59.0917 Y-0.2306
 X59.4979 Y0.1601
 X58.8393 Y-0.7401
 X60.9825
 Y3.7111
 X60.9323 Y4.4892
 X60.7663 Y5.2272
 X60.4860 Y5.8639
 X60.0932 Y6.3921
 X59.8109 Y6.6528
 X59.5014 Y6.8730
 X58.9320 Y7.1472
 X58.2101 Y7.3279
 X57.4277 Y7.3841
 X56.8211 Y7.3508
 X56.2203 Y7.2547
 X55.6138 Y7.1039
 X54.4200 Y6.6959
 Y3.6986
 X54.5177 Y3.7445
G0 Z1.0000
 X49.9395 Y-0.7401
G1 Z-3.0000
 X49.9452 Y-0.7425
 X50.4806 Y-0.8638
 X51.0362 Y-0.9017
 X51.4347 Y-0.8801
 X51.8413 Y-0.8104
 X52.4869 Y-0.5772
 X53.0789 Y-0.1862
 X53.5744 Y0.3302
 X53.9457 Y0.8978
 X54.2184 Y1.5312
 X54.4123 Y2.3497
 X54.4745 Y3.2359
 X54.4300 Y3.9951
 X54.2915 Y4.7100
 X54.0062 Y5.4700
 X53.5908 Y6.1289
 X53.3140 Y6.4453
 X53.0051 Y6.7255
 X52.4256 Y7.0893
 X51.7565 Y7.3145
 X51.0568 Y7.3855
 X50.4780 Y7.3452
 X49.9400 Y7.2208
 X49.4380 Y7.0043
 X48.9895 Y6.6981
 X48.6046 Y6.3080
 X49.9692 Y8.2862
 Y9.6368
 X47.1494
 Y-0.7401
 X49.9395
G0 Z1.0000
 X44.6922
G1 Z-3.0000
 X46.8769
 Y7.2335
 X44.0626
 Y2.8617
 X44.0438 Y2.5640
 X44.0004 Y2.3585
 X43.9181 Y2.1614
 X43.8077 Y2.0079
 X43.7189 Y1.9272
 X43.6215 Y1.8691
 X43.4523 Y1.8129
 X43.1646 Y1.7841
 X43.0865 Y1.7879
 X43.0281 Y1.7971
 X42.9401 Y1.8262
 X42.9036 Y1.8484
 X42.8649 Y1.8874
 X42.8462 Y1.9158
 X42.8231 Y1.9654
 X42.7506 Y2.2449
 X42.7207 Y2.6667
 Y7.2335
 X39.9065
 Y2.5717
 X39.9421 Y1.9179
 X40.0605 Y1.2830
 X40.2969 Y0.6451
 X40.6454 Y0.1054
 X40.8761 Y-0.1411
 X41.1315 Y-0.3566
 X41.6386 Y-0.6499
 X42.2798 Y-0.8432
 X42.9664 Y-0.9028
 X43.5231 Y-0.8623
 X44.0497 Y-0.7364
 X44.5427 Y-0.5196
 X44.9894 Y-0.2125
 X45.3796 Y0.1677
 X44.6922 Y-0.7401
G0 Z1.0000
 X39.2694 Y4.1813
G1 Z-3.0000
 X39.2920 Y4.2064
 X39.5929 Y4.7590
 X39.7652 Y5.3698
 X39.8173 Y6.0004
 X39.8007 Y6.4070
 X39.7488 Y6.8014
 X39.5709 Y7.4262
 X39.2554 Y8.0051
 X38.8137 Y8.4850
 X38.3254 Y8.8181
 X37.7743 Y9.0560
 X37.0314 Y9.2294
 X36.1461 Y9.2895
 X32.7021
 Y-0.7401
 X35.6155
 Y2.7380
 X35.9090
 X36.0996 Y2.7299
 X36.2223 Y2.7127
 X36.3712 Y2.6690
 X36.4484 Y2.6271
 X36.5276 Y2.5563
 X36.6575 Y2.3913
 X36.9700 Y1.8461
 X38.2597 Y-0.7401
 X41.4721
 X39.6792 Y2.8282
 X39.3023 Y3.5121
 X38.8902 Y4.0804
 X38.5687 Y4.4123
 X38.2068 Y4.6824
 X39.2694 Y4.1813
G0 Z1.0000
 X25.8315 Y2.1041
G1 Z-3.0000
 X26.0685
 Y3.5177
 X26.0514 Y3.9557
 X25.9945 Y4.4130
 X25.8004 Y5.1436
 X25.5078 Y5.7521
 X25.1213 Y6.2707
 X24.8139 Y6.5731
 X24.4687 Y6.8348
 X23.8977 Y7.1318
 X23.2104 Y7.3241
 X22.4858 Y7.3843
 X21.9284 Y7.3538
 X21.3914 Y7.2591
 X20.6967 Y7.0144
 X20.1076 Y6.6615
 X19.6077 Y6.2105
 X19.3069 Y5.8393
 X19.0546 Y5.4332
 X18.7799 Y4.7890
 X18.6019 Y4.0174
 X18.5453 Y3.1944
 X18.5739 Y2.6245
 X18.6629 Y2.0733
 X18.8962 Y1.3532
 X19.2295 Y0.7490
 X19.6609 Y0.2288
 X20.0449 Y-0.1049
 X20.4683 Y-0.3824
 X21.0982 Y-0.6634
 X21.8462 Y-0.8443
 X22.6402 Y-0.9017
 X23.3286 Y-0.8660
 X23.9974 Y-0.7607
 X24.6497 Y-0.5893
 X25.8315 Y-0.1531
 Y2.1041
G0 Z1.0000
 X25.9332 Y-0.7401
G1 Z-3.0000
 X28.7474
 Y9.6368
 X25.9332
 Y-0.7401
G0 Z1.0000
 X14.1709
G1 Z-3.0000
 X16.7964
 X19.7865 Y7.2335
 X16.7876
 X15.4836 Y3.7313
 X14.1796 Y7.2335
 X11.1808
 X14.1709 Y-0.7401
G0 Z1.0000
 X5.5367 Y3.7445
G1 Z-3.0000
 X5.2487 Y3.2752
 X5.0462 Y2.6418
 X4.9839 Y1.9642
 X5.0252 Y1.4179
 X5.1564 Y0.8959
 X5.4234 Y0.3507
 X5.8109 Y-0.1179
 X6.1922 Y-0.4191
 X6.6181 Y-0.6492
 X7.2544 Y-0.8419
 X7.9424 Y-0.9025
 X8.5485 Y-0.8649
 X9.1102 Y-0.7476
 X9.6372 Y-0.5389
 X10.1107 Y-0.2306
 X10.5169 Y0.1601
 X9.8583 Y-0.7401
 X12.0015
 Y3.7111
 X11.9513 Y4.4892
 X11.7853 Y5.2272
 X11.5050 Y5.8639
 X11.1122 Y6.3921
 X10.8299 Y6.6528
 X10.5204 Y6.8730
 X9.9511 Y7.1472
 X9.2291 Y7.3279
 X8.4467 Y7.3841
 X7.8401 Y7.3508
 X7.2393 Y7.2547
 X6.6329 Y7.1039
 X5.4390 Y6.6959
 Y3.6986
 X5.5367 Y3.7445
G0 Z1.0000
 X3.2451 Y2.6073
G1 Z-3.0000
 X3.9270 Y2.7399
 X4.6078 Y3.0045
 X5.1750 Y3.3910
 X5.4184 Y3.6289
 X5.6322 Y3.8903
 X5.9447 Y4.4454
 X6.1520 Y5.1560
 X6.2154 Y5.9133
 X6.1961 Y6.3513
 X6.1358 Y6.7735
 X5.9516 Y7.3896
 X5.6372 Y7.9595
 X5.2059 Y8.4358
 X4.7232 Y8.7835
 X4.1683 Y9.0390
 X3.3864 Y9.2310
 X2.5448 Y9.2895
 X-0.9000
 Y-0.7401
 X2.0135
 Y2.5671
 X2.5391
 X3.2451 Y2.6073
G0 Z1.0000
M5 (stop spindle)
G04 P3 (wait for 3 seconds)
G0 Z1.0000
M2 (end program)
