;PYCAM-META-DATA: Filename: /sources/cnc/pruban-tech.stl
;PYCAM-META-DATA: Timestamp: 2016-08-19 22:40:46.581190
;PYCAM-META-DATA: Version: 0.5.1
;Estimated machine time: 14 minutes
G40 (disable tool radius compensation)
G49 (disable tool length compensation)
G80 (cancel modal motion)
G54 (select coordinate system 1)
G90 (disable incremental moves)
G21 (metric)
G64 P0.050000 Q0.050000 (continuous mode with tolerance and cleanup)
F2400.00000
S10000.00000
;PYCAM_TOOLPATH_SETTINGS: START
;[Bounds]
;maxz = 7.5
;maxx = 367.834083581
;maxy = 20.4039196014
;minx = -84.1924808264
;miny = -4.01628913879
;minz = 0.0
;
;[Tool]
;torus_radius = 0.25
;speed = 10000.0
;shape = CylindricalCutter
;tool_radius = 0.9
;feedrate = 2400.0
;
;[Process]
;engrave_offset = 0.9
;step_down = 40.0
;generator = DropCutter
;postprocessor = PathAccumulator
;milling_style = conventional
;material_allowance = 0.0
;pocketing_type = none
;path_direction = xy
;
;PYCAM_TOOLPATH_SETTINGS: END
T1 M6
G0 Z1.0000
M3 (start spindle)
G04 P3 (wait for 3 seconds)
 X-10.0 Y-4.0163
G1 Z-2.0000
G0 Z1.0000
 X-10.0 Y-2.2720
G1 Z-2.0000
G0 Z1.0000
 X-10.0 Y-0.5277
G1 Z-2.0000
G0 Z1.0000
 X-10.0 Y1.2166
G1 Z-2.0000
G0 Z1.0000
 X-10.0 Y2.9609
G1 Z-2.0000
 X-0.7043
 X-0.7034 Z1.000
 X2.3722
 X2.3739 Z-2.0000
 X9.6635
 X9.6670 Z1.000
 X17.3554
 X17.3571 Z-2.0000
 X21.4877
 X21.4895 Z1.000
 X24.9621
 X24.9625 Z-2.0000
 X31.2387
 X31.2423 Z1.000
 X37.1913
 X37.2053 Z-2.0000
 X39.5456
 X39.5491 Z1.000
 X42.4744
 X42.4753 Z-2.0000
 X49.6990
 X49.6998 Z1.000
 X52.7648
 X52.7789 Z-2.0000
 X57.5156
 X57.5226 Z1.000
 X60.7203
 X60.7273 Z-2.0000
 X62.2242
 X62.2312 Z1.000
 X66.6798
 X66.6868 Z-2.0000
 X66.7360
 X66.7431 Z1.000
 X69.6666
 X69.6701 Z-2.0000
G0 Z1.0000
 X-10.0 Y4.7052
G1 Z-2.0000
 X-0.9002
 X-0.8997 Z1.000
 X2.5584
 X2.5724 Z-2.0000
 X8.1947
 X8.2017 Z1.000
 X17.5521
 X17.5539 Z-2.0000
 X20.7744
 X20.7884 Z1.000
 X25.6622
 X25.6640 Z-2.0000
 X29.1937
 X29.2007 Z1.000
 X38.2946
 X38.2981 Z-2.0000
 X39.3488
 X39.3523 Z1.000
 X42.6694
 X42.6712 Z-2.0000
 X49.5031
 X49.5035 Z1.000
 X52.9721
 X52.9739 Z-2.0000
 X56.6292
 X56.6297 Z1.000
 X60.4251
 X60.4321 Z-2.0000
 X60.7554
 X60.7589 Z1.000
 X69.8564
 X69.8704 Z-2.0000
 Z1.000
G0 Z1.0000
 X-10.0 Y6.4495
G1 Z-2.0000
 X-0.9002
 X-0.8997 Z1.000
 X2.5584
 X2.5724 Z-2.0000
 X7.9417
 X7.9487 Z1.000
 X11.2588
 X11.2658 Z-2.0000
 X13.9364
 X13.9399 Z1.000
 X17.5521
 X17.5539 Z-2.0000
 X20.1278
 X20.1349 Z1.000
 X26.3123
 X26.3193 Z-2.0000
 X28.4487
 X28.4557 Z1.000
 X32.0188
 X32.0329 Z-2.0000
 X39.3488
 X39.3523 Z1.000
 X42.6694
 X42.6712 Z-2.0000
 X49.5031
 X49.5035 Z1.000
 X52.9721
 X52.9739 Z-2.0000
 X55.7446
 X55.7516 Z1.000
 X59.5537
 X59.5607 Z-2.0000
 X60.3478
 X60.3513 Z1.000
 X63.7123
 X63.7132 Z-2.0000
 X66.3284
 X66.3355 Z1.000
 X69.8564
 X69.8704 Z-2.0000
G0 Z1.0000
 X-10.0 Y8.1938
G1 Z-2.0000
 X-0.9002
 X-0.8997 Z1.000
 X6.6907
 X6.6977 Z-2.0000
 X8.3985
 X8.4020 Z1.000
 X17.5521
 X17.5539 Z-2.0000
 X19.4778
 X19.4795 Z1.000
 X22.9952
 X23.0022 Z-2.0000
 X23.4449
 X23.4520 Z1.000
 X26.9720
 X26.9724 Z-2.0000
 X28.2765
 X28.2783 Z1.000
 X38.6526
 X38.6528 Z-2.0000
 X39.3488
 X39.3523 Z1.000
 X42.6694
 X42.6712 Z-2.0000
 X49.5031
 X49.5035 Z1.000
 X58.6330
 X58.6365 Z-2.0000
 X60.3091
 X60.3109 Z1.000
 X63.6298
 X63.6368 Z-2.0000
 X66.5393
 X66.5463 Z1.000
 X69.8564
 X69.8704 Z-2.0000
G0 Z1.0000
 X-10.0 Y9.9381
G1 Z-2.0000
 X-0.9002
 X-0.8997 Z1.000
 X8.3914
 X8.3985 Z-2.0000
 X10.6544
 X10.6684 Z1.000
 X17.4784
 X17.4819 Z-2.0000
 X18.8207
 X18.8277 Z1.000
 X22.3486
 X22.3627 Z-2.0000
 X24.0985
 X24.1020 Z1.000
 X27.6194
 X27.6265 Z-2.0000
 X28.5049
 X28.5120 Z1.000
 X31.9977
 X32.0013 Z-2.0000
 X35.1251
 X35.1321 Z1.000
 X38.5125
 X38.5195 Z-2.0000
 X39.3488
 X39.3523 Z1.000
 X42.6694
 X42.6712 Z-2.0000
 X49.5031
 X49.5035 Z1.000
 X58.6119
 X58.6260 Z-2.0000
 X60.3091
 X60.3109 Z1.000
 X63.6298
 X63.6368 Z-2.0000
 X66.5393
 X66.5463 Z1.000
 X69.8564
 X69.8704 Z-2.0000
G0 Z1.0000
 X-10.0 Y11.6824
G1 Z-2.0000
 X-0.9002
 X-0.8997 Z1.000
 X2.5584
 X2.5724 Z-2.0000
 X5.2500
 X5.2535 Z1.000
 X16.9372
 X16.9442 Z-2.0000
 X18.1706
 X18.1724 Z1.000
 X21.7016
 X21.7018 Z-2.0000
 X24.7486
 X24.7503 Z1.000
 X28.2800
 X28.2871 Z-2.0000
 X29.2639
 X29.2710 Z1.000
 X37.8659
 X37.8800 Z-2.0000
 X39.3488
 X39.3523 Z1.000
 X42.6694
 X42.6712 Z-2.0000
 X49.5031
 X49.5035 Z1.000
 X52.9721
 X52.9739 Z-2.0000
 X55.6040
 X55.6111 Z1.000
 X59.2233
 X59.2269 Z-2.0000
 X60.3091
 X60.3109 Z1.000
 X63.6298
 X63.6368 Z-2.0000
 X66.5393
 X66.5463 Z1.000
 X69.8564
 X69.8704 Z-2.0000
G0 Z1.0000
 X-10.0 Y13.4267
G1 Z-2.0000
 X-0.9002
 X-0.8997 Z1.000
 X2.5584
 X2.5724 Z-2.0000
 X4.6386
 X4.6527 Z1.000
 X8.7358
 X8.7393 Z-2.0000
 X9.8392
 X9.8462 Z1.000
 X15.0819
 X15.0889 Z-2.0000
 X18.0898
 X18.0968 Z1.000
 X20.9571
 X20.9641 Z-2.0000
 X25.4900
 X25.4935 Z1.000
 X28.3574
 X28.3609 Z-2.0000
 X31.3266
 X31.3283 Z1.000
 X35.9333
 X35.9368 Z-2.0000
 X39.3488
 X39.3523 Z1.000
 X42.6694
 X42.6712 Z-2.0000
 X49.5031
 X49.5035 Z1.000
 X52.9721
 X52.9739 Z-2.0000
 X55.1191
 X55.1226 Z1.000
 X59.1706
 X59.1724 Z-2.0000
 X60.5797
 X60.5938 Z1.000
 X63.3592
 X63.3610 Z-2.0000
 X66.8133
 X66.8169 Z1.000
 X69.5893
 X69.5963 Z-2.0000
G0 Z1.0000
 X-10.0 Y15.1710
G1 Z-2.0000
 X-0.9002
 X-0.8997 Z1.000
 X7.8925
 X7.8960 Z-2.0000
 X39.3488
 X39.3523 Z1.000
 X42.6694
 X42.6712 Z-2.0000
 X49.5031
 X49.5035 Z1.000
 X58.3800
 X58.3835 Z-2.0000
G0 Z1.0000
 X-10.0 Y16.9153
G1 Z-2.0000
 X39.5175
 X39.5210 Z1.000
 X42.4972
 X42.5008 Z-2.0000
G0 Z1.0000
 X-10.0 Y18.6596
G1 Z-2.0000
G0 Z1.0000
 X-10.0 Y20.4039
G1 Z-2.0000
G0 Z1.0000
 Y-4.0163
G1 Z-2.0000
 Y20.4039
G0 Z1.0000
G1 Z-2.0000
 Y20.4039
G0 Z1.0000
G1 Z-2.0000
 Y20.4039
G0 Z1.0000
G1 Z-2.0000
 Y20.4039
G0 Z1.0000
G1 Z-2.0000
 Y20.4039
G0 Z1.0000
G1 Z-2.0000
 Y20.4039
G0 Z1.0000
G1 Z-2.0000
 Y20.4039
G0 Z1.0000
G1 Z-2.0000
 Y20.4039
G0 Z1.0000
G1 Z-2.0000
 Y20.4039
G0 Z1.0000
G1 Z-2.0000
 Y20.4039
G0 Z1.0000
G1 Z-2.0000
 Y20.4039
G0 Z1.0000
G1 Z-2.0000
 Y20.4039
G0 Z1.0000
G1 Z-2.0000
 Y20.4039
G0 Z1.0000
G1 Z-2.0000
 Y20.4039
G0 Z1.0000
G1 Z-2.0000
 Y20.4039
G0 Z1.0000
G1 Z-2.0000
 Y20.4039
G0 Z1.0000
G1 Z-2.0000
 Y20.4039
G0 Z1.0000
G1 Z-2.0000
 Y20.4039
G0 Z1.0000
G1 Z-2.0000
 Y20.4039
G0 Z1.0000
G1 Z-2.0000
 Y20.4039
G0 Z1.0000
G1 Z-2.0000
 Y20.4039
G0 Z1.0000
G1 Z-2.0000
 Y20.4039
G0 Z1.0000
G1 Z-2.0000
 Y20.4039
G0 Z1.0000
G1 Z-2.0000
 Y20.4039
G0 Z1.0000
G1 Z-2.0000
 Y20.4039
G0 Z1.0000
G1 Z-2.0000
 Y20.4039
G0 Z1.0000
G1 Z-2.0000
 Y20.4039
G0 Z1.0000
G1 Z-2.0000
 Y20.4039
G0 Z1.0000
G1 Z-2.0000
 Y20.4039
G0 Z1.0000
G1 Z-2.0000
 Y20.4039
G0 Z1.0000
G1 Z-2.0000
 Y20.4039
G0 Z1.0000
G1 Z-2.0000
 Y20.4039
G0 Z1.0000
G1 Z-2.0000
 Y20.4039
G0 Z1.0000
G1 Z-2.0000
 Y20.4039
G0 Z1.0000
G1 Z-2.0000
 Y20.4039
G0 Z1.0000
G1 Z-2.0000
 Y20.4039
G0 Z1.0000
G1 Z-2.0000
 Y20.4039
G0 Z1.0000
G1 Z-2.0000
 Y20.4039
G0 Z1.0000
G1 Z-2.0000
 Y20.4039
G0 Z1.0000
G1 Z-2.0000
 Y20.4039
G0 Z1.0000
G1 Z-2.0000
 Y20.4039
G0 Z1.0000
G1 Z-2.0000
 Y20.4039
G0 Z1.0000
G1 Z-2.0000
 Y20.4039
G0 Z1.0000
G1 Z-2.0000
 Y20.4039
G0 Z1.0000
G1 Z-2.0000
 Y20.4039
G0 Z1.0000
G1 Z-2.0000
 Y20.4039
G0 Z1.0000
G1 Z-2.0000
 Y20.4039
G0 Z1.0000
G1 Z-2.0000
 Y2.6209
 Y2.6279 Z1.000
 Y17.2814
 Y17.2884 Z-2.0000
 Y20.4039
G0 Z1.0000
G1 Z-2.0000
 Y2.7049
 Y2.7189 Z1.000
 Y17.1974
 Y17.2044 Z-2.0000
 Y20.4039
G0 Z1.0000
G1 Z-2.0000
 Y2.4248
 Y2.4388 Z1.000
 Y5.5124
 Y5.5159 Z-2.0000
 Y10.7703
 Y10.7843 Z1.000
 Y13.8499
 Y13.8504 Z-2.0000
 Y20.4039
G0 Z1.0000
G1 Z-2.0000
 Y2.4808
 Y2.4948 Z1.000
 Y6.4085
 Y6.4120 Z-2.0000
 Y9.8741
 Y9.8881 Z1.000
 Y13.7948
 Y13.8018 Z-2.0000
 Y20.4039
G0 Z1.0000
G1 Z-2.0000
 Y3.3910
 Y3.3980 Z1.000
 Y12.8951
 Y12.8969 Z-2.0000
 Y20.4039
G0 Z1.0000
G1 Z-2.0000
 Y6.8986
 Y6.9021 Z1.000
 Y9.4400
 Y9.4470 Z-2.0000
 Y20.4039
G0 Z1.0000
G1 Z-2.0000
 Y2.8729
 Y2.8869 Z1.000
 Y6.2335
 Y6.2475 Z-2.0000
 Y6.8881
 Y6.8898 Z1.000
 Y12.7306
 Y12.7446 Z-2.0000
 Y20.4039
G0 Z1.0000
G1 Z-2.0000
 Y2.4668
 Y2.4738 Z1.000
 Y5.5894
 Y5.5964 Z-2.0000
 Y6.8881
 Y6.8898 Z1.000
 Y13.6828
 Y13.6968 Z-2.0000
 Y20.4039
G0 Z1.0000
G1 Z-2.0000
 Y2.4213
 Y2.4231 Z1.000
 Y5.5334
 Y5.5404 Z-2.0000
 Y6.8881
 Y6.8898 Z1.000
 Y9.8741
 Y9.8881 Z-2.0000
 Y10.7913
 Y10.7948 Z1.000
 Y13.8893
 Y13.8910 Z-2.0000
 Y20.4039
G0 Z1.0000
G1 Z-2.0000
 Y2.7959
 Y2.7994 Z1.000
 Y13.5217
 Y13.5252 Z-2.0000
 Y20.4039
G0 Z1.0000
G1 Z-2.0000
 Y3.9441
 Y3.9476 Z1.000
 Y12.3525
 Y12.3595 Z-2.0000
 Y20.4039
G0 Z1.0000
G1 Z-2.0000
 Y2.6419
 Y2.6454 Z1.000
 Y5.6734
 Y5.6804 Z-2.0000
 Y10.7142
 Y10.7283 Z1.000
 Y13.6548
 Y13.6618 Z-2.0000
 Y20.4039
G0 Z1.0000
G1 Z-2.0000
 Y2.6209
 Y2.6279 Z1.000
 Y5.6979
 Y5.6996 Z-2.0000
 Y10.7002
 Y10.7072 Z1.000
 Y13.6827
 Z-2.0000
 Y20.4039
G0 Z1.0000
G1 Z-2.0000
 Y2.8589
 Y2.8659 Z1.000
 Y16.3117
 Y16.3135 Z-2.0000
 Y20.4039
G0 Z1.0000
G1 Z-2.0000
 Y4.3782
 Y4.3817 Z1.000
 Y16.1454
 Y16.1463 Z-2.0000
 Y20.4039
G0 Z1.0000
G1 Z-2.0000
 Y3.1810
 Y3.1880 Z1.000
 Y13.1157
 Y13.1192 Z-2.0000
 Y14.1238
 Y14.1273 Z1.000
 Y16.7213
 Y16.7283 Z-2.0000
 Y20.4039
G0 Z1.0000
G1 Z-2.0000
 Y2.6209
 Y2.6279 Z1.000
 Y17.2814
 Y17.2884 Z-2.0000
 Y20.4039
G0 Z1.0000
G1 Z-2.0000
 Y20.4039
G0 Z1.0000
G1 Z-2.0000
 Y2.6209
 Y2.6279 Z1.000
 Y12.3945
 Y12.4015 Z-2.0000
 Y20.4039
G0 Z1.0000
G1 Z-2.0000
 Y2.6489
 Y2.6629 Z1.000
 Y13.7107
 Z-2.0000
 Y20.4039
G0 Z1.0000
G1 Z-2.0000
 Y10.7633
 Y10.7668 Z1.000
 Y13.8648
 Y13.8718 Z-2.0000
 Y20.4039
G0 Z1.0000
G1 Z-2.0000
 Y2.8729
 Y2.8869 Z1.000
 Y13.2767
 Y13.2837 Z-2.0000
 Y20.4039
G0 Z1.0000
G1 Z-2.0000
 Y2.6209
 Y2.6279 Z1.000
 Y13.4447
 Y13.4517 Z-2.0000
 Y20.4039
G0 Z1.0000
G1 Z-2.0000
 Y10.6862
 Y10.6932 Z1.000
 Y13.9033
 Y13.9050 Z-2.0000
 Y20.4039
G0 Z1.0000
G1 Z-2.0000
 Y10.1121
 Y10.1191 Z1.000
 Y13.5777
 Y13.5812 Z-2.0000
 Y20.4039
G0 Z1.0000
G1 Z-2.0000
 Y2.6209
 Y2.6279 Z1.000
 Y13.6827
 Z-2.0000
 Y20.4039
G0 Z1.0000
G1 Z-2.0000
 Y3.1354
 Y3.1372 Z1.000
 Y13.1647
 Y13.1717 Z-2.0000
 Y20.4039
G0 Z1.0000
G1 Z-2.0000
 Y2.7749
 Y2.7819 Z1.000
 Y13.5217
 Y13.5252 Z-2.0000
 Y13.7178
 Y13.7213 Z1.000
 Y17.1274
 Y17.1344 Z-2.0000
 Y20.4039
G0 Z1.0000
G1 Z-2.0000
 Y2.6209
 Y2.6279 Z1.000
 Y17.2814
 Y17.2884 Z-2.0000
 Y20.4039
G0 Z1.0000
G1 Z-2.0000
 Y2.6279
 Y2.6314 Z1.000
 Y5.8134
 Y5.8204 Z-2.0000
 Y20.4039
G0 Z1.0000
G1 Z-2.0000
 Y2.6209
 Y2.6279 Z1.000
 Y5.8274
 Y5.8344 Z-2.0000
 Y20.4039
G0 Z1.0000
G1 Z-2.0000
 Y2.6209
 Y2.6279 Z1.000
 Y5.8274
 Y5.8344 Z-2.0000
 Y20.4039
G0 Z1.0000
G1 Z-2.0000
 Y2.6209
 Y2.6279 Z1.000
 Y16.3572
 Y16.3642 Z-2.0000
 Y20.4039
G0 Z1.0000
G1 Z-2.0000
 Y2.6209
 Y2.6279 Z1.000
 Y16.7633
 Y16.7773 Z-2.0000
 Y20.4039
G0 Z1.0000
G1 Z-2.0000
 Y20.4039
G0 Z1.0000
G1 Z-2.0000
 Y20.4039
G0 Z1.0000
G1 Z-2.0000
 Y20.4039
G0 Z1.0000
G1 Z-2.0000
 Y20.4039
G0 Z1.0000
G1 Z-2.0000
 Y3.3350
 Y3.3420 Z1.000
 Y8.7959
 Y8.8029 Z-2.0000
 Y10.1682
 Y10.1752 Z1.000
 Y13.4430
 Y13.4438 Z-2.0000
 Y20.4039
G0 Z1.0000
G1 Z-2.0000
 Y2.5368
 Y2.5438 Z1.000
 Y9.5520
 Y9.5591 Z-2.0000
 Y10.7142
 Y10.7283 Z1.000
 Y13.8333
 Y13.8350 Z-2.0000
 Y20.4039
G0 Z1.0000
G1 Z-2.0000
 Y2.3898
 Y2.3933 Z1.000
 Y5.4738
 Y5.4756 Z-2.0000
 Y6.6746
 Y6.6781 Z1.000
 Y10.0071
 Y10.0106 Z-2.0000
 Y10.7685
 Y10.7694 Z1.000
 Y13.8788
 Y13.8858 Z-2.0000
 Y20.4039
G0 Z1.0000
G1 Z-2.0000
 Y2.6069
 Y2.6139 Z1.000
 Y5.8554
 Y5.8624 Z-2.0000
 Y7.1996
 Y7.2066 Z1.000
 Y13.4727
 Y13.4797 Z-2.0000
 Y20.4039
G0 Z1.0000
G1 Z-2.0000
 Y3.1459
 Y3.1494 Z1.000
 Y6.1425
 Y6.1460 Z-2.0000
 Y8.8589
 Y8.8624 Z1.000
 Y11.7224
 Y11.7294 Z-2.0000
 Y20.4039
G0 Z1.0000
G1 Z-2.0000
 Y2.9709
 Y2.9779 Z1.000
 Y6.3157
 Y6.3166 Z-2.0000
 Y6.8881
 Y6.8898 Z1.000
 Y12.5031
 Y12.5048 Z-2.0000
 Y20.4039
G0 Z1.0000
G1 Z-2.0000
 Y2.5084
 Y2.5086 Z1.000
 Y5.6384
 Y5.6419 Z-2.0000
 Y6.8881
 Y6.8898 Z1.000
 Y13.6268
 Y13.6408 Z-2.0000
 Y20.4039
G0 Z1.0000
G1 Z-2.0000
 Y2.4038
 Y2.4073 Z1.000
 Y5.5019
 Y5.5036 Z-2.0000
 Y6.8881
 Y6.8898 Z1.000
 Y9.8741
 Y9.8881 Z-2.0000
 Y10.8088
 Y10.8105 Z1.000
 Y13.9033
 Y13.9050 Z-2.0000
 Y20.4039
G0 Z1.0000
G1 Z-2.0000
 Y2.7014
 Y2.7031 Z1.000
 Y13.6092
 Y13.6110 Z-2.0000
 Y20.4039
G0 Z1.0000
G1 Z-2.0000
 Y3.7270
 Y3.7340 Z1.000
 Y12.5626
 Y12.5766 Z-2.0000
 Y20.4039
G0 Z1.0000
G1 Z-2.0000
 Y20.4039
G0 Z1.0000
G1 Z-2.0000
 Y2.6209
 Y2.6279 Z1.000
 Y17.2814
 Y17.2884 Z-2.0000
 Y20.4039
G0 Z1.0000
G1 Z-2.0000
 Y2.7469
 Y2.7539 Z1.000
 Y13.5532
 Y13.5550 Z-2.0000
 Y13.6828
 Y13.6968 Z1.000
 Y17.1554
 Y17.1624 Z-2.0000
 Y20.4039
G0 Z1.0000
G1 Z-2.0000
 Y4.2731
 Y4.2871 Z1.000
 Y12.9826
 Y12.9896 Z-2.0000
 Y20.4039
G0 Z1.0000
G1 Z-2.0000
 Y0.0724
 Y0.0794 Z1.000
 Y13.6827
 Z-2.0000
 Y20.4039
G0 Z1.0000
G1 Z-2.0000
 Y-0.7397
 Y-0.7327 Z1.000
 Y6.6255
 Y6.6325 Z-2.0000
 Y9.8881
 Y9.8951 Z1.000
 Y13.5707
 Y13.5777 Z-2.0000
 Y20.4039
G0 Z1.0000
G1 Z-2.0000
 Y-0.8938
 Y-0.8867 Z1.000
 Y2.1588
 Y2.1658 Z-2.0000
 Y2.6209
 Y2.6279 Z1.000
 Y5.7364
 Y5.7399 Z-2.0000
 Y10.7843
 Y10.7913 Z1.000
 Y13.9050
 Y13.9059 Z-2.0000
 Y20.4039
G0 Z1.0000
G1 Z-2.0000
 Y-0.6872
 Y-0.6855 Z1.000
 Y2.5508
 Y2.5578 Z-2.0000
 Y2.9849
 Y2.9919 Z1.000
 Y13.5357
 Y13.5392 Z-2.0000
 Y20.4039
G0 Z1.0000
G1 Z-2.0000
 Y4.4902
 Y4.4937 Z1.000
 Y12.0427
 Y12.0436 Z-2.0000
 Y20.4039
G0 Z1.0000
G1 Z-2.0000
 Y5.0293
 Y5.0363 Z1.000
 Y11.2323
 Y11.2393 Z-2.0000
 Y20.4039
G0 Z1.0000
G1 Z-2.0000
 Y3.0829
 Y3.0899 Z1.000
 Y13.2137
 Y13.2172 Z-2.0000
 Y20.4039
G0 Z1.0000
G1 Z-2.0000
 Y2.4526
 Y2.4527 Z1.000
 Y5.7644
 Y5.7679 Z-2.0000
 Y10.5112
 Y10.5147 Z1.000
 Y13.8350
 Y13.8359 Z-2.0000
 Y20.4039
G0 Z1.0000
G1 Z-2.0000
 Y2.4511
 Y2.4520 Z1.000
 Y5.7434
 Y5.7504 Z-2.0000
 Y10.5322
 Y10.5392 Z1.000
 Y13.8368
 Y13.8438 Z-2.0000
 Y20.4039
G0 Z1.0000
G1 Z-2.0000
 Y3.0549
 Y3.0619 Z1.000
 Y13.2137
 Y13.2172 Z-2.0000
 Y20.4039
G0 Z1.0000
G1 Z-2.0000
 Y5.0013
 Y5.0083 Z1.000
 Y11.3015
 Y11.3019 Z-2.0000
 Y20.4039
G0 Z1.0000
G1 Z-2.0000
 Y2.7679
 Y2.7714 Z1.000
 Y17.1405
 Y17.1409 Z-2.0000
 Y20.4039
G0 Z1.0000
G1 Z-2.0000
 Y2.6209
 Y2.6279 Z1.000
 Y17.2814
 Y17.2884 Z-2.0000
 Y20.4039
G0 Z1.0000
G1 Z-2.0000
 Y20.4039
G0 Z1.0000
G1 Z-2.0000
 Y3.6009
 Y3.6010 Z1.000
 Y12.7026
 Y12.7096 Z-2.0000
 Y20.4039
G0 Z1.0000
G1 Z-2.0000
 Y2.6069
 Y2.6139 Z1.000
 Y6.9546
 Y6.9581 Z-2.0000
 Y9.2720
 Y9.2790 Z1.000
 Y13.6688
 Y13.6758 Z-2.0000
 Y20.4039
G0 Z1.0000
G1 Z-2.0000
 Y2.3933
 Y2.3951 Z1.000
 Y5.4843
 Y5.4878 Z-2.0000
 Y10.7913
 Y10.7948 Z1.000
 Y13.8928
 Y13.8998 Z-2.0000
 Y20.4039
G0 Z1.0000
G1 Z-2.0000
 Y2.7189
 Y2.7259 Z1.000
 Y13.5427
 Y13.5497 Z-2.0000
 Y20.4039
G0 Z1.0000
G1 Z-2.0000
 Y3.9511
 Y3.9581 Z1.000
 Y12.3350
 Y12.3368 Z-2.0000
 Y20.4039
G0 Z1.0000
G1 Z-2.0000
 Y20.4039
G0 Z1.0000
G1 Z-2.0000
 Y2.6209
 Y2.6279 Z1.000
 Y13.1577
 Y13.1612 Z-2.0000
 Y20.4039
G0 Z1.0000
G1 Z-2.0000
 Y9.9091
 Y9.9126 Z1.000
 Y13.8473
 Y13.8490 Z-2.0000
 Y20.4039
G0 Z1.0000
G1 Z-2.0000
 Y10.6442
 Y10.6512 Z1.000
 Y13.7738
 Y13.7773 Z-2.0000
 Y20.4039
G0 Z1.0000
G1 Z-2.0000
 Y2.6279
 Y2.6314 Z1.000
 Y13.6688
 Y13.6758 Z-2.0000
 Y20.4039
G0 Z1.0000
G1 Z-2.0000
 Y2.6340
 Y2.6344 Z1.000
 Y13.6688
 Y13.6758 Z-2.0000
 Y20.4039
G0 Z1.0000
G1 Z-2.0000
 Y20.4039
G0 Z1.0000
G1 Z-2.0000
 Y2.6209
 Y2.6279 Z1.000
 Y13.1647
 Y13.1717 Z-2.0000
 Y20.4039
G0 Z1.0000
G1 Z-2.0000
 Y9.9581
 Y9.9651 Z1.000
 Y13.8438
 Y13.8473 Z-2.0000
 Y20.4039
G0 Z1.0000
G1 Z-2.0000
 Y10.6372
 Y10.6407 Z1.000
 Y13.7668
 Y13.7738 Z-2.0000
 Y20.4039
G0 Z1.0000
G1 Z-2.0000
 Y2.6279
 Y2.6314 Z1.000
 Y17.2814
 Y17.2884 Z-2.0000
 Y20.4039
G0 Z1.0000
G1 Z-2.0000
 Y2.6349
 Y2.6419 Z1.000
 Y17.2674
 Y17.2814 Z-2.0000
 Y20.4039
G0 Z1.0000
G1 Z-2.0000
 Y3.2510
 Y3.2580 Z1.000
 Y5.9044
 Y5.9079 Z-2.0000
 Y10.3782
 Y10.3852 Z1.000
 Y13.0457
 Y13.0492 Z-2.0000
 Y20.4039
G0 Z1.0000
G1 Z-2.0000
 Y2.5491
 Y2.5500 Z1.000
 Y5.7504
 Y5.7539 Z-2.0000
 Y10.5322
 Y10.5392 Z1.000
 Y13.7388
 Y13.7458 Z-2.0000
 Y20.4039
G0 Z1.0000
G1 Z-2.0000
 Y2.3898
 Y2.3933 Z1.000
 Y5.4905
 Y5.4909 Z-2.0000
 Y10.7703
 Y10.7843 Z1.000
 Y13.8928
 Z-2.0000
 Y20.4039
G0 Z1.0000
G1 Z-2.0000
 Y2.6839
 Y2.6874 Z1.000
 Y7.2539
 Y7.2548 Z-2.0000
 Y9.0410
 Y9.0445 Z1.000
 Y13.5707
 Y13.5777 Z-2.0000
 Y20.4039
G0 Z1.0000
G1 Z-2.0000
 Y3.7691
 Y3.7831 Z1.000
 Y12.5066
 Y12.5206 Z-2.0000
 Y20.4039
G0 Z1.0000
G1 Z-2.0000
 Y7.5217
 Y7.5287 Z1.000
 Y9.3000
 Y9.3070 Z-2.0000
 Y20.4039
G0 Z1.0000
G1 Z-2.0000
 Y2.8169
 Y2.8239 Z1.000
 Y6.1495
 Y6.1565 Z-2.0000
 Y6.8881
 Y6.8898 Z1.000
 Y12.8811
 Y12.8829 Z-2.0000
 Y20.4039
G0 Z1.0000
G1 Z-2.0000
 Y2.4388
 Y2.4458 Z1.000
 Y5.5614
 Y5.5754 Z-2.0000
 Y6.8881
 Y6.8898 Z1.000
 Y9.8741
 Y9.8881 Z-2.0000
 Y10.1261
 Y10.1331 Z1.000
 Y13.7388
 Y13.7458 Z-2.0000
 Y20.4039
G0 Z1.0000
G1 Z-2.0000
 Y2.4248
 Y2.4388 Z1.000
 Y5.5754
 Y5.5824 Z-2.0000
 Y6.8881
 Y6.8898 Z1.000
 Y9.8741
 Y9.8881 Z-2.0000
 Y10.7694
 Y10.7698 Z1.000
 Y13.8788
 Y13.8858 Z-2.0000
 Y20.4039
G0 Z1.0000
G1 Z-2.0000
 Y2.8729
 Y2.8869 Z1.000
 Y16.7143
 Y16.7178 Z-2.0000
 Y20.4039
G0 Z1.0000
G1 Z-2.0000
 Y4.1467
 Y4.1469 Z1.000
 Y12.1701
 Y12.1703 Z-2.0000
 Y13.5567
 Y13.5637 Z1.000
 Y16.7633
 Y16.7773 Z-2.0000
 Y20.4039
G0 Z1.0000
G1 Z-2.0000
 Y13.5567
 Y13.5637 Z1.000
 Y16.7633
 Y16.7773 Z-2.0000
 Y20.4039
G0 Z1.0000
G1 Z-2.0000
 Y2.6209
 Y2.6279 Z1.000
 Y16.7633
 Y16.7773 Z-2.0000
 Y20.4039
G0 Z1.0000
G1 Z-2.0000
 Y3.1389
 Y3.1459 Z1.000
 Y16.7633
 Y16.7773 Z-2.0000
 Y20.4039
G0 Z1.0000
G1 Z-2.0000
 Y13.5567
 Y13.5637 Z1.000
 Y16.7633
 Y16.7773 Z-2.0000
 Y20.4039
G0 Z1.0000
G1 Z-2.0000
 Y13.5567
 Y13.5637 Z1.000
 Y16.7633
 Y16.7773 Z-2.0000
 Y20.4039
G0 Z1.0000
G1 Z-2.0000
 Y20.4039
G0 Z1.0000
G1 Z-2.0000
 Y20.4039
G0 Z1.0000
G1 Z-2.0000
 Y20.4039
G0 Z1.0000
G1 Z-2.0000
 Y2.6209
 Y2.6279 Z1.000
 Y12.8829
 Y12.8837 Z-2.0000
 Y20.4039
G0 Z1.0000
G1 Z-2.0000
 Y2.9219
 Y2.9254 Z1.000
 Y13.7948
 Y13.8018 Z-2.0000
 Y20.4039
G0 Z1.0000
G1 Z-2.0000
 Y10.7353
 Y10.7388 Z1.000
 Y13.8499
 Y13.8504 Z-2.0000
 Y20.4039
G0 Z1.0000
G1 Z-2.0000
 Y2.7399
 Y2.7434 Z1.000
 Y13.5637
 Y13.5672 Z-2.0000
 Y20.4039
G0 Z1.0000
G1 Z-2.0000
 Y2.6209
 Y2.6279 Z1.000
 Y13.6827
 Z-2.0000
 Y20.4039
G0 Z1.0000
G1 Z-2.0000
 Y20.4039
G0 Z1.0000
G1 Z-2.0000
 Y2.6209
 Y2.6279 Z1.000
 Y12.5626
 Y12.5766 Z-2.0000
 Y20.4039
G0 Z1.0000
G1 Z-2.0000
 Y2.8449
 Y2.8519 Z1.000
 Y13.6268
 Y13.6408 Z-2.0000
 Y20.4039
G0 Z1.0000
G1 Z-2.0000
 Y2.4248
 Y2.4388 Z1.000
 Y5.4913
 Y5.4984 Z-2.0000
 Y7.2382
 Y7.2399 Z1.000
 Y10.2522
 Y10.2592 Z-2.0000
 Y10.7983
 Y10.8053 Z1.000
 Y13.8998
 Y13.9033 Z-2.0000
 Y20.4039
G0 Z1.0000
G1 Z-2.0000
 Y2.4668
 Y2.4738 Z1.000
 Y10.0281
 Y10.0351 Z-2.0000
 Y10.5742
 Y10.5812 Z1.000
 Y13.7213
 Y13.7230 Z-2.0000
 Y20.4039
G0 Z1.0000
G1 Z-2.0000
 Y3.3210
 Y3.3350 Z1.000
 Y9.1442
 Y9.1451 Z-2.0000
 Y10.1261
 Y10.1331 Z1.000
 Y13.1787
 Y13.1927 Z-2.0000
 Y20.4039
G0 Z1.0000
G1 Z-2.0000
 Y5.5614
 Y5.5754 Z1.000
 Y10.6722
 Y10.6792 Z-2.0000
 Y20.4039
G0 Z1.0000
G1 Z-2.0000
 Y3.1529
 Y3.1669 Z1.000
 Y13.1332
 Y13.1349 Z-2.0000
 Y20.4039
G0 Z1.0000
G1 Z-2.0000
 Y2.4248
 Y2.4388 Z1.000
 Y5.8974
 Y5.9044 Z-2.0000
 Y10.3642
 Y10.3712 Z1.000
 Y13.8368
 Y13.8438 Z-2.0000
 Y20.4039
G0 Z1.0000
G1 Z-2.0000
 Y2.5088
 Y2.5158 Z1.000
 Y5.6454
 Y5.6524 Z-2.0000
 Y10.6302
 Y10.6372 Z1.000
 Y13.7738
 Y13.7773 Z-2.0000
 Y20.4039
G0 Z1.0000
G1 Z-2.0000
 Y2.6209
 Y2.6279 Z1.000
 Y17.2814
 Y17.2884 Z-2.0000
 Y20.4039
G0 Z1.0000
G1 Z-2.0000
 Y2.6454
 Y2.6471 Z1.000
 Y17.2604
 Y17.2639 Z-2.0000
 Y20.4039
G0 Z1.0000
G1 Z-2.0000
 Y20.4039
G0 Z1.0000
 X68.2768 Y-4.0163
G1 Z-2.0000
 Y2.6209
 Y2.6279 Z1.000
 Y13.6827
 Z-2.0000
 Y20.4039
G0 Z1.0000
 X66.4830 Y-4.0163
G1 Z-2.0000
 Y2.8449
 Y2.8519 Z1.000
 Y6.9266
 Y6.9301 Z-2.0000
 Y20.4039
G0 Z1.0000
 X64.6893 Y-4.0163
G1 Z-2.0000
 Y2.3968
 Y2.4038 Z1.000
 Y5.5054
 Y5.5124 Z-2.0000
 Y20.4039
G0 Z1.0000
 X62.8955 Y-4.0163
G1 Z-2.0000
 Y2.6454
 Y2.6471 Z1.000
 Y13.6670
 Y13.6679 Z-2.0000
 Y20.4039
G0 Z1.0000
 X61.1018 Y-4.0163
G1 Z-2.0000
 Y4.0631
 Y4.0701 Z1.000
 Y13.6758
 Y13.6793 Z-2.0000
 Y20.4039
G0 Z1.0000
 X59.3080 Y-4.0163
G1 Z-2.0000
 Y2.6209
 Y2.6279 Z1.000
 Y6.9406
 Y6.9441 Z-2.0000
 Y20.4039
G0 Z1.0000
 X57.5143 Y-4.0163
G1 Z-2.0000
 Y2.9692
 Y2.9700 Z1.000
 Y15.9442
 Y15.9477 Z-2.0000
 Y20.4039
G0 Z1.0000
 X55.7205 Y-4.0163
G1 Z-2.0000
 Y6.4925
 Y6.4960 Z1.000
 Y16.6233
 Y16.6303 Z-2.0000
 Y20.4039
G0 Z1.0000
 X53.9267 Y-4.0163
G1 Z-2.0000
 Y7.8368
 Y7.8403 Z1.000
 Y11.0083
 Y11.0153 Z-2.0000
 Y13.5917
 Y13.5952 Z1.000
 Y16.7633
 Y16.7773 Z-2.0000
 Y20.4039
G0 Z1.0000
 X52.1330 Y-4.0163
G1 Z-2.0000
 Y2.6209
 Y2.6279 Z1.000
 Y16.7633
 Y16.7773 Z-2.0000
 Y20.4039
G0 Z1.0000
 X50.3392 Y-4.0163
G1 Z-2.0000
 Y2.6209
 Y2.6279 Z1.000
 Y16.7633
 Y16.7773 Z-2.0000
 Y20.4039
G0 Z1.0000
 X48.5455 Y-4.0163
G1 Z-2.0000
 Y20.4039
G0 Z1.0000
 X46.7517 Y-4.0163
G1 Z-2.0000
 Y20.4039
G0 Z1.0000
 X44.9580 Y-4.0163
G1 Z-2.0000
 Y20.4039
G0 Z1.0000
 X43.1642 Y-4.0163
G1 Z-2.0000
 Y20.4039
G0 Z1.0000
 X41.3705 Y-4.0163
G1 Z-2.0000
 Y2.6209
 Y2.6279 Z1.000
 Y17.2814
 Y17.2884 Z-2.0000
 Y20.4039
G0 Z1.0000
 X39.5767 Y-4.0163
G1 Z-2.0000
 Y2.9219
 Y2.9254 Z1.000
 Y16.9838
 Y16.9856 Z-2.0000
 Y20.4039
G0 Z1.0000
 X37.7829 Y-4.0163
G1 Z-2.0000
 Y3.1801
 Y3.1805 Z1.000
 Y6.2335
 Y6.2475 Z-2.0000
 Y6.8881
 Y6.8898 Z1.000
 Y11.7994
 Y11.8029 Z-2.0000
 Y20.4039
G0 Z1.0000
 X35.9892 Y-4.0163
G1 Z-2.0000
 Y2.6034
 Y2.6051 Z1.000
 Y5.8064
 Y5.8099 Z-2.0000
 Y6.8881
 Y6.8898 Z1.000
 Y13.3957
 Y13.3992 Z-2.0000
 Y20.4039
G0 Z1.0000
 X34.1954 Y-4.0163
G1 Z-2.0000
 Y2.3898
 Y2.3933 Z1.000
 Y5.4773
 Y5.4843 Z-2.0000
 Y6.8881
 Y6.8898 Z1.000
 Y9.8741
 Y9.8881 Z-2.0000
 Y10.7554
 Y10.7558 Z1.000
 Y13.8648
 Y13.8718 Z-2.0000
 Y20.4039
G0 Z1.0000
 X32.4017 Y-4.0163
G1 Z-2.0000
 Y2.5648
 Y2.5718 Z1.000
 Y5.9884
 Y5.9919 Z-2.0000
 Y6.8881
 Y6.8898 Z1.000
 Y9.8732
 Y9.8737 Z-2.0000
 Y10.4062
 Y10.4132 Z1.000
 Y13.7668
 Y13.7738 Z-2.0000
 Y20.4039
G0 Z1.0000
 X30.6079 Y-4.0163
G1 Z-2.0000
 Y3.3070
 Y3.3140 Z1.000
 Y13.0106
 Y13.0246 Z-2.0000
 Y20.4039
G0 Z1.0000
 X28.8142 Y-4.0163
G1 Z-2.0000
 Y5.3916
 Y5.3925 Z1.000
 Y10.8263
 Y10.8333 Z-2.0000
 Y20.4039
G0 Z1.0000
 X27.0204 Y-4.0163
G1 Z-2.0000
 Y8.3198
 Y8.3268 Z1.000
 Y13.6827
 Z-2.0000
 Y20.4039
G0 Z1.0000
 X25.2266 Y-4.0163
G1 Z-2.0000
 Y3.5380
 Y3.5415 Z1.000
 Y12.9546
 Y12.9686 Z-2.0000
 Y20.4039
G0 Z1.0000
 X23.4329 Y-4.0163
G1 Z-2.0000
 Y2.6209
 Y2.6279 Z1.000
 Y8.1448
 Y8.1483 Z-2.0000
 Y20.4039
G0 Z1.0000
 X21.6391 Y-4.0163
G1 Z-2.0000
 Y2.8099
 Y2.8134 Z1.000
 Y11.8484
 Y11.8554 Z-2.0000
 Y20.4039
G0 Z1.0000
 X19.8454 Y-4.0163
G1 Z-2.0000
 Y7.2136
 Y7.2206 Z1.000
 Y13.6827
 Z-2.0000
 Y20.4039
G0 Z1.0000
 X18.0516 Y-4.0163
G1 Z-2.0000
 Y11.9990
 Y12.0007 Z1.000
 Y13.3852
 Y13.3870 Z-2.0000
 Y20.4039
G0 Z1.0000
 X16.2579 Y-4.0163
G1 Z-2.0000
 Y2.6209
 Y2.6279 Z1.000
 Y12.6326
 Y12.6396 Z-2.0000
 Y20.4039
G0 Z1.0000
 X14.4641 Y-4.0163
G1 Z-2.0000
 Y2.9149
 Y2.9219 Z1.000
 Y13.6548
 Y13.6618 Z-2.0000
 Y20.4039
G0 Z1.0000
 X12.6704 Y-4.0163
G1 Z-2.0000
 Y2.4248
 Y2.4388 Z1.000
 Y5.4843
 Y5.4878 Z-2.0000
 Y7.2346
 Y7.2382 Z1.000
 Y10.2522
 Y10.2592 Z-2.0000
 Y10.7983
 Y10.8053 Z1.000
 Y13.9050
 Y13.9059 Z-2.0000
 Y20.4039
G0 Z1.0000
 X10.8766 Y-4.0163
G1 Z-2.0000
 Y2.4808
 Y2.4948 Z1.000
 Y10.0106
 Y10.0124 Z-2.0000
 Y10.5462
 Y10.5602 Z1.000
 Y13.7038
 Y13.7073 Z-2.0000
 Y20.4039
G0 Z1.0000
 X9.0828 Y-4.0163
G1 Z-2.0000
 Y3.3770
 Y3.3910 Z1.000
 Y9.0760
 Y9.0830 Z-2.0000
 Y10.1612
 Y10.1647 Z1.000
 Y13.1507
 Y13.1577 Z-2.0000
 Y20.4039
G0 Z1.0000
 X7.2891 Y-4.0163
G1 Z-2.0000
 Y8.5859
 Y8.5929 Z1.000
 Y15.7551
 Y15.7621 Z-2.0000
 Y20.4039
G0 Z1.0000
 X5.4953 Y-4.0163
G1 Z-2.0000
 Y7.7737
 Y7.7807 Z1.000
 Y16.5603
 Y16.5638 Z-2.0000
 Y20.4039
G0 Z1.0000
 X3.7016 Y-4.0163
G1 Z-2.0000
 Y7.5777
 Y7.5917 Z1.000
 Y10.7554
 Y10.7558 Z-2.0000
 Y13.5917
 Y13.5952 Z1.000
 Y16.7633
 Y16.7773 Z-2.0000
 Y20.4039
G0 Z1.0000
 X1.9078 Y-4.0163
G1 Z-2.0000
 Y2.6489
 Y2.6629 Z1.000
 Y16.7633
 Y16.7773 Z-2.0000
 Y20.4039
G0 Z1.0000
 X0.1141 Y-4.0163
G1 Z-2.0000
 Y2.6209
 Y2.6279 Z1.000
 Y16.7633
 Y16.7773 Z-2.0000
 Y20.4039
G0 Z1.0000
 X-1.6797 Y-4.0163
G1 Z-2.0000
 Y20.4039
G0 Z1.0000
 X-3.4735 Y-4.0163
G1 Z-2.0000
 Y20.4039
G0 Z1.0000
 X-5.2672 Y-4.0163
G1 Z-2.0000
 Y20.4039
G0 Z1.0000
 X-7.0610 Y-4.0163
G1 Z-2.0000
 Y20.4039
G0 Z1.0000
 X-8.8547 Y-4.0163
G1 Z-2.0000
 Y20.4039
G0 Z1.0000
 X-10.6485 Y-4.0163
G1 Z-2.0000
 Y20.4039
G0 Z1.0000
G1 Z-2.0000
 Y20.4039
G0 Z1.0000
G1 Z-2.0000
 Y20.4039
G0 Z1.0000
G1 Z-2.0000
 Y20.4039
G0 Z1.0000
G1 Z-2.0000
 Y20.4039
G0 Z1.0000
G1 Z-2.0000
 Y20.4039
G0 Z1.0000
 X-10.0 Y-4.0163
G1 Z-2.0000
 Y20.4039
G0 Z1.0000
M5 (stop spindle)
G04 P3 (wait for 3 seconds)
G0 Z1.0000
M2 (end program)
