;PYCAM-META-DATA: Filename: /sources/cnc/pruban-tech.stl
;PYCAM-META-DATA: Timestamp: 2016-08-19 22:40:46.581190
;PYCAM-META-DATA: Version: 0.5.1
;Estimated machine time: 14 minutes
G40 (disable tool radius compensation)
G49 (disable tool length compensation)
G80 (cancel modal motion)
G54 (select coordinate system 1)
G90 (disable incremental moves)
G21 (metric)
G64 P0.050000 Q0.050000 (continuous mode with tolerance and cleanup)
F2400.00000
S10000.00000
;PYCAM_TOOLPATH_SETTINGS: START
;[Bounds]
;maxz = 7.5
;maxx = 367.834083581
;maxy = 20.4039196014
;minx = -84.1924808264
;miny = -4.01628913879
;minz = 0.0
;
;[Tool]
;torus_radius = 0.25
;speed = 10000.0
;shape = CylindricalCutter
;tool_radius = 0.9
;feedrate = 2400.0
;
;[Process]
;engrave_offset = 0.9
;step_down = 40.0
;generator = DropCutter
;postprocessor = PathAccumulator
;milling_style = conventional
;material_allowance = 0.0
;pocketing_type = none
;path_direction = xy
;
;PYCAM_TOOLPATH_SETTINGS: END
T1 M6
G0 Z3.0000
M3 (start spindle)
G04 P3 (wait for 3 seconds)
 X-84.1925 Y-4.0163
G1 Z0.0000
 X367.8341
G0 Z3.0000
 X-84.1925 Y-2.2720
G1 Z0.0000
 X367.8341
G0 Z3.0000
 X-84.1925 Y-0.5277
G1 Z0.0000
 X184.2334
 X184.2369 Z7.5000
 X189.1458
 X189.1529 Z0.0000
 X367.8341
G0 Z3.0000
 X-84.1925 Y1.2166
G1 Z0.0000
 X183.1090
 X183.1125 Z7.5000
 X191.2682
 X191.2753 Z0.0000
 X367.8341
G0 Z3.0000
 X-84.1925 Y2.9609
G1 Z0.0000
 X-0.7043
 X-0.7034 Z7.5000
 X2.3722
 X2.3739 Z0.0000
 X9.6635
 X9.6670 Z7.5000
 X17.3554
 X17.3571 Z0.0000
 X21.4877
 X21.4895 Z7.5000
 X24.9621
 X24.9625 Z0.0000
 X31.2387
 X31.2423 Z7.5000
 X37.1913
 X37.2053 Z0.0000
 X39.5456
 X39.5491 Z7.5000
 X42.4744
 X42.4753 Z0.0000
 X49.6990
 X49.6998 Z7.5000
 X52.7648
 X52.7789 Z0.0000
 X57.5156
 X57.5226 Z7.5000
 X60.7203
 X60.7273 Z0.0000
 X62.2242
 X62.2312 Z7.5000
 X66.6798
 X66.6868 Z0.0000
 X66.7360
 X66.7431 Z7.5000
 X69.6666
 X69.6701 Z0.0000
 X71.3673
 X71.3709 Z7.5000
 X78.7377
 X78.7386 Z0.0000
 X83.1248
 X83.1389 Z7.5000
 X90.8271
 X90.8272 Z0.0000
 X92.4999
 X92.5069 Z7.5000
 X95.4375
 X95.4515 Z0.0000
 X98.7370
 X98.7388 Z7.5000
 X101.6641
 X101.6711 Z0.0000
 X111.4327
 X111.4397 Z7.5000
 X114.5232
 X114.5240 Z0.0000
 X118.3059
 X118.3129 Z7.5000
 X124.2619
 X124.2637 Z0.0000
 X128.6332
 X128.6349 Z7.5000
 X134.1184
 X134.1324 Z0.0000
 X135.8894
 X135.8964 Z7.5000
 X138.8270
 X138.8340 Z0.0000
 X142.1300
 X142.1371 Z7.5000
 X145.0536
 X145.0606 Z0.0000
 X146.6419
 X146.6489 Z7.5000
 X149.5795
 X149.5865 Z0.0000
 X152.8755
 X152.8790 Z7.5000
 X155.8061
 X155.8131 Z0.0000
 X159.2602
 X159.2620 Z7.5000
 X164.2359
 X164.2377 Z0.0000
 X167.8025
 X167.8060 Z7.5000
 X170.7313
 X170.7322 Z0.0000
 X174.3032
 X174.3102 Z7.5000
 X179.2788
 X179.2859 Z0.0000
 X184.9432
 X184.9573 Z7.5000
 X191.9005
 X191.9006 Z0.0000
 X193.5997
 X193.6006 Z7.5000
 X196.5250
 X196.5320 Z0.0000
 X200.4043
 X200.4114 Z7.5000
 X206.3639
 X206.3780 Z0.0000
 X208.6128
 X208.6268 Z7.5000
 X214.7270
 X214.7340 Z0.0000
 X222.9986
 X223.0022 Z7.5000
 X232.0856
 X232.0926 Z0.0000
 X232.3596
 X232.3632 Z7.5000
 X235.2893
 X235.2898 Z0.0000
 X236.9980
 X237.0015 Z7.5000
 X239.9356
 X239.9391 Z0.0000
 X242.9927
 X242.9997 Z7.5000
 X245.9303
 X245.9373 Z0.0000
 X248.9874
 X248.9909 Z7.5000
 X251.9250
 X251.9285 Z0.0000
 X253.5607
 X253.5616 Z7.5000
 X256.4860
 X256.4930 Z0.0000
 X259.8734
 X259.8804 Z7.5000
 X264.3009
 X264.3079 Z0.0000
 X267.0136
 X267.0206 Z7.5000
 X272.9732
 X272.9802 Z0.0000
 X276.9790
 X276.9930 Z7.5000
 X284.3441
 X284.3582 Z0.0000
 X367.8341
G0 Z3.0000
 X-84.1925 Y4.7052
G1 Z0.0000
 X-0.9002
 X-0.8997 Z7.5000
 X2.5584
 X2.5724 Z0.0000
 X8.1947
 X8.2017 Z7.5000
 X17.5521
 X17.5539 Z0.0000
 X20.7744
 X20.7884 Z7.5000
 X25.6622
 X25.6640 Z0.0000
 X29.1937
 X29.2007 Z7.5000
 X38.2946
 X38.2981 Z0.0000
 X39.3488
 X39.3523 Z7.5000
 X42.6694
 X42.6712 Z0.0000
 X49.5031
 X49.5035 Z7.5000
 X52.9721
 X52.9739 Z0.0000
 X56.6292
 X56.6297 Z7.5000
 X60.4251
 X60.4321 Z0.0000
 X60.7554
 X60.7589 Z7.5000
 X69.8564
 X69.8704 Z0.0000
 X71.1741
 X71.1758 Z7.5000
 X80.4261
 X80.4402 Z0.0000
 X81.6630
 X81.6701 Z7.5000
 X91.0236
 X91.0238 Z0.0000
 X92.3031
 X92.3101 Z7.5000
 X95.6343
 X95.6413 Z0.0000
 X98.5402
 X98.5420 Z7.5000
 X101.8609
 X101.8679 Z0.0000
 X111.2359
 X111.2500 Z7.5000
 X114.7199
 X114.7208 Z0.0000
 X116.2538
 X116.2608 Z7.5000
 X125.3477
 X125.3617 Z0.0000
 X126.6795
 X126.6812 Z7.5000
 X134.8914
 X134.8984 Z0.0000
 X135.6926
 X135.7066 Z7.5000
 X139.0237
 X139.0308 Z0.0000
 X141.9332
 X141.9403 Z7.5000
 X145.2504
 X145.2574 Z0.0000
 X146.4451
 X146.4521 Z7.5000
 X149.7762
 X149.7833 Z0.0000
 X152.6822
 X152.6840 Z7.5000
 X156.0029
 X156.0099 Z0.0000
 X157.4225
 X157.4295 Z7.5000
 X166.0526
 X166.0666 Z0.0000
 X167.6057
 X167.6092 Z7.5000
 X170.9263
 X170.9281 Z0.0000
 X172.4760
 X172.4830 Z7.5000
 X181.1026
 X181.1043 Z0.0000
 X182.9403
 X182.9438 Z7.5000
 X192.0694
 X192.0764 Z0.0000
 X193.4029
 X193.4038 Z7.5000
 X196.7218
 X196.7288 Z0.0000
 X198.3593
 X198.3628 Z7.5000
 X207.4602
 X207.4673 Z0.0000
 X207.8397
 Z7.5000
 X216.4417
 X216.4488 Z0.0000
 X222.8019
 X222.8054 Z7.5000
 X235.4861
 X235.4866 Z0.0000
 X236.8012
 X236.8047 Z7.5000
 X240.1324
 X240.1359 Z0.0000
 X242.7959
 X242.8099 Z7.5000
 X246.1271
 X246.1341 Z0.0000
 X248.7906
 X248.7941 Z7.5000
 X252.1217
 X252.1253 Z0.0000
 X253.3639
 X253.3648 Z7.5000
 X256.6828
 X256.6968 Z0.0000
 X258.2921
 X258.2957 Z7.5000
 X264.4977
 X264.5047 Z0.0000
 X264.9685
 X264.9720 Z7.5000
 X274.0695
 X274.0765 Z0.0000
 X275.2994
 X275.3029 Z7.5000
 X284.5409
 X284.5479 Z0.0000
 X367.8341
G0 Z3.0000
 X-84.1925 Y6.4495
G1 Z0.0000
 X-0.9002
 X-0.8997 Z7.5000
 X2.5584
 X2.5724 Z0.0000
 X7.9417
 X7.9487 Z7.5000
 X11.2588
 X11.2658 Z0.0000
 X13.9364
 X13.9399 Z7.5000
 X17.5521
 X17.5539 Z0.0000
 X20.1278
 X20.1349 Z7.5000
 X26.3123
 X26.3193 Z0.0000
 X28.4487
 X28.4557 Z7.5000
 X32.0188
 X32.0329 Z0.0000
 X39.3488
 X39.3523 Z7.5000
 X42.6694
 X42.6712 Z0.0000
 X49.5031
 X49.5035 Z7.5000
 X52.9721
 X52.9739 Z0.0000
 X55.7446
 X55.7516 Z7.5000
 X59.5537
 X59.5607 Z0.0000
 X60.3478
 X60.3513 Z7.5000
 X63.7123
 X63.7132 Z0.0000
 X66.3284
 X66.3355 Z7.5000
 X69.8564
 X69.8704 Z0.0000
 X71.1741
 X71.1758 Z7.5000
 X74.7969
 X74.8004 Z0.0000
 X77.5834
 X77.5852 Z7.5000
 X81.0709
 X81.0718 Z0.0000
 X81.4171
 X81.4206 Z7.5000
 X84.7342
 X84.7377 Z0.0000
 X87.3977
 X87.4118 Z7.5000
 X91.0236
 X91.0238 Z0.0000
 X92.3031
 X92.3101 Z7.5000
 X95.6343
 X95.6413 Z0.0000
 X98.5402
 X98.5420 Z7.5000
 X101.8609
 X101.8679 Z0.0000
 X111.2359
 X111.2500 Z7.5000
 X114.7199
 X114.7208 Z0.0000
 X115.5088
 X115.5229 Z7.5000
 X119.0895
 X119.0912 Z0.0000
 X125.9521
 X125.9591 Z7.5000
 X129.5362
 X129.5433 Z0.0000
 X135.6926
 X135.7066 Z7.5000
 X139.0237
 X139.0308 Z0.0000
 X141.9332
 X141.9403 Z7.5000
 X145.2504
 X145.2574 Z0.0000
 X146.4451
 X146.4521 Z7.5000
 X149.7762
 X149.7833 Z0.0000
 X152.6822
 X152.6840 Z7.5000
 X156.0029
 X156.0099 Z0.0000
 X156.7759
 X156.7829 Z7.5000
 X160.3039
 X160.3109 Z0.0000
 X163.1642
 X163.1677 Z7.5000
 X166.7062
 X166.7097 Z0.0000
 X167.6057
 X167.6092 Z7.5000
 X170.9263
 X170.9281 Z0.0000
 X171.8259
 X171.8276 Z7.5000
 X175.3538
 X175.3556 Z0.0000
 X178.2106
 X178.2177 Z7.5000
 X181.7526
 X181.7597 Z0.0000
 X182.1989
 X182.2006 Z7.5000
 X185.7409
 X185.7426 Z0.0000
 X188.3570
 X188.3579 Z7.5000
 X192.0694
 X192.0764 Z0.0000
 X193.4029
 X193.4038 Z7.5000
 X196.7218
 X196.7288 Z0.0000
 X197.6143
 X197.6178 Z7.5000
 X201.1915
 X201.2055 Z0.0000
 X212.6608
 X212.6748 Z7.5000
 X216.6877
 X216.6912 Z0.0000
 X222.8019
 X222.8054 Z7.5000
 X226.2736
 X226.2771 Z0.0000
 X232.1629
 X232.1664 Z7.5000
 X235.4861
 X235.4866 Z0.0000
 X236.8012
 X236.8047 Z7.5000
 X240.1324
 X240.1359 Z0.0000
 X242.7959
 X242.8099 Z7.5000
 X246.1271
 X246.1341 Z0.0000
 X248.7906
 X248.7941 Z7.5000
 X252.1217
 X252.1253 Z0.0000
 X253.3639
 X253.3648 Z7.5000
 X256.6828
 X256.6968 Z0.0000
 X258.0321
 X258.0462 Z7.5000
 X261.3765
 X261.3769 Z0.0000
 X264.2236
 X264.2271 Z7.5000
 X267.8007
 X267.8077 Z0.0000
 X274.6449
 X274.6453 Z7.5000
 X278.1307
 X278.1311 Z0.0000
 X280.9216
 X280.9251 Z7.5000
 X284.5409
 X284.5479 Z0.0000
 X367.8341
G0 Z3.0000
 X-84.1925 Y8.1938
G1 Z0.0000
 X-0.9002
 X-0.8997 Z7.5000
 X6.6907
 X6.6977 Z0.0000
 X8.3985
 X8.4020 Z7.5000
 X17.5521
 X17.5539 Z0.0000
 X19.4778
 X19.4795 Z7.5000
 X22.9952
 X23.0022 Z0.0000
 X23.4449
 X23.4520 Z7.5000
 X26.9720
 X26.9724 Z0.0000
 X28.2765
 X28.2783 Z7.5000
 X38.6526
 X38.6528 Z0.0000
 X39.3488
 X39.3523 Z7.5000
 X42.6694
 X42.6712 Z0.0000
 X49.5031
 X49.5035 Z7.5000
 X58.6330
 X58.6365 Z0.0000
 X60.3091
 X60.3109 Z7.5000
 X63.6298
 X63.6368 Z0.0000
 X66.5393
 X66.5463 Z7.5000
 X69.8564
 X69.8704 Z0.0000
 X71.1741
 X71.1758 Z7.5000
 X74.5070
 X74.5079 Z0.0000
 X77.8680
 X77.8751 Z7.5000
 X81.2554
 X81.2625 Z0.0000
 X81.8704
 X81.8721 Z7.5000
 X91.0236
 X91.0238 Z0.0000
 X92.3031
 X92.3101 Z7.5000
 X95.6343
 X95.6413 Z0.0000
 X98.5402
 X98.5420 Z7.5000
 X101.8609
 X101.8679 Z0.0000
 X111.2359
 X111.2500 Z7.5000
 X114.7199
 X114.7208 Z0.0000
 X115.3401
 X115.3472 Z7.5000
 X129.1708
 X129.1849 Z0.0000
 X135.6926
 X135.7066 Z7.5000
 X139.0237
 X139.0308 Z0.0000
 X141.9332
 X141.9403 Z7.5000
 X145.2504
 X145.2574 Z0.0000
 X146.4451
 X146.4521 Z7.5000
 X149.7762
 X149.7833 Z0.0000
 X152.6822
 X152.6840 Z7.5000
 X156.0029
 X156.0099 Z0.0000
 X156.5932
 X156.6002 Z7.5000
 X159.9946
 X160.0017 Z0.0000
 X163.4734
 X163.4769 Z7.5000
 X166.8889
 X166.8924 Z0.0000
 X167.6057
 X167.6092 Z7.5000
 X170.9263
 X170.9281 Z0.0000
 X171.6397
 X171.6432 Z7.5000
 X175.0481
 X175.0622 Z0.0000
 X178.5198
 X178.5269 Z7.5000
 X185.3649
 X185.3719 Z0.0000
 X188.7382
 X188.7453 Z7.5000
 X192.0694
 X192.0764 Z0.0000
 X193.4029
 X193.4038 Z7.5000
 X196.7218
 X196.7288 Z0.0000
 X197.4386
 X197.4456 Z7.5000
 X207.8186
 X207.8222 Z0.0000
 X208.5917
 X208.5952 Z7.5000
 X216.0130
 X216.0165 Z0.0000
 X222.8019
 X222.8054 Z7.5000
 X226.2736
 X226.2771 Z0.0000
 X232.1629
 X232.1664 Z7.5000
 X235.4861
 X235.4866 Z0.0000
 X236.8012
 X236.8047 Z7.5000
 X240.1324
 X240.1359 Z0.0000
 X242.7959
 X242.8099 Z7.5000
 X246.1271
 X246.1341 Z0.0000
 X248.7906
 X248.7941 Z7.5000
 X252.1217
 X252.1253 Z0.0000
 X253.3639
 X253.3648 Z7.5000
 X256.6828
 X256.6968 Z0.0000
 X258.0321
 X258.0462 Z7.5000
 X261.3633
 X261.3703 Z0.0000
 X264.0479
 X264.0549 Z7.5000
 X277.8364
 X277.8434 Z0.0000
 X281.2097
 X281.2167 Z7.5000
 X284.5409
 X284.5479 Z0.0000
 X367.8341
G0 Z3.0000
 X-84.1925 Y9.9381
G1 Z0.0000
 X-0.9002
 X-0.8997 Z7.5000
 X8.3914
 X8.3985 Z0.0000
 X10.6544
 X10.6684 Z7.5000
 X17.4784
 X17.4819 Z0.0000
 X18.8207
 X18.8277 Z7.5000
 X22.3486
 X22.3627 Z0.0000
 X24.0985
 X24.1020 Z7.5000
 X27.6194
 X27.6265 Z0.0000
 X28.5049
 X28.5120 Z7.5000
 X31.9977
 X32.0013 Z0.0000
 X35.1251
 X35.1321 Z7.5000
 X38.5125
 X38.5195 Z0.0000
 X39.3488
 X39.3523 Z7.5000
 X42.6694
 X42.6712 Z0.0000
 X49.5031
 X49.5035 Z7.5000
 X58.6119
 X58.6260 Z0.0000
 X60.3091
 X60.3109 Z7.5000
 X63.6298
 X63.6368 Z0.0000
 X66.5393
 X66.5463 Z7.5000
 X69.8564
 X69.8704 Z0.0000
 X71.1741
 X71.1758 Z7.5000
 X74.8461
 X74.8531 Z0.0000
 X77.5307
 X77.5377 Z7.5000
 X81.0446
 X81.0586 Z0.0000
 X84.1228
 X84.1298 Z7.5000
 X90.9397
 X90.9538 Z0.0000
 X92.3031
 X92.3101 Z7.5000
 X95.8837
 X95.8855 Z0.0000
 X98.4313
 X98.4383 Z7.5000
 X101.8187
 X101.8257 Z0.0000
 X111.2359
 X111.2500 Z7.5000
 X114.7199
 X114.7208 Z0.0000
 X115.5721
 X115.5756 Z7.5000
 X119.0508
 X119.0649 Z0.0000
 X122.1852
 X122.1922 Z7.5000
 X125.5726
 X125.5866 Z0.0000
 X125.9925
 X125.9934 Z7.5000
 X129.6065
 X129.6136 Z0.0000
 X135.6926
 X135.7066 Z7.5000
 X139.2750
 X139.2759 Z0.0000
 X141.8208
 X141.8349 Z7.5000
 X145.2082
 X145.2152 Z0.0000
 X146.4451
 X146.4521 Z7.5000
 X150.0257
 X150.0275 Z0.0000
 X152.5733
 X152.5803 Z7.5000
 X155.9602
 X155.9605 Z0.0000
 X156.7970
 X156.8005 Z7.5000
 X160.3671
 X160.3706 Z0.0000
 X163.1079
 X163.1114 Z7.5000
 X166.6833
 X166.6842 Z0.0000
 X167.6057
 X167.6092 Z7.5000
 X170.9263
 X170.9281 Z0.0000
 X171.8435
 X171.8505 Z7.5000
 X175.4136
 X175.4206 Z0.0000
 X178.1544
 X178.1614 Z7.5000
 X181.7315
 X181.7351 Z0.0000
 X182.1743
 X182.1813 Z7.5000
 X185.6601
 X185.6671 Z0.0000
 X188.4396
 X188.4413 Z7.5000
 X192.0694
 X192.0764 Z0.0000
 X193.4029
 X193.4038 Z7.5000
 X196.7218
 X196.7288 Z0.0000
 X197.6776
 X197.6846 Z7.5000
 X201.1633
 X201.1704 Z0.0000
 X204.2837
 X204.2977 Z7.5000
 X207.6842
 X207.6847 Z0.0000
 X207.9241
 X207.9311 Z7.5000
 X212.0283
 X212.0353 Z0.0000
 X222.8019
 X222.8054 Z7.5000
 X226.2736
 X226.2771 Z0.0000
 X232.1629
 X232.1664 Z7.5000
 X235.4861
 X235.4866 Z0.0000
 X236.8012
 X236.8047 Z7.5000
 X240.3713
 X240.3748 Z0.0000
 X242.7045
 X242.7080 Z7.5000
 X246.3642
 X246.3651 Z0.0000
 X248.6991
 X248.6992 Z7.5000
 X252.0796
 X252.0831 Z0.0000
 X253.3639
 X253.3648 Z7.5000
 X256.6828
 X256.6968 Z0.0000
 X258.0321
 X258.0462 Z7.5000
 X261.3633
 X261.3703 Z0.0000
 X264.2866
 X264.2867 Z7.5000
 X267.7726
 X267.7796 Z0.0000
 X270.9000
 X270.9035 Z7.5000
 X274.2803
 X274.2944 Z0.0000
 X274.6739
 X274.6879 Z7.5000
 X278.1807
 X278.1843 Z0.0000
 X280.8724
 X280.8794 Z7.5000
 X284.5409
 X284.5479 Z0.0000
 X367.8341
G0 Z3.0000
 X-84.1925 Y11.6824
G1 Z0.0000
 X-0.9002
 X-0.8997 Z7.5000
 X2.5584
 X2.5724 Z0.0000
 X5.2500
 X5.2535 Z7.5000
 X16.9372
 X16.9442 Z0.0000
 X18.1706
 X18.1724 Z7.5000
 X21.7016
 X21.7018 Z0.0000
 X24.7486
 X24.7503 Z7.5000
 X28.2800
 X28.2871 Z0.0000
 X29.2639
 X29.2710 Z7.5000
 X37.8659
 X37.8800 Z0.0000
 X39.3488
 X39.3523 Z7.5000
 X42.6694
 X42.6712 Z0.0000
 X49.5031
 X49.5035 Z7.5000
 X52.9721
 X52.9739 Z0.0000
 X55.6040
 X55.6111 Z7.5000
 X59.2233
 X59.2269 Z0.0000
 X60.3091
 X60.3109 Z7.5000
 X63.6298
 X63.6368 Z0.0000
 X66.5393
 X66.5463 Z7.5000
 X69.8564
 X69.8704 Z0.0000
 X71.1741
 X71.1758 Z7.5000
 X80.3541
 X80.3550 Z0.0000
 X82.0777
 X82.0812 Z7.5000
 X90.4056
 X90.4126 Z0.0000
 X92.3031
 X92.3101 Z7.5000
 X101.3830
 X101.3900 Z0.0000
 X111.2359
 X111.2500 Z7.5000
 X114.7199
 X114.7208 Z0.0000
 X116.3311
 X116.3346 Z7.5000
 X124.9260
 X124.9331 Z0.0000
 X126.7392
 X126.7462 Z7.5000
 X134.8914
 X134.8984 Z0.0000
 X135.6926
 X135.7066 Z7.5000
 X144.7725
 X144.7795 Z0.0000
 X146.4451
 X146.4521 Z7.5000
 X155.5250
 X155.5320 Z0.0000
 X157.4787
 X157.4857 Z7.5000
 X165.9823
 X165.9893 Z0.0000
 X167.6057
 X167.6092 Z7.5000
 X170.9263
 X170.9281 Z0.0000
 X172.5322
 X172.5392 Z7.5000
 X181.0323
 X181.0340 Z0.0000
 X182.8349
 X182.8419 Z7.5000
 X192.0694
 X192.0764 Z0.0000
 X193.4029
 X193.4038 Z7.5000
 X196.7218
 X196.7288 Z0.0000
 X198.4348
 X198.4357 Z7.5000
 X207.0315
 X207.0351 Z0.0000
 X208.1630
 X208.1771 Z7.5000
 X216.2168
 X216.2239 Z0.0000
 X222.8019
 X222.8054 Z7.5000
 X226.2736
 X226.2771 Z0.0000
 X232.1629
 X232.1664 Z7.5000
 X235.4861
 X235.4866 Z0.0000
 X236.8012
 X236.8047 Z7.5000
 X251.6509
 X251.6579 Z0.0000
 X253.3639
 X253.3648 Z7.5000
 X256.6828
 X256.6968 Z0.0000
 X256.9077
 X256.9217 Z7.5000
 X264.4977
 X264.5047 Z0.0000
 X265.0423
 X265.0441 Z7.5000
 X273.6408
 X273.6443 Z0.0000
 X275.3485
 X275.3626 Z7.5000
 X284.5409
 X284.5479 Z0.0000
 X367.8341
G0 Z3.0000
 X-84.1925 Y13.4267
G1 Z0.0000
 X-0.9002
 X-0.8997 Z7.5000
 X2.5584
 X2.5724 Z0.0000
 X4.6386
 X4.6527 Z7.5000
 X8.7358
 X8.7393 Z0.0000
 X9.8392
 X9.8462 Z7.5000
 X15.0819
 X15.0889 Z0.0000
 X18.0898
 X18.0968 Z7.5000
 X20.9571
 X20.9641 Z0.0000
 X25.4900
 X25.4935 Z7.5000
 X28.3574
 X28.3609 Z0.0000
 X31.3266
 X31.3283 Z7.5000
 X35.9333
 X35.9368 Z0.0000
 X39.3488
 X39.3523 Z7.5000
 X42.6694
 X42.6712 Z0.0000
 X49.5031
 X49.5035 Z7.5000
 X52.9721
 X52.9739 Z0.0000
 X55.1191
 X55.1226 Z7.5000
 X59.1706
 X59.1724 Z0.0000
 X60.5797
 X60.5938 Z7.5000
 X63.3592
 X63.3610 Z0.0000
 X66.8133
 X66.8169 Z7.5000
 X69.5893
 X69.5963 Z0.0000
 X71.1741
 X71.1758 Z7.5000
 X78.5708
 X78.5849 Z0.0000
 X83.3146
 X83.3181 Z7.5000
 X88.5573
 X88.5608 Z0.0000
 X92.5701
 X92.5842 Z7.5000
 X95.3654
 X95.3663 Z0.0000
 X95.6764
 X95.6835 Z7.5000
 X99.7877
 X99.7912 Z0.0000
 X111.2359
 X111.2500 Z7.5000
 X114.7199
 X114.7208 Z0.0000
 X118.3902
 X118.3972 Z7.5000
 X122.9995
 X123.0000 Z0.0000
 X128.8475
 X128.8546 Z7.5000
 X133.9075
 X133.9146 Z0.0000
 X135.6926
 X135.7066 Z7.5000
 X143.1912
 X143.1947 Z0.0000
 X146.7121
 X146.7262 Z7.5000
 X149.5057
 X149.5074 Z0.0000
 X149.8184
 X149.8254 Z7.5000
 X153.9226
 X153.9297 Z0.0000
 X159.4184
 X159.4254 Z7.5000
 X164.0145
 X164.0215 Z0.0000
 X167.6057
 X167.6092 Z7.5000
 X170.9263
 X170.9281 Z0.0000
 X174.4701
 X174.4710 Z7.5000
 X179.0680
 X179.0750 Z0.0000
 X184.6305
 X184.6323 Z7.5000
 X188.7945
 X188.8015 Z0.0000
 X189.0193
 X189.0264 Z7.5000
 X191.7953
 X191.7988 Z0.0000
 X193.6717
 X193.6788 Z7.5000
 X196.4530
 X196.4539 Z0.0000
 X200.4957
 X200.4992 Z7.5000
 X205.0989
 X205.1059 Z0.0000
 X209.8778
 X209.8848 Z7.5000
 X215.4148
 X215.4152 Z0.0000
 X222.8019
 X222.8054 Z7.5000
 X226.2736
 X226.2771 Z0.0000
 X232.4361
 X232.4365 Z7.5000
 X235.2129
 X235.2164 Z0.0000
 X237.0744
 X237.0748 Z7.5000
 X239.8583
 X239.8653 Z0.0000
 X240.1236
 X240.1245 Z7.5000
 X244.0890
 X244.1031 Z0.0000
 X246.1411
 X246.1481 Z7.5000
 X250.1188
 X250.1259 Z0.0000
 X253.6327
 X253.6397 Z7.5000
 X256.4140
 X256.4148 Z0.0000
 X257.1888
 X257.2028 Z7.5000
 X264.2271
 X264.2289 Z0.0000
 X267.1050
 X267.1085 Z7.5000
 X271.7082
 X271.7152 Z0.0000
 X277.1336
 X277.1406 Z7.5000
 X284.5409
 X284.5479 Z0.0000
 X367.8341
G0 Z3.0000
 X-84.1925 Y15.1710
G1 Z0.0000
 X-0.9002
 X-0.8997 Z7.5000
 X7.8925
 X7.8960 Z0.0000
 X39.3488
 X39.3523 Z7.5000
 X42.6694
 X42.6712 Z0.0000
 X49.5031
 X49.5035 Z7.5000
 X58.3800
 X58.3835 Z0.0000
 X71.1741
 X71.1758 Z7.5000
 X74.5017
 X74.5052 Z0.0000
 X106.8576
 X106.8611 Z7.5000
 X119.1000
 X119.1035 Z0.0000
 X135.6926
 X135.7066 Z7.5000
 X139.0237
 X139.0308 Z0.0000
 X167.6057
 X167.6092 Z7.5000
 X170.9263
 X170.9281 Z0.0000
 X193.4029
 X193.4038 Z7.5000
 X196.7218
 X196.7288 Z0.0000
 X222.8019
 X222.8054 Z7.5000
 X226.2736
 X226.2771 Z0.0000
 X232.1629
 X232.1664 Z7.5000
 X235.4861
 X235.4866 Z0.0000
 X253.3639
 X253.3648 Z7.5000
 X256.6828
 X256.6968 Z0.0000
 X258.0321
 X258.0462 Z7.5000
 X261.3633
 X261.3703 Z0.0000
 X281.2167
 X281.2203 Z7.5000
 X284.5409
 X284.5479 Z0.0000
 X367.8341
G0 Z3.0000
 X-84.1925 Y16.9153
G1 Z0.0000
 X39.5175
 X39.5210 Z7.5000
 X42.4972
 X42.5008 Z0.0000
 X71.3445
 X71.3454 Z7.5000
 X74.3260
 X74.3331 Z0.0000
 X135.8683
 X135.8718 Z7.5000
 X138.8551
 X138.8621 Z0.0000
 X167.7744
 X167.7779 Z7.5000
 X170.7542
 X170.7577 Z0.0000
 X193.5733
 X193.5804 Z7.5000
 X196.5531
 X196.5602 Z0.0000
 X232.3350
 X232.3368 Z7.5000
 X235.3148
 X235.3166 Z0.0000
 X253.5343
 X253.5484 Z7.5000
 X256.5141
 X256.5282 Z0.0000
 X281.3907
 X281.3916 Z7.5000
 X284.3705
 X284.3713 Z0.0000
 X367.8341
G0 Z3.0000
 X-84.1925 Y18.6596
G1 Z0.0000
 X367.8341
G0 Z3.0000
 X-84.1925 Y20.4039
G1 Z0.0000
 X367.8341
G0 Z3.0000
 Y-4.0163
G1 Z0.0000
 Y20.4039
G0 Z3.0000
 X366.0403 Y-4.0163
G1 Z0.0000
 Y20.4039
G0 Z3.0000
 X364.2466 Y-4.0163
G1 Z0.0000
 Y20.4039
G0 Z3.0000
 X362.4528 Y-4.0163
G1 Z0.0000
 Y20.4039
G0 Z3.0000
 X360.6591 Y-4.0163
G1 Z0.0000
 Y20.4039
G0 Z3.0000
 X358.8653 Y-4.0163
G1 Z0.0000
 Y20.4039
G0 Z3.0000
 X357.0715 Y-4.0163
G1 Z0.0000
 Y20.4039
G0 Z3.0000
 X355.2778 Y-4.0163
G1 Z0.0000
 Y20.4039
G0 Z3.0000
 X353.4840 Y-4.0163
G1 Z0.0000
 Y20.4039
G0 Z3.0000
 X351.6903 Y-4.0163
G1 Z0.0000
 Y20.4039
G0 Z3.0000
 X349.8965 Y-4.0163
G1 Z0.0000
 Y20.4039
G0 Z3.0000
 X348.1028 Y-4.0163
G1 Z0.0000
 Y20.4039
G0 Z3.0000
 X346.3090 Y-4.0163
G1 Z0.0000
 Y20.4039
G0 Z3.0000
 X344.5153 Y-4.0163
G1 Z0.0000
 Y20.4039
G0 Z3.0000
 X342.7215 Y-4.0163
G1 Z0.0000
 Y20.4039
G0 Z3.0000
 X340.9277 Y-4.0163
G1 Z0.0000
 Y20.4039
G0 Z3.0000
 X339.1340 Y-4.0163
G1 Z0.0000
 Y20.4039
G0 Z3.0000
 X337.3402 Y-4.0163
G1 Z0.0000
 Y20.4039
G0 Z3.0000
 X335.5465 Y-4.0163
G1 Z0.0000
 Y20.4039
G0 Z3.0000
 X333.7527 Y-4.0163
G1 Z0.0000
 Y20.4039
G0 Z3.0000
 X331.9590 Y-4.0163
G1 Z0.0000
 Y20.4039
G0 Z3.0000
 X330.1652 Y-4.0163
G1 Z0.0000
 Y20.4039
G0 Z3.0000
 X328.3714 Y-4.0163
G1 Z0.0000
 Y20.4039
G0 Z3.0000
 X326.5777 Y-4.0163
G1 Z0.0000
 Y20.4039
G0 Z3.0000
 X324.7839 Y-4.0163
G1 Z0.0000
 Y20.4039
G0 Z3.0000
 X322.9902 Y-4.0163
G1 Z0.0000
 Y20.4039
G0 Z3.0000
 X321.1964 Y-4.0163
G1 Z0.0000
 Y20.4039
G0 Z3.0000
 X319.4027 Y-4.0163
G1 Z0.0000
 Y20.4039
G0 Z3.0000
 X317.6089 Y-4.0163
G1 Z0.0000
 Y20.4039
G0 Z3.0000
 X315.8152 Y-4.0163
G1 Z0.0000
 Y20.4039
G0 Z3.0000
 X314.0214 Y-4.0163
G1 Z0.0000
 Y20.4039
G0 Z3.0000
 X312.2276 Y-4.0163
G1 Z0.0000
 Y20.4039
G0 Z3.0000
 X310.4339 Y-4.0163
G1 Z0.0000
 Y20.4039
G0 Z3.0000
 X308.6401 Y-4.0163
G1 Z0.0000
 Y20.4039
G0 Z3.0000
 X306.8464 Y-4.0163
G1 Z0.0000
 Y20.4039
G0 Z3.0000
 X305.0526 Y-4.0163
G1 Z0.0000
 Y20.4039
G0 Z3.0000
 X303.2589 Y-4.0163
G1 Z0.0000
 Y20.4039
G0 Z3.0000
 X301.4651 Y-4.0163
G1 Z0.0000
 Y20.4039
G0 Z3.0000
 X299.6713 Y-4.0163
G1 Z0.0000
 Y20.4039
G0 Z3.0000
 X297.8776 Y-4.0163
G1 Z0.0000
 Y20.4039
G0 Z3.0000
 X296.0838 Y-4.0163
G1 Z0.0000
 Y20.4039
G0 Z3.0000
 X294.2901 Y-4.0163
G1 Z0.0000
 Y20.4039
G0 Z3.0000
 X292.4963 Y-4.0163
G1 Z0.0000
 Y20.4039
G0 Z3.0000
 X290.7026 Y-4.0163
G1 Z0.0000
 Y20.4039
G0 Z3.0000
 X288.9088 Y-4.0163
G1 Z0.0000
 Y20.4039
G0 Z3.0000
 X287.1151 Y-4.0163
G1 Z0.0000
 Y20.4039
G0 Z3.0000
 X285.3213 Y-4.0163
G1 Z0.0000
 Y20.4039
G0 Z3.0000
 X283.5275 Y-4.0163
G1 Z0.0000
 Y2.6209
 Y2.6279 Z7.5000
 Y17.2814
 Y17.2884 Z0.0000
 Y20.4039
G0 Z3.0000
 X281.7338 Y-4.0163
G1 Z0.0000
 Y2.7049
 Y2.7189 Z7.5000
 Y17.1974
 Y17.2044 Z0.0000
 Y20.4039
G0 Z3.0000
 X279.9400 Y-4.0163
G1 Z0.0000
 Y2.4248
 Y2.4388 Z7.5000
 Y5.5124
 Y5.5159 Z0.0000
 Y10.7703
 Y10.7843 Z7.5000
 Y13.8499
 Y13.8504 Z0.0000
 Y20.4039
G0 Z3.0000
 X278.1463 Y-4.0163
G1 Z0.0000
 Y2.4808
 Y2.4948 Z7.5000
 Y6.4085
 Y6.4120 Z0.0000
 Y9.8741
 Y9.8881 Z7.5000
 Y13.7948
 Y13.8018 Z0.0000
 Y20.4039
G0 Z3.0000
 X276.3525 Y-4.0163
G1 Z0.0000
 Y3.3910
 Y3.3980 Z7.5000
 Y12.8951
 Y12.8969 Z0.0000
 Y20.4039
G0 Z3.0000
 X274.5588 Y-4.0163
G1 Z0.0000
 Y6.8986
 Y6.9021 Z7.5000
 Y9.4400
 Y9.4470 Z0.0000
 Y20.4039
G0 Z3.0000
 X272.7650 Y-4.0163
G1 Z0.0000
 Y2.8729
 Y2.8869 Z7.5000
 Y6.2335
 Y6.2475 Z0.0000
 Y6.8881
 Y6.8898 Z7.5000
 Y12.7306
 Y12.7446 Z0.0000
 Y20.4039
G0 Z3.0000
 X270.9712 Y-4.0163
G1 Z0.0000
 Y2.4668
 Y2.4738 Z7.5000
 Y5.5894
 Y5.5964 Z0.0000
 Y6.8881
 Y6.8898 Z7.5000
 Y13.6828
 Y13.6968 Z0.0000
 Y20.4039
G0 Z3.0000
 X269.1775 Y-4.0163
G1 Z0.0000
 Y2.4213
 Y2.4231 Z7.5000
 Y5.5334
 Y5.5404 Z0.0000
 Y6.8881
 Y6.8898 Z7.5000
 Y9.8741
 Y9.8881 Z0.0000
 Y10.7913
 Y10.7948 Z7.5000
 Y13.8893
 Y13.8910 Z0.0000
 Y20.4039
G0 Z3.0000
 X267.3837 Y-4.0163
G1 Z0.0000
 Y2.7959
 Y2.7994 Z7.5000
 Y13.5217
 Y13.5252 Z0.0000
 Y20.4039
G0 Z3.0000
 X265.5900 Y-4.0163
G1 Z0.0000
 Y3.9441
 Y3.9476 Z7.5000
 Y12.3525
 Y12.3595 Z0.0000
 Y20.4039
G0 Z3.0000
 X263.7962 Y-4.0163
G1 Z0.0000
 Y2.6419
 Y2.6454 Z7.5000
 Y5.6734
 Y5.6804 Z0.0000
 Y10.7142
 Y10.7283 Z7.5000
 Y13.6548
 Y13.6618 Z0.0000
 Y20.4039
G0 Z3.0000
 X262.0025 Y-4.0163
G1 Z0.0000
 Y2.6209
 Y2.6279 Z7.5000
 Y5.6979
 Y5.6996 Z0.0000
 Y10.7002
 Y10.7072 Z7.5000
 Y13.6827
 Z0.0000
 Y20.4039
G0 Z3.0000
 X260.2087 Y-4.0163
G1 Z0.0000
 Y2.8589
 Y2.8659 Z7.5000
 Y16.3117
 Y16.3135 Z0.0000
 Y20.4039
G0 Z3.0000
 X258.4150 Y-4.0163
G1 Z0.0000
 Y4.3782
 Y4.3817 Z7.5000
 Y16.1454
 Y16.1463 Z0.0000
 Y20.4039
G0 Z3.0000
 X256.6212 Y-4.0163
G1 Z0.0000
 Y3.1810
 Y3.1880 Z7.5000
 Y13.1157
 Y13.1192 Z0.0000
 Y14.1238
 Y14.1273 Z7.5000
 Y16.7213
 Y16.7283 Z0.0000
 Y20.4039
G0 Z3.0000
 X254.8274 Y-4.0163
G1 Z0.0000
 Y2.6209
 Y2.6279 Z7.5000
 Y17.2814
 Y17.2884 Z0.0000
 Y20.4039
G0 Z3.0000
 X253.0337 Y-4.0163
G1 Z0.0000
 Y20.4039
G0 Z3.0000
 X251.2399 Y-4.0163
G1 Z0.0000
 Y2.6209
 Y2.6279 Z7.5000
 Y12.3945
 Y12.4015 Z0.0000
 Y20.4039
G0 Z3.0000
 X249.4462 Y-4.0163
G1 Z0.0000
 Y2.6489
 Y2.6629 Z7.5000
 Y13.7107
 Z0.0000
 Y20.4039
G0 Z3.0000
 X247.6524 Y-4.0163
G1 Z0.0000
 Y10.7633
 Y10.7668 Z7.5000
 Y13.8648
 Y13.8718 Z0.0000
 Y20.4039
G0 Z3.0000
 X245.8587 Y-4.0163
G1 Z0.0000
 Y2.8729
 Y2.8869 Z7.5000
 Y13.2767
 Y13.2837 Z0.0000
 Y20.4039
G0 Z3.0000
 X244.0649 Y-4.0163
G1 Z0.0000
 Y2.6209
 Y2.6279 Z7.5000
 Y13.4447
 Y13.4517 Z0.0000
 Y20.4039
G0 Z3.0000
 X242.2711 Y-4.0163
G1 Z0.0000
 Y10.6862
 Y10.6932 Z7.5000
 Y13.9033
 Y13.9050 Z0.0000
 Y20.4039
G0 Z3.0000
 X240.4774 Y-4.0163
G1 Z0.0000
 Y10.1121
 Y10.1191 Z7.5000
 Y13.5777
 Y13.5812 Z0.0000
 Y20.4039
G0 Z3.0000
 X238.6836 Y-4.0163
G1 Z0.0000
 Y2.6209
 Y2.6279 Z7.5000
 Y13.6827
 Z0.0000
 Y20.4039
G0 Z3.0000
 X236.8899 Y-4.0163
G1 Z0.0000
 Y3.1354
 Y3.1372 Z7.5000
 Y13.1647
 Y13.1717 Z0.0000
 Y20.4039
G0 Z3.0000
 X235.0961 Y-4.0163
G1 Z0.0000
 Y2.7749
 Y2.7819 Z7.5000
 Y13.5217
 Y13.5252 Z0.0000
 Y13.7178
 Y13.7213 Z7.5000
 Y17.1274
 Y17.1344 Z0.0000
 Y20.4039
G0 Z3.0000
 X233.3024 Y-4.0163
G1 Z0.0000
 Y2.6209
 Y2.6279 Z7.5000
 Y17.2814
 Y17.2884 Z0.0000
 Y20.4039
G0 Z3.0000
 X231.5086 Y-4.0163
G1 Z0.0000
 Y2.6279
 Y2.6314 Z7.5000
 Y5.8134
 Y5.8204 Z0.0000
 Y20.4039
G0 Z3.0000
 X229.7149 Y-4.0163
G1 Z0.0000
 Y2.6209
 Y2.6279 Z7.5000
 Y5.8274
 Y5.8344 Z0.0000
 Y20.4039
G0 Z3.0000
 X227.9211 Y-4.0163
G1 Z0.0000
 Y2.6209
 Y2.6279 Z7.5000
 Y5.8274
 Y5.8344 Z0.0000
 Y20.4039
G0 Z3.0000
 X226.1273 Y-4.0163
G1 Z0.0000
 Y2.6209
 Y2.6279 Z7.5000
 Y16.3572
 Y16.3642 Z0.0000
 Y20.4039
G0 Z3.0000
 X224.3336 Y-4.0163
G1 Z0.0000
 Y2.6209
 Y2.6279 Z7.5000
 Y16.7633
 Y16.7773 Z0.0000
 Y20.4039
G0 Z3.0000
 X222.5398 Y-4.0163
G1 Z0.0000
 Y20.4039
G0 Z3.0000
 X220.7461 Y-4.0163
G1 Z0.0000
 Y20.4039
G0 Z3.0000
 X218.9523 Y-4.0163
G1 Z0.0000
 Y20.4039
G0 Z3.0000
 X217.1586 Y-4.0163
G1 Z0.0000
 Y20.4039
G0 Z3.0000
 X215.3648 Y-4.0163
G1 Z0.0000
 Y3.3350
 Y3.3420 Z7.5000
 Y8.7959
 Y8.8029 Z0.0000
 Y10.1682
 Y10.1752 Z7.5000
 Y13.4430
 Y13.4438 Z0.0000
 Y20.4039
G0 Z3.0000
 X213.5710 Y-4.0163
G1 Z0.0000
 Y2.5368
 Y2.5438 Z7.5000
 Y9.5520
 Y9.5591 Z0.0000
 Y10.7142
 Y10.7283 Z7.5000
 Y13.8333
 Y13.8350 Z0.0000
 Y20.4039
G0 Z3.0000
 X211.7773 Y-4.0163
G1 Z0.0000
 Y2.3898
 Y2.3933 Z7.5000
 Y5.4738
 Y5.4756 Z0.0000
 Y6.6746
 Y6.6781 Z7.5000
 Y10.0071
 Y10.0106 Z0.0000
 Y10.7685
 Y10.7694 Z7.5000
 Y13.8788
 Y13.8858 Z0.0000
 Y20.4039
G0 Z3.0000
 X209.9835 Y-4.0163
G1 Z0.0000
 Y2.6069
 Y2.6139 Z7.5000
 Y5.8554
 Y5.8624 Z0.0000
 Y7.1996
 Y7.2066 Z7.5000
 Y13.4727
 Y13.4797 Z0.0000
 Y20.4039
G0 Z3.0000
 X208.1898 Y-4.0163
G1 Z0.0000
 Y3.1459
 Y3.1494 Z7.5000
 Y6.1425
 Y6.1460 Z0.0000
 Y8.8589
 Y8.8624 Z7.5000
 Y11.7224
 Y11.7294 Z0.0000
 Y20.4039
G0 Z3.0000
 X206.3960 Y-4.0163
G1 Z0.0000
 Y2.9709
 Y2.9779 Z7.5000
 Y6.3157
 Y6.3166 Z0.0000
 Y6.8881
 Y6.8898 Z7.5000
 Y12.5031
 Y12.5048 Z0.0000
 Y20.4039
G0 Z3.0000
 X204.6023 Y-4.0163
G1 Z0.0000
 Y2.5084
 Y2.5086 Z7.5000
 Y5.6384
 Y5.6419 Z0.0000
 Y6.8881
 Y6.8898 Z7.5000
 Y13.6268
 Y13.6408 Z0.0000
 Y20.4039
G0 Z3.0000
 X202.8085 Y-4.0163
G1 Z0.0000
 Y2.4038
 Y2.4073 Z7.5000
 Y5.5019
 Y5.5036 Z0.0000
 Y6.8881
 Y6.8898 Z7.5000
 Y9.8741
 Y9.8881 Z0.0000
 Y10.8088
 Y10.8105 Z7.5000
 Y13.9033
 Y13.9050 Z0.0000
 Y20.4039
G0 Z3.0000
 X201.0148 Y-4.0163
G1 Z0.0000
 Y2.7014
 Y2.7031 Z7.5000
 Y13.6092
 Y13.6110 Z0.0000
 Y20.4039
G0 Z3.0000
 X199.2210 Y-4.0163
G1 Z0.0000
 Y3.7270
 Y3.7340 Z7.5000
 Y12.5626
 Y12.5766 Z0.0000
 Y20.4039
G0 Z3.0000
 X197.4272 Y-4.0163
G1 Z0.0000
 Y20.4039
G0 Z3.0000
 X195.6335 Y-4.0163
G1 Z0.0000
 Y2.6209
 Y2.6279 Z7.5000
 Y17.2814
 Y17.2884 Z0.0000
 Y20.4039
G0 Z3.0000
 X193.8397 Y-4.0163
G1 Z0.0000
 Y2.7469
 Y2.7539 Z7.5000
 Y13.5532
 Y13.5550 Z0.0000
 Y13.6828
 Y13.6968 Z7.5000
 Y17.1554
 Y17.1624 Z0.0000
 Y20.4039
G0 Z3.0000
 X192.0460 Y-4.0163
G1 Z0.0000
 Y4.2731
 Y4.2871 Z7.5000
 Y12.9826
 Y12.9896 Z0.0000
 Y20.4039
G0 Z3.0000
 X190.2522 Y-4.0163
G1 Z0.0000
 Y0.0724
 Y0.0794 Z7.5000
 Y13.6827
 Z0.0000
 Y20.4039
G0 Z3.0000
 X188.4585 Y-4.0163
G1 Z0.0000
 Y-0.7397
 Y-0.7327 Z7.5000
 Y6.6255
 Y6.6325 Z0.0000
 Y9.8881
 Y9.8951 Z7.5000
 Y13.5707
 Y13.5777 Z0.0000
 Y20.4039
G0 Z3.0000
 X186.6647 Y-4.0163
G1 Z0.0000
 Y-0.8938
 Y-0.8867 Z7.5000
 Y2.1588
 Y2.1658 Z0.0000
 Y2.6209
 Y2.6279 Z7.5000
 Y5.7364
 Y5.7399 Z0.0000
 Y10.7843
 Y10.7913 Z7.5000
 Y13.9050
 Y13.9059 Z0.0000
 Y20.4039
G0 Z3.0000
 X184.8710 Y-4.0163
G1 Z0.0000
 Y-0.6872
 Y-0.6855 Z7.5000
 Y2.5508
 Y2.5578 Z0.0000
 Y2.9849
 Y2.9919 Z7.5000
 Y13.5357
 Y13.5392 Z0.0000
 Y20.4039
G0 Z3.0000
 X183.0772 Y-4.0163
G1 Z0.0000
 Y4.4902
 Y4.4937 Z7.5000
 Y12.0427
 Y12.0436 Z0.0000
 Y20.4039
G0 Z3.0000
 X181.2834 Y-4.0163
G1 Z0.0000
 Y5.0293
 Y5.0363 Z7.5000
 Y11.2323
 Y11.2393 Z0.0000
 Y20.4039
G0 Z3.0000
 X179.4897 Y-4.0163
G1 Z0.0000
 Y3.0829
 Y3.0899 Z7.5000
 Y13.2137
 Y13.2172 Z0.0000
 Y20.4039
G0 Z3.0000
 X177.6959 Y-4.0163
G1 Z0.0000
 Y2.4526
 Y2.4527 Z7.5000
 Y5.7644
 Y5.7679 Z0.0000
 Y10.5112
 Y10.5147 Z7.5000
 Y13.8350
 Y13.8359 Z0.0000
 Y20.4039
G0 Z3.0000
 X175.9022 Y-4.0163
G1 Z0.0000
 Y2.4511
 Y2.4520 Z7.5000
 Y5.7434
 Y5.7504 Z0.0000
 Y10.5322
 Y10.5392 Z7.5000
 Y13.8368
 Y13.8438 Z0.0000
 Y20.4039
G0 Z3.0000
 X174.1084 Y-4.0163
G1 Z0.0000
 Y3.0549
 Y3.0619 Z7.5000
 Y13.2137
 Y13.2172 Z0.0000
 Y20.4039
G0 Z3.0000
 X172.3147 Y-4.0163
G1 Z0.0000
 Y5.0013
 Y5.0083 Z7.5000
 Y11.3015
 Y11.3019 Z0.0000
 Y20.4039
G0 Z3.0000
 X170.5209 Y-4.0163
G1 Z0.0000
 Y2.7679
 Y2.7714 Z7.5000
 Y17.1405
 Y17.1409 Z0.0000
 Y20.4039
G0 Z3.0000
 X168.7271 Y-4.0163
G1 Z0.0000
 Y2.6209
 Y2.6279 Z7.5000
 Y17.2814
 Y17.2884 Z0.0000
 Y20.4039
G0 Z3.0000
 X166.9334 Y-4.0163
G1 Z0.0000
 Y20.4039
G0 Z3.0000
 X165.1396 Y-4.0163
G1 Z0.0000
 Y3.6009
 Y3.6010 Z7.5000
 Y12.7026
 Y12.7096 Z0.0000
 Y20.4039
G0 Z3.0000
 X163.3459 Y-4.0163
G1 Z0.0000
 Y2.6069
 Y2.6139 Z7.5000
 Y6.9546
 Y6.9581 Z0.0000
 Y9.2720
 Y9.2790 Z7.5000
 Y13.6688
 Y13.6758 Z0.0000
 Y20.4039
G0 Z3.0000
 X161.5521 Y-4.0163
G1 Z0.0000
 Y2.3933
 Y2.3951 Z7.5000
 Y5.4843
 Y5.4878 Z0.0000
 Y10.7913
 Y10.7948 Z7.5000
 Y13.8928
 Y13.8998 Z0.0000
 Y20.4039
G0 Z3.0000
 X159.7584 Y-4.0163
G1 Z0.0000
 Y2.7189
 Y2.7259 Z7.5000
 Y13.5427
 Y13.5497 Z0.0000
 Y20.4039
G0 Z3.0000
 X157.9646 Y-4.0163
G1 Z0.0000
 Y3.9511
 Y3.9581 Z7.5000
 Y12.3350
 Y12.3368 Z0.0000
 Y20.4039
G0 Z3.0000
 X156.1709 Y-4.0163
G1 Z0.0000
 Y20.4039
G0 Z3.0000
 X154.3771 Y-4.0163
G1 Z0.0000
 Y2.6209
 Y2.6279 Z7.5000
 Y13.1577
 Y13.1612 Z0.0000
 Y20.4039
G0 Z3.0000
 X152.5833 Y-4.0163
G1 Z0.0000
 Y9.9091
 Y9.9126 Z7.5000
 Y13.8473
 Y13.8490 Z0.0000
 Y20.4039
G0 Z3.0000
 X150.7896 Y-4.0163
G1 Z0.0000
 Y10.6442
 Y10.6512 Z7.5000
 Y13.7738
 Y13.7773 Z0.0000
 Y20.4039
G0 Z3.0000
 X148.9958 Y-4.0163
G1 Z0.0000
 Y2.6279
 Y2.6314 Z7.5000
 Y13.6688
 Y13.6758 Z0.0000
 Y20.4039
G0 Z3.0000
 X147.2021 Y-4.0163
G1 Z0.0000
 Y2.6340
 Y2.6344 Z7.5000
 Y13.6688
 Y13.6758 Z0.0000
 Y20.4039
G0 Z3.0000
 X145.4083 Y-4.0163
G1 Z0.0000
 Y20.4039
G0 Z3.0000
 X143.6146 Y-4.0163
G1 Z0.0000
 Y2.6209
 Y2.6279 Z7.5000
 Y13.1647
 Y13.1717 Z0.0000
 Y20.4039
G0 Z3.0000
 X141.8208 Y-4.0163
G1 Z0.0000
 Y9.9581
 Y9.9651 Z7.5000
 Y13.8438
 Y13.8473 Z0.0000
 Y20.4039
G0 Z3.0000
 X140.0270 Y-4.0163
G1 Z0.0000
 Y10.6372
 Y10.6407 Z7.5000
 Y13.7668
 Y13.7738 Z0.0000
 Y20.4039
G0 Z3.0000
 X138.2333 Y-4.0163
G1 Z0.0000
 Y2.6279
 Y2.6314 Z7.5000
 Y17.2814
 Y17.2884 Z0.0000
 Y20.4039
G0 Z3.0000
 X136.4395 Y-4.0163
G1 Z0.0000
 Y2.6349
 Y2.6419 Z7.5000
 Y17.2674
 Y17.2814 Z0.0000
 Y20.4039
G0 Z3.0000
 X134.6458 Y-4.0163
G1 Z0.0000
 Y3.2510
 Y3.2580 Z7.5000
 Y5.9044
 Y5.9079 Z0.0000
 Y10.3782
 Y10.3852 Z7.5000
 Y13.0457
 Y13.0492 Z0.0000
 Y20.4039
G0 Z3.0000
 X132.8520 Y-4.0163
G1 Z0.0000
 Y2.5491
 Y2.5500 Z7.5000
 Y5.7504
 Y5.7539 Z0.0000
 Y10.5322
 Y10.5392 Z7.5000
 Y13.7388
 Y13.7458 Z0.0000
 Y20.4039
G0 Z3.0000
 X131.0583 Y-4.0163
G1 Z0.0000
 Y2.3898
 Y2.3933 Z7.5000
 Y5.4905
 Y5.4909 Z0.0000
 Y10.7703
 Y10.7843 Z7.5000
 Y13.8928
 Z0.0000
 Y20.4039
G0 Z3.0000
 X129.2645 Y-4.0163
G1 Z0.0000
 Y2.6839
 Y2.6874 Z7.5000
 Y7.2539
 Y7.2548 Z0.0000
 Y9.0410
 Y9.0445 Z7.5000
 Y13.5707
 Y13.5777 Z0.0000
 Y20.4039
G0 Z3.0000
 X127.4708 Y-4.0163
G1 Z0.0000
 Y3.7691
 Y3.7831 Z7.5000
 Y12.5066
 Y12.5206 Z0.0000
 Y20.4039
G0 Z3.0000
 X125.6770 Y-4.0163
G1 Z0.0000
 Y7.5217
 Y7.5287 Z7.5000
 Y9.3000
 Y9.3070 Z0.0000
 Y20.4039
G0 Z3.0000
 X123.8832 Y-4.0163
G1 Z0.0000
 Y2.8169
 Y2.8239 Z7.5000
 Y6.1495
 Y6.1565 Z0.0000
 Y6.8881
 Y6.8898 Z7.5000
 Y12.8811
 Y12.8829 Z0.0000
 Y20.4039
G0 Z3.0000
 X122.0895 Y-4.0163
G1 Z0.0000
 Y2.4388
 Y2.4458 Z7.5000
 Y5.5614
 Y5.5754 Z0.0000
 Y6.8881
 Y6.8898 Z7.5000
 Y9.8741
 Y9.8881 Z0.0000
 Y10.1261
 Y10.1331 Z7.5000
 Y13.7388
 Y13.7458 Z0.0000
 Y20.4039
G0 Z3.0000
 X120.2957 Y-4.0163
G1 Z0.0000
 Y2.4248
 Y2.4388 Z7.5000
 Y5.5754
 Y5.5824 Z0.0000
 Y6.8881
 Y6.8898 Z7.5000
 Y9.8741
 Y9.8881 Z0.0000
 Y10.7694
 Y10.7698 Z7.5000
 Y13.8788
 Y13.8858 Z0.0000
 Y20.4039
G0 Z3.0000
 X118.5020 Y-4.0163
G1 Z0.0000
 Y2.8729
 Y2.8869 Z7.5000
 Y16.7143
 Y16.7178 Z0.0000
 Y20.4039
G0 Z3.0000
 X116.7082 Y-4.0163
G1 Z0.0000
 Y4.1467
 Y4.1469 Z7.5000
 Y12.1701
 Y12.1703 Z0.0000
 Y13.5567
 Y13.5637 Z7.5000
 Y16.7633
 Y16.7773 Z0.0000
 Y20.4039
G0 Z3.0000
 X114.9145 Y-4.0163
G1 Z0.0000
 Y13.5567
 Y13.5637 Z7.5000
 Y16.7633
 Y16.7773 Z0.0000
 Y20.4039
G0 Z3.0000
 X113.1207 Y-4.0163
G1 Z0.0000
 Y2.6209
 Y2.6279 Z7.5000
 Y16.7633
 Y16.7773 Z0.0000
 Y20.4039
G0 Z3.0000
 X111.3269 Y-4.0163
G1 Z0.0000
 Y3.1389
 Y3.1459 Z7.5000
 Y16.7633
 Y16.7773 Z0.0000
 Y20.4039
G0 Z3.0000
 X109.5332 Y-4.0163
G1 Z0.0000
 Y13.5567
 Y13.5637 Z7.5000
 Y16.7633
 Y16.7773 Z0.0000
 Y20.4039
G0 Z3.0000
 X107.7394 Y-4.0163
G1 Z0.0000
 Y13.5567
 Y13.5637 Z7.5000
 Y16.7633
 Y16.7773 Z0.0000
 Y20.4039
G0 Z3.0000
 X105.9457 Y-4.0163
G1 Z0.0000
 Y20.4039
G0 Z3.0000
 X104.1519 Y-4.0163
G1 Z0.0000
 Y20.4039
G0 Z3.0000
 X102.3582 Y-4.0163
G1 Z0.0000
 Y20.4039
G0 Z3.0000
 X100.5644 Y-4.0163
G1 Z0.0000
 Y2.6209
 Y2.6279 Z7.5000
 Y12.8829
 Y12.8837 Z0.0000
 Y20.4039
G0 Z3.0000
 X98.7707 Y-4.0163
G1 Z0.0000
 Y2.9219
 Y2.9254 Z7.5000
 Y13.7948
 Y13.8018 Z0.0000
 Y20.4039
G0 Z3.0000
 X96.9769 Y-4.0163
G1 Z0.0000
 Y10.7353
 Y10.7388 Z7.5000
 Y13.8499
 Y13.8504 Z0.0000
 Y20.4039
G0 Z3.0000
 X95.1831 Y-4.0163
G1 Z0.0000
 Y2.7399
 Y2.7434 Z7.5000
 Y13.5637
 Y13.5672 Z0.0000
 Y20.4039
G0 Z3.0000
 X93.3894 Y-4.0163
G1 Z0.0000
 Y2.6209
 Y2.6279 Z7.5000
 Y13.6827
 Z0.0000
 Y20.4039
G0 Z3.0000
 X91.5956 Y-4.0163
G1 Z0.0000
 Y20.4039
G0 Z3.0000
 X89.8019 Y-4.0163
G1 Z0.0000
 Y2.6209
 Y2.6279 Z7.5000
 Y12.5626
 Y12.5766 Z0.0000
 Y20.4039
G0 Z3.0000
 X88.0081 Y-4.0163
G1 Z0.0000
 Y2.8449
 Y2.8519 Z7.5000
 Y13.6268
 Y13.6408 Z0.0000
 Y20.4039
G0 Z3.0000
 X86.2144 Y-4.0163
G1 Z0.0000
 Y2.4248
 Y2.4388 Z7.5000
 Y5.4913
 Y5.4984 Z0.0000
 Y7.2382
 Y7.2399 Z7.5000
 Y10.2522
 Y10.2592 Z0.0000
 Y10.7983
 Y10.8053 Z7.5000
 Y13.8998
 Y13.9033 Z0.0000
 Y20.4039
G0 Z3.0000
 X84.4206 Y-4.0163
G1 Z0.0000
 Y2.4668
 Y2.4738 Z7.5000
 Y10.0281
 Y10.0351 Z0.0000
 Y10.5742
 Y10.5812 Z7.5000
 Y13.7213
 Y13.7230 Z0.0000
 Y20.4039
G0 Z3.0000
 X82.6268 Y-4.0163
G1 Z0.0000
 Y3.3210
 Y3.3350 Z7.5000
 Y9.1442
 Y9.1451 Z0.0000
 Y10.1261
 Y10.1331 Z7.5000
 Y13.1787
 Y13.1927 Z0.0000
 Y20.4039
G0 Z3.0000
 X80.8331 Y-4.0163
G1 Z0.0000
 Y5.5614
 Y5.5754 Z7.5000
 Y10.6722
 Y10.6792 Z0.0000
 Y20.4039
G0 Z3.0000
 X79.0393 Y-4.0163
G1 Z0.0000
 Y3.1529
 Y3.1669 Z7.5000
 Y13.1332
 Y13.1349 Z0.0000
 Y20.4039
G0 Z3.0000
 X77.2456 Y-4.0163
G1 Z0.0000
 Y2.4248
 Y2.4388 Z7.5000
 Y5.8974
 Y5.9044 Z0.0000
 Y10.3642
 Y10.3712 Z7.5000
 Y13.8368
 Y13.8438 Z0.0000
 Y20.4039
G0 Z3.0000
 X75.4518 Y-4.0163
G1 Z0.0000
 Y2.5088
 Y2.5158 Z7.5000
 Y5.6454
 Y5.6524 Z0.0000
 Y10.6302
 Y10.6372 Z7.5000
 Y13.7738
 Y13.7773 Z0.0000
 Y20.4039
G0 Z3.0000
 X73.6581 Y-4.0163
G1 Z0.0000
 Y2.6209
 Y2.6279 Z7.5000
 Y17.2814
 Y17.2884 Z0.0000
 Y20.4039
G0 Z3.0000
 X71.8643 Y-4.0163
G1 Z0.0000
 Y2.6454
 Y2.6471 Z7.5000
 Y17.2604
 Y17.2639 Z0.0000
 Y20.4039
G0 Z3.0000
 X70.0706 Y-4.0163
G1 Z0.0000
 Y20.4039
G0 Z3.0000
 X68.2768 Y-4.0163
G1 Z0.0000
 Y2.6209
 Y2.6279 Z7.5000
 Y13.6827
 Z0.0000
 Y20.4039
G0 Z3.0000
 X66.4830 Y-4.0163
G1 Z0.0000
 Y2.8449
 Y2.8519 Z7.5000
 Y6.9266
 Y6.9301 Z0.0000
 Y20.4039
G0 Z3.0000
 X64.6893 Y-4.0163
G1 Z0.0000
 Y2.3968
 Y2.4038 Z7.5000
 Y5.5054
 Y5.5124 Z0.0000
 Y20.4039
G0 Z3.0000
 X62.8955 Y-4.0163
G1 Z0.0000
 Y2.6454
 Y2.6471 Z7.5000
 Y13.6670
 Y13.6679 Z0.0000
 Y20.4039
G0 Z3.0000
 X61.1018 Y-4.0163
G1 Z0.0000
 Y4.0631
 Y4.0701 Z7.5000
 Y13.6758
 Y13.6793 Z0.0000
 Y20.4039
G0 Z3.0000
 X59.3080 Y-4.0163
G1 Z0.0000
 Y2.6209
 Y2.6279 Z7.5000
 Y6.9406
 Y6.9441 Z0.0000
 Y20.4039
G0 Z3.0000
 X57.5143 Y-4.0163
G1 Z0.0000
 Y2.9692
 Y2.9700 Z7.5000
 Y15.9442
 Y15.9477 Z0.0000
 Y20.4039
G0 Z3.0000
 X55.7205 Y-4.0163
G1 Z0.0000
 Y6.4925
 Y6.4960 Z7.5000
 Y16.6233
 Y16.6303 Z0.0000
 Y20.4039
G0 Z3.0000
 X53.9267 Y-4.0163
G1 Z0.0000
 Y7.8368
 Y7.8403 Z7.5000
 Y11.0083
 Y11.0153 Z0.0000
 Y13.5917
 Y13.5952 Z7.5000
 Y16.7633
 Y16.7773 Z0.0000
 Y20.4039
G0 Z3.0000
 X52.1330 Y-4.0163
G1 Z0.0000
 Y2.6209
 Y2.6279 Z7.5000
 Y16.7633
 Y16.7773 Z0.0000
 Y20.4039
G0 Z3.0000
 X50.3392 Y-4.0163
G1 Z0.0000
 Y2.6209
 Y2.6279 Z7.5000
 Y16.7633
 Y16.7773 Z0.0000
 Y20.4039
G0 Z3.0000
 X48.5455 Y-4.0163
G1 Z0.0000
 Y20.4039
G0 Z3.0000
 X46.7517 Y-4.0163
G1 Z0.0000
 Y20.4039
G0 Z3.0000
 X44.9580 Y-4.0163
G1 Z0.0000
 Y20.4039
G0 Z3.0000
 X43.1642 Y-4.0163
G1 Z0.0000
 Y20.4039
G0 Z3.0000
 X41.3705 Y-4.0163
G1 Z0.0000
 Y2.6209
 Y2.6279 Z7.5000
 Y17.2814
 Y17.2884 Z0.0000
 Y20.4039
G0 Z3.0000
 X39.5767 Y-4.0163
G1 Z0.0000
 Y2.9219
 Y2.9254 Z7.5000
 Y16.9838
 Y16.9856 Z0.0000
 Y20.4039
G0 Z3.0000
 X37.7829 Y-4.0163
G1 Z0.0000
 Y3.1801
 Y3.1805 Z7.5000
 Y6.2335
 Y6.2475 Z0.0000
 Y6.8881
 Y6.8898 Z7.5000
 Y11.7994
 Y11.8029 Z0.0000
 Y20.4039
G0 Z3.0000
 X35.9892 Y-4.0163
G1 Z0.0000
 Y2.6034
 Y2.6051 Z7.5000
 Y5.8064
 Y5.8099 Z0.0000
 Y6.8881
 Y6.8898 Z7.5000
 Y13.3957
 Y13.3992 Z0.0000
 Y20.4039
G0 Z3.0000
 X34.1954 Y-4.0163
G1 Z0.0000
 Y2.3898
 Y2.3933 Z7.5000
 Y5.4773
 Y5.4843 Z0.0000
 Y6.8881
 Y6.8898 Z7.5000
 Y9.8741
 Y9.8881 Z0.0000
 Y10.7554
 Y10.7558 Z7.5000
 Y13.8648
 Y13.8718 Z0.0000
 Y20.4039
G0 Z3.0000
 X32.4017 Y-4.0163
G1 Z0.0000
 Y2.5648
 Y2.5718 Z7.5000
 Y5.9884
 Y5.9919 Z0.0000
 Y6.8881
 Y6.8898 Z7.5000
 Y9.8732
 Y9.8737 Z0.0000
 Y10.4062
 Y10.4132 Z7.5000
 Y13.7668
 Y13.7738 Z0.0000
 Y20.4039
G0 Z3.0000
 X30.6079 Y-4.0163
G1 Z0.0000
 Y3.3070
 Y3.3140 Z7.5000
 Y13.0106
 Y13.0246 Z0.0000
 Y20.4039
G0 Z3.0000
 X28.8142 Y-4.0163
G1 Z0.0000
 Y5.3916
 Y5.3925 Z7.5000
 Y10.8263
 Y10.8333 Z0.0000
 Y20.4039
G0 Z3.0000
 X27.0204 Y-4.0163
G1 Z0.0000
 Y8.3198
 Y8.3268 Z7.5000
 Y13.6827
 Z0.0000
 Y20.4039
G0 Z3.0000
 X25.2266 Y-4.0163
G1 Z0.0000
 Y3.5380
 Y3.5415 Z7.5000
 Y12.9546
 Y12.9686 Z0.0000
 Y20.4039
G0 Z3.0000
 X23.4329 Y-4.0163
G1 Z0.0000
 Y2.6209
 Y2.6279 Z7.5000
 Y8.1448
 Y8.1483 Z0.0000
 Y20.4039
G0 Z3.0000
 X21.6391 Y-4.0163
G1 Z0.0000
 Y2.8099
 Y2.8134 Z7.5000
 Y11.8484
 Y11.8554 Z0.0000
 Y20.4039
G0 Z3.0000
 X19.8454 Y-4.0163
G1 Z0.0000
 Y7.2136
 Y7.2206 Z7.5000
 Y13.6827
 Z0.0000
 Y20.4039
G0 Z3.0000
 X18.0516 Y-4.0163
G1 Z0.0000
 Y11.9990
 Y12.0007 Z7.5000
 Y13.3852
 Y13.3870 Z0.0000
 Y20.4039
G0 Z3.0000
 X16.2579 Y-4.0163
G1 Z0.0000
 Y2.6209
 Y2.6279 Z7.5000
 Y12.6326
 Y12.6396 Z0.0000
 Y20.4039
G0 Z3.0000
 X14.4641 Y-4.0163
G1 Z0.0000
 Y2.9149
 Y2.9219 Z7.5000
 Y13.6548
 Y13.6618 Z0.0000
 Y20.4039
G0 Z3.0000
 X12.6704 Y-4.0163
G1 Z0.0000
 Y2.4248
 Y2.4388 Z7.5000
 Y5.4843
 Y5.4878 Z0.0000
 Y7.2346
 Y7.2382 Z7.5000
 Y10.2522
 Y10.2592 Z0.0000
 Y10.7983
 Y10.8053 Z7.5000
 Y13.9050
 Y13.9059 Z0.0000
 Y20.4039
G0 Z3.0000
 X10.8766 Y-4.0163
G1 Z0.0000
 Y2.4808
 Y2.4948 Z7.5000
 Y10.0106
 Y10.0124 Z0.0000
 Y10.5462
 Y10.5602 Z7.5000
 Y13.7038
 Y13.7073 Z0.0000
 Y20.4039
G0 Z3.0000
 X9.0828 Y-4.0163
G1 Z0.0000
 Y3.3770
 Y3.3910 Z7.5000
 Y9.0760
 Y9.0830 Z0.0000
 Y10.1612
 Y10.1647 Z7.5000
 Y13.1507
 Y13.1577 Z0.0000
 Y20.4039
G0 Z3.0000
 X7.2891 Y-4.0163
G1 Z0.0000
 Y8.5859
 Y8.5929 Z7.5000
 Y15.7551
 Y15.7621 Z0.0000
 Y20.4039
G0 Z3.0000
 X5.4953 Y-4.0163
G1 Z0.0000
 Y7.7737
 Y7.7807 Z7.5000
 Y16.5603
 Y16.5638 Z0.0000
 Y20.4039
G0 Z3.0000
 X3.7016 Y-4.0163
G1 Z0.0000
 Y7.5777
 Y7.5917 Z7.5000
 Y10.7554
 Y10.7558 Z0.0000
 Y13.5917
 Y13.5952 Z7.5000
 Y16.7633
 Y16.7773 Z0.0000
 Y20.4039
G0 Z3.0000
 X1.9078 Y-4.0163
G1 Z0.0000
 Y2.6489
 Y2.6629 Z7.5000
 Y16.7633
 Y16.7773 Z0.0000
 Y20.4039
G0 Z3.0000
 X0.1141 Y-4.0163
G1 Z0.0000
 Y2.6209
 Y2.6279 Z7.5000
 Y16.7633
 Y16.7773 Z0.0000
 Y20.4039
G0 Z3.0000
 X-1.6797 Y-4.0163
G1 Z0.0000
 Y20.4039
G0 Z3.0000
 X-3.4735 Y-4.0163
G1 Z0.0000
 Y20.4039
G0 Z3.0000
 X-5.2672 Y-4.0163
G1 Z0.0000
 Y20.4039
G0 Z3.0000
 X-7.0610 Y-4.0163
G1 Z0.0000
 Y20.4039
G0 Z3.0000
 X-8.8547 Y-4.0163
G1 Z0.0000
 Y20.4039
G0 Z3.0000
 X-10.6485 Y-4.0163
G1 Z0.0000
 Y20.4039
G0 Z3.0000
 X-12.4422 Y-4.0163
G1 Z0.0000
 Y20.4039
G0 Z3.0000
 X-14.2360 Y-4.0163
G1 Z0.0000
 Y20.4039
G0 Z3.0000
 X-16.0297 Y-4.0163
G1 Z0.0000
 Y20.4039
G0 Z3.0000
 X-17.8235 Y-4.0163
G1 Z0.0000
 Y20.4039
G0 Z3.0000
 X-19.6173 Y-4.0163
G1 Z0.0000
 Y20.4039
G0 Z3.0000
 X-21.4110 Y-4.0163
G1 Z0.0000
 Y20.4039
G0 Z3.0000
 X-23.2048 Y-4.0163
G1 Z0.0000
 Y20.4039
G0 Z3.0000
 X-24.9985 Y-4.0163
G1 Z0.0000
 Y20.4039
G0 Z3.0000
 X-26.7923 Y-4.0163
G1 Z0.0000
 Y20.4039
G0 Z3.0000
 X-28.5860 Y-4.0163
G1 Z0.0000
 Y20.4039
G0 Z3.0000
 X-30.3798 Y-4.0163
G1 Z0.0000
 Y20.4039
G0 Z3.0000
 X-32.1736 Y-4.0163
G1 Z0.0000
 Y20.4039
G0 Z3.0000
 X-33.9673 Y-4.0163
G1 Z0.0000
 Y20.4039
G0 Z3.0000
 X-35.7611 Y-4.0163
G1 Z0.0000
 Y20.4039
G0 Z3.0000
 X-37.5548 Y-4.0163
G1 Z0.0000
 Y20.4039
G0 Z3.0000
 X-39.3486 Y-4.0163
G1 Z0.0000
 Y20.4039
G0 Z3.0000
 X-41.1423 Y-4.0163
G1 Z0.0000
 Y20.4039
G0 Z3.0000
 X-42.9361 Y-4.0163
G1 Z0.0000
 Y20.4039
G0 Z3.0000
 X-44.7298 Y-4.0163
G1 Z0.0000
 Y20.4039
G0 Z3.0000
 X-46.5236 Y-4.0163
G1 Z0.0000
 Y20.4039
G0 Z3.0000
 X-48.3174 Y-4.0163
G1 Z0.0000
 Y20.4039
G0 Z3.0000
 X-50.1111 Y-4.0163
G1 Z0.0000
 Y20.4039
G0 Z3.0000
 X-51.9049 Y-4.0163
G1 Z0.0000
 Y20.4039
G0 Z3.0000
 X-53.6986 Y-4.0163
G1 Z0.0000
 Y20.4039
G0 Z3.0000
 X-55.4924 Y-4.0163
G1 Z0.0000
 Y20.4039
G0 Z3.0000
 X-57.2861 Y-4.0163
G1 Z0.0000
 Y20.4039
G0 Z3.0000
 X-59.0799 Y-4.0163
G1 Z0.0000
 Y20.4039
G0 Z3.0000
 X-60.8737 Y-4.0163
G1 Z0.0000
 Y20.4039
G0 Z3.0000
 X-62.6674 Y-4.0163
G1 Z0.0000
 Y20.4039
G0 Z3.0000
 X-64.4612 Y-4.0163
G1 Z0.0000
 Y20.4039
G0 Z3.0000
 X-66.2549 Y-4.0163
G1 Z0.0000
 Y20.4039
G0 Z3.0000
 X-68.0487 Y-4.0163
G1 Z0.0000
 Y20.4039
G0 Z3.0000
 X-69.8424 Y-4.0163
G1 Z0.0000
 Y20.4039
G0 Z3.0000
 X-71.6362 Y-4.0163
G1 Z0.0000
 Y20.4039
G0 Z3.0000
 X-73.4299 Y-4.0163
G1 Z0.0000
 Y20.4039
G0 Z3.0000
 X-75.2237 Y-4.0163
G1 Z0.0000
 Y20.4039
G0 Z3.0000
 X-77.0175 Y-4.0163
G1 Z0.0000
 Y20.4039
G0 Z3.0000
 X-78.8112 Y-4.0163
G1 Z0.0000
 Y20.4039
G0 Z3.0000
 X-80.6050 Y-4.0163
G1 Z0.0000
 Y20.4039
G0 Z3.0000
 X-82.3987 Y-4.0163
G1 Z0.0000
 Y20.4039
G0 Z3.0000
 X-84.1925 Y-4.0163
G1 Z0.0000
 Y20.4039
G0 Z3.0000
M5 (stop spindle)
G04 P3 (wait for 3 seconds)
G0 Z3.0000
M2 (end program)
