;PYCAM-META-DATA: Filename: /usr/share/pycam/samples/SampleScene3.stl
;PYCAM-META-DATA: Timestamp: 2016-08-19 11:05:18.084838
;PYCAM-META-DATA: Version: 0.5.1
;Estimated machine time: 421 minutes
G40 (disable tool radius compensation)
G49 (disable tool length compensation)
G80 (cancel modal motion)
G54 (select coordinate system 1)
G90 (disable incremental moves)
G21 (metric)
G61 (exact path mode)
F2400.00000
S1000.00000
;PYCAM_TOOLPATH_SETTINGS: START
;[Bounds]
;maxz = 29.958886
;maxx = 122.5
;maxy = 89.4794768
;minx = -42.5
;miny = -39.2742448
;minz = 0.0
;
;[Tool]
;torus_radius = 0.25
;speed = 1000.0
;shape = CylindricalCutter
;tool_radius = 1.5
;feedrate = 200.0
;
;[SupportGrid]
;height = 0.5
;distance_x = 6.0
;distance_y = 6.0
;adjustments_x = 0,0,0,0,0,0,0,0,0,0,0,0,0,0,0,0,0,0,0,0,0,0,0,0,0,0,0
;adjustments_y = 0,0,0,0,0,0,0,0,0,0,0,0,0,0,0,0,0,0,0,0,0
;thickness = 0.5
;offset_x = 0.0
;offset_y = 0.0
;type = grid
;
;[Process]
;engrave_offset = 0.0
;step_down = 3.0
;generator = PushCutter
;postprocessor = SimpleCutter
;overlap_percent = 0
;milling_style = ignore
;material_allowance = 0.5
;pocketing_type = none
;path_direction = x
;
;PYCAM_TOOLPATH_SETTINGS: END
T1 M6
G0 Z25.0000
M3 (start spindle)
G04 P3 (wait for 3 seconds)
 X-42.5000 Y-39.2742
G1 Z29.9589
 X122.5000
 Y-36.2800
 X-42.5000
 Y-33.2857
 X122.5000
 Y-30.2914
 X-42.5000
 Y-27.2972
 X122.5000
 Y-24.3029
 X-42.5000
 Y-21.3086
 X122.5000
 Y-18.3143
 X-42.5000
 Y-15.3201
 X122.5000
 Y-12.3258
 X-42.5000
 Y-9.3315
 X122.5000
 Y-6.3372
 X-42.5000
 Y-3.3430
 X-0.2941
 X1.2457
 X122.5000
 Y-0.3487
 X3.5394
G0 Z25.0000
 X-3.2702
G1 Z29.9589
 X-42.5000
 Y2.6456
 X-2.2862
G0 Z25.0000
 X2.1201
G1 Z29.9589
 X122.5000
 Y5.6398
 X-42.5000
 Y8.6341
 X122.5000
 Y11.6284
 X-42.5000
 Y14.6227
 X122.5000
 Y17.6169
 X-42.5000
 Y20.6112
 X122.5000
 Y23.6055
 X-42.5000
 Y26.5998
 X122.5000
 Y29.5940
 X-42.5000
 Y32.5883
 X122.5000
 Y35.5826
 X-42.5000
 Y38.5768
 X122.5000
 Y41.5711
 X-42.5000
 Y44.5654
 X122.5000
 Y47.5597
 X-42.5000
 Y50.5539
 X122.5000
 Y53.5482
 X-42.5000
 Y56.5425
 X122.5000
 Y59.5368
 X-42.5000
 Y62.5310
 X122.5000
 Y65.5253
 X-42.5000
 Y68.5196
 X122.5000
 Y71.5138
 X-42.5000
 Y74.5081
 X122.5000
 Y77.5024
 X-42.5000
 Y80.4967
 X122.5000
 Y83.4909
 X-42.5000
 Y86.4852
 X122.5000
 Y89.4795
 X-42.5000
 Z26.9630
 X122.5000
 Y86.4852
 X-42.5000
 Y83.4909
 X122.5000
 Y80.4967
 X-42.5000
 Y77.5024
 X122.5000
 Y74.5081
 X-42.5000
 Y71.5138
 X122.5000
 Y68.5196
 X-42.5000
 Y65.5253
 X122.5000
 Y62.5310
 X-42.5000
 Y59.5368
 X122.5000
 Y56.5425
 X-42.5000
 Y53.5482
 X122.5000
 Y50.5539
 X-42.5000
 Y47.5597
 X122.5000
 Y44.5654
 X-42.5000
 Y41.5711
 X122.5000
 Y38.5768
 X-42.5000
 Y35.5826
 X122.5000
 Y32.5883
 X-42.5000
 Y29.5940
 X122.5000
 Y26.5998
 X-42.5000
 Y23.6055
 X122.5000
 Y20.6112
 X-42.5000
 Y17.6169
 X122.5000
 Y14.6227
 X3.4725
G0 Z25.0000
 X-3.4725
G1 Z26.9630
 X-42.5000
 Y11.6284
 X-9.5571
G0 Z25.0000
 X9.5571
G1 Z26.9630
 X122.5000
 Y8.6341
 X12.3646
G0 Z25.0000
 X-12.3646
G1 Z26.9630
 X-42.5000
 Y5.6398
 X-13.9658
G0 Z25.0000
 X13.9658
G1 Z26.9630
 X122.5000
 Y2.6456
 X14.8298
G0 Z25.0000
 X-14.8298
G1 Z26.9630
 X-42.5000
 Y-0.3487
 X-15.0712
G0 Z25.0000
 X15.0712
G1 Z26.9630
 X122.5000
 Y-3.3430
 X14.7121
G0 Z25.0000
 X-14.7121
G1 Z26.9630
 X-42.5000
 Y-6.3372
 X-13.6907
G0 Z25.0000
 X13.6907
G1 Z26.9630
 X122.5000
 Y-9.3315
 X11.8161
G0 Z25.0000
 X-11.8161
G1 Z26.9630
 X-42.5000
 Y-12.3258
 X-8.5972
G0 Z25.0000
 X8.5972
G1 Z26.9630
 X122.5000
 Y-15.3201
 X-42.5000
 Y-18.3143
 X122.5000
 Y-21.3086
 X-42.5000
 Y-24.3029
 X122.5000
 Y-27.2972
 X-42.5000
 Y-30.2914
 X122.5000
 Y-33.2857
 X-42.5000
 Y-36.2800
 X122.5000
 Y-39.2742
 X-42.5000
 Z23.9671
 X122.5000
 Y-36.2800
 X-42.5000
 Y-33.2857
 X122.5000
 Y-30.2914
 X-42.5000
 Y-27.2972
 X122.5000
 Y-24.3029
 X-42.5000
 Y-21.3086
 X122.5000
 Y-18.3143
 X7.7488
G0 Z25.0000
 X-7.7488
G1 Z23.9671
 X-42.5000
 Y-15.3201
 X-12.7402
G0 Z25.0000
 X12.7402
G1 Z23.9671
 X122.5000
 Y-12.3258
 X15.6566
G0 Z25.0000
 X-15.6566
G1 Z23.9671
 X-42.5000
 Y-9.3315
 X-17.5710
G0 Z25.0000
 X17.5710
G1 Z23.9671
 X122.5000
 Y-6.3372
 X18.8468
G0 Z25.0000
 X-18.8468
G1 Z23.9671
 X-42.5000
 Y-3.3430
 X-19.6409
G0 Z25.0000
 X19.6409
G1 Z23.9671
 X122.5000
 Y-0.3487
 X19.9556
G0 Z25.0000
 X-19.9556
G1 Z23.9671
 X-42.5000
 Y2.6456
 X-19.7142
G0 Z25.0000
 X19.7142
G1 Z23.9671
 X122.5000
 Y5.6398
 X19.0734
G0 Z25.0000
 X-19.0734
G1 Z23.9671
 X-42.5000
 Y8.6341
 X-17.9737
G0 Z25.0000
 X17.9737
G1 Z23.9671
 X122.5000
 Y11.6284
 X16.2435
G0 Z25.0000
 X-16.2435
G1 Z23.9671
 X-42.5000
 Y14.6227
 X-13.5885
G0 Z25.0000
 X13.5885
G1 Z23.9671
 X122.5000
 Y17.6169
 X9.3152
G0 Z25.0000
 X-9.3152
G1 Z23.9671
 X-42.5000
 Y20.6112
 X122.5000
 Y23.6055
 X-42.5000
 Y26.5998
 X122.5000
 Y29.5940
 X-42.5000
 Y32.5883
 X122.5000
 Y35.5826
 X-42.5000
 Y38.5768
 X122.5000
 Y41.5711
 X-42.5000
 Y44.5654
 X122.5000
 Y47.5597
 X-42.5000
 Y50.5539
 X122.5000
 Y53.5482
 X-42.5000
 Y56.5425
 X122.5000
 Y59.5368
 X-42.5000
 Y62.5310
 X122.5000
 Y65.5253
 X-42.5000
 Y68.5196
 X122.5000
 Y71.5138
 X-42.5000
 Y74.5081
 X122.5000
 Y77.5024
 X-42.5000
 Y80.4967
 X122.5000
 Y83.4909
 X-42.5000
 Y86.4852
 X122.5000
 Y89.4795
 X-42.5000
 Z20.9712
 X122.5000
 Y86.4852
 X-42.5000
 Y83.4909
 X122.5000
 Y80.4967
 X-42.5000
 Y77.5024
 X122.5000
 Y74.5081
 X-42.5000
 Y71.5138
 X122.5000
 Y68.5196
 X-42.5000
 Y65.5253
 X122.5000
 Y62.5310
 X-42.5000
 Y59.5368
 X122.5000
 Y56.5425
 X-42.5000
 Y53.5482
 X122.5000
 Y50.5539
 X-42.5000
 Y47.5597
 X122.5000
 Y44.5654
 X-42.5000
 Y41.5711
 X122.5000
 Y38.5768
 X-42.5000
 Y35.5826
 X122.5000
 Y32.5883
 X-42.5000
 Y29.5940
 X122.5000
 Y26.5998
 X-42.5000
 Y23.6055
 X122.5000
 Y20.6112
 X11.0253
G0 Z25.0000
 X-11.0253
G1 Z20.9712
 X-42.5000
 Y17.6169
 X-15.4160
G0 Z25.0000
 X15.4160
G1 Z20.9712
 X122.5000
 Y14.6227
 X18.2054
G0 Z25.0000
 X-18.2054
G1 Z20.9712
 X-42.5000
 Y11.6284
 X-20.2067
G0 Z25.0000
 X20.2067
G1 Z20.9712
 X122.5000
 Y8.6341
 X21.7081
G0 Z25.0000
 X-21.7081
G1 Z20.9712
 X-42.5000
 Y5.6398
 X-22.6810
G0 Z25.0000
 X22.6810
G1 Z20.9712
 X122.5000
 Y2.6456
 X23.1640
G0 Z25.0000
 X-23.1640
G1 Z20.9712
 X-42.5000
 Y-0.3487
 X-23.4055
G0 Z25.0000
 X23.4055
G1 Z20.9712
 X122.5000
 Y-3.3430
 X23.0907
G0 Z25.0000
 X-23.0907
G1 Z20.9712
 X-42.5000
 Y-6.3372
 X-22.4544
G0 Z25.0000
 X22.4544
G1 Z20.9712
 X122.5000
 Y-9.3315
 X21.4815
G0 Z25.0000
 X-21.4815
G1 Z20.9712
 X-42.5000
 Y-12.3258
 X-19.8040
G0 Z25.0000
 X19.8040
G1 Z20.9712
 X122.5000
 Y-15.3201
 X17.5774
G0 Z25.0000
 X-17.5774
G1 Z20.9712
 X-42.5000
 Y-18.3143
 X-14.4561
G0 Z25.0000
 X14.4561
G1 Z20.9712
 X122.5000
 Y-21.3086
 X9.4589
G0 Z25.0000
 X-9.4589
G1 Z20.9712
 X-42.5000
 Y-24.3029
 X122.5000
 Y-27.2972
 X-42.5000
 Y-30.2914
 X122.5000
 Y-33.2857
 X-42.5000
 Y-36.2800
 X122.5000
 Y-39.2742
 X-42.5000
 Z17.9753
 X122.5000
 Y-36.2800
 X-42.5000
 Y-33.2857
 X122.5000
 Y-30.2914
 X-42.5000
 Y-27.2972
 X122.5000
 Y-24.3029
 X8.9450
G0 Z25.0000
 X-8.9450
G1 Z17.9753
 X-42.5000
 Y-21.3086
 X-14.6330
G0 Z25.0000
 X14.6329
G1 Z17.9753
 X122.5000
 Y-18.3143
 X18.2809
G0 Z25.0000
 X-18.2809
G1 Z17.9753
 X-42.5000
 Y-15.3201
 X-20.9703
G0 Z25.0000
 X20.9703
G1 Z17.9753
 X122.5000
 Y-12.3258
 X22.7212
G0 Z25.0000
 X-22.7212
G1 Z17.9753
 X-42.5000
 Y-9.3315
 X-24.1379
G0 Z25.0000
 X24.1379
G1 Z17.9753
 X122.5000
 Y-6.3372
 X25.1107
G0 Z25.0000
 X-25.1107
G1 Z17.9753
 X-42.5000
 Y-3.3430
 X-25.6310
G0 Z25.0000
 X25.6310
G1 Z17.9753
 X122.5000
 Y-0.3487
 X25.9457
G0 Z25.0000
 X-25.9457
G1 Z17.9753
 X-42.5000
 Y2.6456
 X-25.7043
G0 Z25.0000
 X25.7043
G1 Z17.9753
 X122.5000
 Y5.6398
 X25.3373
G0 Z25.0000
 X-25.3373
G1 Z17.9753
 X-42.5000
 Y8.6341
 X-24.3645
G0 Z25.0000
 X24.3645
G1 Z17.9753
 X122.5000
 Y11.6284
 X23.1239
G0 Z25.0000
 X-23.1239
G1 Z17.9753
 X-42.5000
 Y14.6227
 X-21.3951
G0 Z25.0000
 X21.3951
G1 Z17.9753
 X122.5000
 Y17.6169
 X18.9089
G0 Z25.0000
 X-18.9089
G1 Z17.9753
 X-42.5000
 Y20.6112
 X-15.5928
G0 Z25.0000
 X15.5928
G1 Z17.9753
 X122.5000
 Y23.6055
 X10.5114
G0 Z25.0000
 X-10.5114
G1 Z17.9753
 X-42.5000
 Y26.5998
 X122.5000
 Y29.5940
 X-42.5000
 Y32.5883
 X122.5000
 Y35.5826
 X-42.5000
 Y38.5768
 X122.5000
 Y41.5711
 X-42.5000
 Y44.5654
 X122.5000
 Y47.5597
 X-42.5000
 Y50.5539
 X122.5000
 Y53.5482
 X-42.5000
 Y56.5425
 X122.5000
 Y59.5368
 X72.0000
G0 Z25.0000
 X8.0000
G1 Z17.9753
 X-42.5000
 Y62.5310
 X8.0000
G0 Z25.0000
 X72.0000
G1 Z17.9753
 X122.5000
 Y65.5253
 X72.0000
G0 Z25.0000
 X8.0000
G1 Z17.9753
 X-42.5000
 Y68.5196
 X8.0000
G0 Z25.0000
 X72.0000
G1 Z17.9753
 X122.5000
 Y71.5138
 X71.9343
G0 Z25.0000
 X8.0657
G1 Z17.9753
 X-42.5000
 Y74.5081
 X122.5000
 Y77.5024
 X-42.5000
 Y80.4967
 X122.5000
 Y83.4909
 X-42.5000
 Y86.4852
 X122.5000
 Y89.4795
 X-42.5000
 Z14.9794
 X122.5000
 Y86.4852
 X-42.5000
 Y83.4909
 X122.5000
 Y80.4967
 X-42.5000
 Y77.5024
 X122.5000
 Y74.5081
 X71.8156
G0 Z25.0000
 X8.1844
G1 Z14.9794
 X-42.5000
 Y71.5138
 X8.0000
G0 Z25.0000
 X72.0000
G1 Z14.9794
 X122.5000
 Y68.5196
 X72.0000
G0 Z25.0000
 X8.0000
G1 Z14.9794
 X-42.5000
 Y65.5253
 X8.0000
G0 Z25.0000
 X72.0000
G1 Z14.9794
 X122.5000
 Y62.5310
 X72.0000
G0 Z25.0000
 X8.0000
G1 Z14.9794
 X-42.5000
 Y59.5368
 X8.0000
G0 Z25.0000
 X72.0000
G1 Z14.9794
 X122.5000
 Y56.5425
 X72.0000
G0 Z25.0000
 X8.0000
G1 Z14.9794
 X-42.5000
 Y53.5482
 X122.5000
 Y50.5539
 X-42.5000
 Y47.5597
 X122.5000
 Y44.5654
 X-42.5000
 Y41.5711
 X122.5000
 Y38.5768
 X-42.5000
 Y35.5826
 X122.5000
 Y32.5883
 X-42.5000
 Y29.5940
 X122.5000
 Y26.5998
 X8.5620
G0 Z25.0000
 X-8.5620
G1 Z14.9794
 X-42.5000
 Y23.6055
 X-14.8112
G0 Z25.0000
 X14.8112
G1 Z14.9794
 X122.5000
 Y20.6112
 X18.8542
G0 Z25.0000
 X-18.8542
G1 Z14.9794
 X-42.5000
 Y17.6169
 X-21.5503
G0 Z25.0000
 X21.5503
G1 Z14.9794
 X122.5000
 Y14.6227
 X23.6618
G0 Z25.0000
 X-23.6618
G1 Z14.9794
 X-42.5000
 Y11.6284
 X-25.3905
G0 Z25.0000
 X25.3905
G1 Z14.9794
 X122.5000
 Y8.6341
 X26.4284
G0 Z25.0000
 X-26.4284
G1 Z14.9794
 X-42.5000
 Y5.6398
 X-27.3631
G0 Z25.0000
 X27.3631
G1 Z14.9794
 X122.5000
 Y2.6456
 X27.6781
G0 Z25.0000
 X-27.6781
G1 Z14.9794
 X-42.5000
 Y-0.3487
 X-27.9195
G0 Z25.0000
 X27.9195
G1 Z14.9794
 X122.5000
 Y-3.3430
 X27.6048
G0 Z25.0000
 X-27.6048
G1 Z14.9794
 X-42.5000
 Y-6.3372
 X-27.1747
G0 Z25.0000
 X27.1747
G1 Z14.9794
 X122.5000
 Y-9.3315
 X88.2606
G0 Z25.0000
 X71.7394
G1 Z14.9794
 X26.2018
G0 Z25.0000
 X-26.2018
G1 Z14.9794
 X-42.5000
 Y-12.3258
 X-24.9879
G0 Z25.0000
 X24.9879
G1 Z14.9794
 X71.9641
G0 Z25.0000
 X88.0359
G1 Z14.9794
 X122.5000
 Y-15.3201
 X23.2591
G0 Z25.0000
 X-23.2591
G1 Z14.9794
 X-42.5000
 Y-18.3143
 X-20.9224
G0 Z25.0000
 X20.9224
G1 Z14.9794
 X122.5000
 Y-21.3086
 X17.9725
G0 Z25.0000
 X-17.9725
G1 Z14.9794
 X-42.5000
 Y-24.3029
 X-13.7712
G0 Z25.0000
 X13.7712
G1 Z14.9794
 X122.5000
 Y-27.2972
 X5.3022
G0 Z25.0000
 X-5.3022
G1 Z14.9794
 X-42.5000
 Y-30.2914
 X122.5000
 Y-33.2857
 X-42.5000
 Y-36.2800
 X122.5000
 Y-39.2742
 X-42.5000
 Z11.9836
 X122.5000
 Y-36.2800
 X-42.5000
 Y-33.2857
 X122.5000
 Y-30.2914
 X-42.5000
 Y-27.2972
 X-10.7466
G0 Z25.0000
 X10.7466
G1 Z11.9836
 X122.5000
 Y-24.3029
 X16.4121
G0 Z25.0000
 X-16.4121
G1 Z11.9836
 X-42.5000
 Y-21.3086
 X-20.2518
G0 Z25.0000
 X20.2518
G1 Z11.9836
 X122.5000
 Y-18.3143
 X22.9478
G0 Z25.0000
 X-22.9478
G1 Z11.9836
 X-42.5000
 Y-15.3201
 X-24.9972
G0 Z25.0000
 X24.9972
G1 Z11.9836
 X72.7852
G0 Z25.0000
 X87.2148
G1 Z11.9836
 X122.5000
 Y-12.3258
 X91.6835
G0 Z25.0000
 X68.3165
G1 Z11.9836
 X26.7259
G0 Z25.0000
 X-26.7259
G1 Z11.9836
 X-42.5000
 Y-9.3315
 X-27.7845
G0 Z25.0000
 X27.7845
G1 Z11.9836
 X65.8384
G0 Z25.0000
 X94.1616
G1 Z11.9836
 X122.5000
 Y-6.3372
 X95.7423
G0 Z25.0000
 X64.2577
G1 Z11.9836
 X28.7574
G0 Z25.0000
 X-28.7574
G1 Z11.9836
 X-42.5000
 Y-3.3430
 X-29.1183
G0 Z25.0000
 X29.1183
G1 Z11.9836
 X75.7946
G0 Z25.0000
 X84.2054
G1 Z11.9836
 X122.5000
 Y-0.3487
 X29.4330
G0 Z25.0000
 X-29.4330
G1 Z11.9836
 X-42.5000
 Y2.6456
 X-29.1916
G0 Z25.0000
 X29.1916
G1 Z11.9836
 X122.5000
 Y5.6398
 X28.8769
G0 Z25.0000
 X-28.8769
G1 Z11.9836
 X-42.5000
 Y8.6341
 X-28.0111
G0 Z25.0000
 X28.0111
G1 Z11.9836
 X122.5000
 Y11.6284
 X27.0382
G0 Z25.0000
 X-27.0382
G1 Z11.9836
 X-42.5000
 Y14.6227
 X-25.3998
G0 Z25.0000
 X25.3998
G1 Z11.9836
 X122.5000
 Y17.6169
 X23.5758
G0 Z25.0000
 X-23.5758
G1 Z11.9836
 X-42.5000
 Y20.6112
 X-20.8797
G0 Z25.0000
 X20.8797
G1 Z11.9836
 X122.5000
 Y23.6055
 X17.3720
G0 Z25.0000
 X-17.3720
G1 Z11.9836
 X-42.5000
 Y26.5998
 X-12.3130
G0 Z25.0000
 X12.3130
G1 Z11.9836
 X122.5000
 Y29.5940
 X-42.5000
 Y32.5883
 X122.5000
 Y35.5826
 X-42.5000
 Y38.5768
 X122.5000
 Y41.5711
 X-42.5000
 Y44.5654
 X122.5000
 Y47.5597
 X-42.5000
 Y50.5539
 X122.5000
 Y53.5482
 X71.0438
G0 Z25.0000
 X8.9562
G1 Z11.9836
 X-42.5000
 Y56.5425
 X8.0000
G0 Z25.0000
 X72.0000
G1 Z11.9836
 X122.5000
 Y59.5368
 X72.0000
G0 Z25.0000
 X8.0000
G1 Z11.9836
 X-42.5000
 Y62.5310
 X8.0000
G0 Z25.0000
 X72.0000
G1 Z11.9836
 X122.5000
 Y65.5253
 X72.0000
G0 Z25.0000
 X8.0000
G1 Z11.9836
 X-42.5000
 Y68.5196
 X8.0000
G0 Z25.0000
 X72.0000
G1 Z11.9836
 X122.5000
 Y71.5138
 X72.0000
G0 Z25.0000
 X8.0000
G1 Z11.9836
 X-42.5000
 Y74.5081
 X8.0000
G0 Z25.0000
 X72.0000
G1 Z11.9836
 X122.5000
 Y77.5024
 X-42.5000
 Y80.4967
 X122.5000
 Y83.4909
 X-42.5000
 Y86.4852
 X122.5000
 Y89.4795
 X-42.5000
 Z8.9877
 X122.5000
 Y86.4852
 X-42.5000
 Y83.4909
 X122.5000
 Y80.4967
 X111.9374
G0 Z25.0000
 X-31.9374
G1 Z8.9877
 X-42.5000
 Y77.5024
 X-32.0000
G0 Z25.0000
 X112.0000
G1 Z8.9877
 X122.5000
 Y74.5081
 X112.0000
G0 Z25.0000
 X-32.0000
G1 Z8.9877
 X-42.5000
 Y71.5138
 X-32.0000
G0 Z25.0000
 X112.0000
G1 Z8.9877
 X122.5000
 Y68.5196
 X112.0000
G0 Z25.0000
 X-32.0000
G1 Z8.9877
 X-42.5000
 Y65.5253
 X-32.0000
G0 Z25.0000
 X112.0000
G1 Z8.9877
 X122.5000
 Y62.5310
 X112.0000
G0 Z25.0000
 X-32.0000
G1 Z8.9877
 X-42.5000
 Y59.5368
 X-32.0000
G0 Z25.0000
 X112.0000
G1 Z8.9877
 X122.5000
 Y56.5425
 X112.0000
G0 Z25.0000
 X-32.0000
G1 Z8.9877
 X-42.5000
 Y53.5482
 X-32.0000
G0 Z25.0000
 X112.0000
G1 Z8.9877
 X122.5000
 Y50.5539
 X112.0000
G0 Z25.0000
 X-32.0000
G1 Z8.9877
 X-42.5000
 Y47.5597
 X122.5000
 Y44.5654
 X-42.5000
 Y41.5711
 X122.5000
 Y38.5768
 X-42.5000
 Y35.5826
 X122.5000
 Y32.5883
 X-42.5000
 Y29.5940
 X-7.1015
G0 Z25.0000
 X7.1015
G1 Z8.9877
 X122.5000
 Y26.5998
 X15.0557
G0 Z25.0000
 X-15.0557
G1 Z8.9877
 X-42.5000
 Y23.6055
 X-19.2699
G0 Z25.0000
 X19.2699
G1 Z8.9877
 X122.5000
 Y20.6112
 X22.3808
G0 Z25.0000
 X-22.3808
G1 Z8.9877
 X-42.5000
 Y17.6169
 X-24.9592
G0 Z25.0000
 X24.9592
G1 Z8.9877
 X122.5000
 Y14.6227
 X26.6880
G0 Z25.0000
 X-26.6880
G1 Z8.9877
 X-42.5000
 Y11.6284
 X-28.2112
G0 Z25.0000
 X28.2112
G1 Z8.9877
 X122.5000
 Y8.6341
 X29.1841
G0 Z25.0000
 X-29.1841
G1 Z8.9877
 X-42.5000
 Y5.6398
 X-29.9986
G0 Z25.0000
 X29.9986
G1 Z8.9877
 X77.0072
G0 Z25.0000
 X82.9928
G1 Z8.9877
 X122.5000
 Y2.6456
 X87.5441
G0 Z25.0000
 X72.4559
G1 Z8.9877
 X30.3133
G0 Z25.0000
 X-30.3133
G1 Z8.9877
 X-42.5000
 Y-0.3487
 X-30.5547
G0 Z25.0000
 X30.5547
G1 Z8.9877
 X60.7777
G0 Z25.0000
 X99.2223
G1 Z8.9877
 X122.5000
 Y-3.3430
 X98.9189
G0 Z25.0000
 X61.0811
G1 Z8.9877
 X30.2400
G0 Z25.0000
 X-30.2400
G1 Z8.9877
 X-42.5000
 Y-6.3372
 X-29.9164
G0 Z25.0000
 X29.9164
G1 Z8.9877
 X61.9081
G0 Z25.0000
 X98.0919
G1 Z8.9877
 X122.5000
 Y-9.3315
 X96.7419
G0 Z25.0000
 X63.2581
G1 Z8.9877
 X28.9575
G0 Z25.0000
 X-28.9575
G1 Z8.9877
 X-42.5000
 Y-12.3258
 X-27.9825
G0 Z25.0000
 X27.9825
G1 Z8.9877
 X65.3095
G0 Z25.0000
 X94.6905
G1 Z8.9877
 X122.5000
 Y-15.3201
 X91.5187
G0 Z25.0000
 X68.4813
G1 Z8.9877
 X26.2853
G0 Z25.0000
 X-26.2853
G1 Z8.9877
 X-42.5000
 Y-18.3143
 X-24.4490
G0 Z25.0000
 X24.4490
G1 Z8.9877
 X74.0415
G0 Z25.0000
 X85.9585
G1 Z8.9877
 X122.5000
 Y-21.3086
 X21.7529
G0 Z25.0000
 X-21.7529
G1 Z8.9877
 X-42.5000
 Y-24.3029
 X-18.3100
G0 Z25.0000
 X18.3100
G1 Z8.9877
 X122.5000
 Y-27.2972
 X13.4893
G0 Z25.0000
 X-13.4893
G1 Z8.9877
 X-42.5000
 Y-30.2914
 X-3.8204
G0 Z25.0000
 X3.8204
G1 Z8.9877
 X122.5000
 Y-33.2857
 X-42.5000
 Y-36.2800
 X122.5000
 Y-39.2742
 X-42.5000
 Z5.9918
 X122.5000
 Y-36.2800
 X-42.5000
 Y-33.2857
 X122.5000
 Y-30.2914
 X7.5239
G0 Z25.0000
 X-7.5239
G1 Z5.9918
 X-42.5000
 Y-27.2972
 X-15.3824
G0 Z25.0000
 X15.3824
G1 Z5.9918
 X122.5000
 Y-24.3029
 X19.6200
G0 Z25.0000
 X-19.6200
G1 Z5.9918
 X-42.5000
 Y-21.3086
 X-22.7890
G0 Z25.0000
 X22.7890
G1 Z5.9918
 X77.3241
G0 Z25.0000
 X82.6759
G1 Z5.9918
 X122.5000
 Y-18.3143
 X91.1992
G0 Z25.0000
 X68.8008
G1 Z5.9918
 X25.4443
G0 Z25.0000
 X-25.4443
G1 Z5.9918
 X-42.5000
 Y-15.3201
 X-27.1744
G0 Z25.0000
 X27.1744
G1 Z5.9918
 X64.9986
G0 Z25.0000
 X95.0014
G1 Z5.9918
 X122.5000
 Y-12.3258
 X97.5935
G0 Z25.0000
 X62.4065
G1 Z5.9918
 X28.7942
G0 Z25.0000
 X-28.7942
G1 Z5.9918
 X-42.5000
 Y-9.3315
 X-29.7671
G0 Z25.0000
 X29.7671
G1 Z5.9918
 X60.6778
G0 Z25.0000
 X99.3222
G1 Z5.9918
 X122.5000
 Y-6.3372
 X100.4415
G0 Z25.0000
 X59.5585
G1 Z5.9918
 X30.6994
G0 Z25.0000
 X-30.6994
G1 Z5.9918
 X-42.5000
 Y-3.3430
 X-31.0143
G0 Z25.0000
 X31.0142
G1 Z5.9918
 X58.8342
G0 Z25.0000
 X101.1658
G1 Z5.9918
 X122.5000
 Y-0.3487
 X101.4805
G0 Z25.0000
 X58.5195
G1 Z5.9918
 X31.3290
G0 Z25.0000
 X-31.3290
G1 Z5.9918
 X-42.5000
 Y2.6456
 X-31.0875
G0 Z25.0000
 X31.0875
G1 Z5.9918
 X58.7609
G0 Z25.0000
 X101.2391
G1 Z5.9918
 X122.5000
 Y5.6398
 X100.6578
G0 Z25.0000
 X59.3422
G1 Z5.9918
 X30.7728
G0 Z25.0000
 X-30.7728
G1 Z5.9918
 X-42.5000
 Y8.6341
 X-29.9937
G0 Z25.0000
 X29.9937
G1 Z5.9918
 X70.7331
G0 Z25.0000
 X89.2669
G1 Z5.9918
 X122.5000
 Y11.6284
 X86.6044
G0 Z25.0000
 X73.3956
G1 Z5.9918
 X29.0208
G0 Z25.0000
 X-29.0208
G1 Z5.9918
 X-42.5000
 Y14.6227
 X-27.5771
G0 Z25.0000
 X27.5771
G1 Z5.9918
 X122.5000
 Y17.6169
 X25.8483
G0 Z25.0000
 X-25.8483
G1 Z5.9918
 X-42.5000
 Y20.6112
 X-23.4170
G0 Z25.0000
 X23.4170
G1 Z5.9918
 X122.5000
 Y23.6055
 X20.5799
G0 Z25.0000
 X-20.5799
G1 Z5.9918
 X-42.5000
 Y26.5998
 X-16.4586
G0 Z25.0000
 X16.4586
G1 Z5.9918
 X122.5000
 Y29.5940
 X10.2236
G0 Z25.0000
 X-10.2236
G1 Z5.9918
 X-42.5000
 Y32.5883
 X122.5000
 Y35.5826
 X-42.5000
 Y38.5768
 X122.5000
 Y41.5711
 X-42.5000
 Y44.5654
 X122.5000
 Y47.5597
 X-42.5000
 Y50.5539
 X-32.0000
G0 Z25.0000
 X112.0000
G1 Z5.9918
 X122.5000
 Y53.5482
 X112.0000
G0 Z25.0000
 X-32.0000
G1 Z5.9918
 X-42.5000
 Y56.5425
 X-32.0000
G0 Z25.0000
 X112.0000
G1 Z5.9918
 X122.5000
 Y59.5368
 X112.0000
G0 Z25.0000
 X-32.0000
G1 Z5.9918
 X-42.5000
 Y62.5310
 X-32.0000
G0 Z25.0000
 X112.0000
G1 Z5.9918
 X122.5000
 Y65.5253
 X112.0000
G0 Z25.0000
 X-32.0000
G1 Z5.9918
 X-42.5000
 Y68.5196
 X-32.0000
G0 Z25.0000
 X112.0000
G1 Z5.9918
 X122.5000
 Y71.5138
 X112.0000
G0 Z25.0000
 X-32.0000
G1 Z5.9918
 X-42.5000
 Y74.5081
 X-32.0000
G0 Z25.0000
 X112.0000
G1 Z5.9918
 X122.5000
 Y77.5024
 X112.0000
G0 Z25.0000
 X-32.0000
G1 Z5.9918
 X-42.5000
 Y80.4967
 X-31.9374
G0 Z25.0000
 X111.9374
G1 Z5.9918
 X122.5000
 Y83.4909
 X-42.5000
 Y86.4852
 X122.5000
 Y89.4795
 X-42.5000
 Z2.9959
 X122.5000
 Y86.4852
 X-42.5000
 Y83.4909
 X122.5000
 Y80.4967
 X111.9374
G0 Z25.0000
 X-31.9374
G1 Z2.9959
 X-42.5000
 Y77.5024
 X-32.0000
G0 Z25.0000
 X112.0000
G1 Z2.9959
 X122.5000
 Y74.5081
 X112.0000
G0 Z25.0000
 X-32.0000
G1 Z2.9959
 X-42.5000
 Y71.5138
 X-32.0000
G0 Z25.0000
 X112.0000
G1 Z2.9959
 X122.5000
 Y68.5196
 X112.0000
G0 Z25.0000
 X-32.0000
G1 Z2.9959
 X-42.5000
 Y65.5253
 X-32.0000
G0 Z25.0000
 X112.0000
G1 Z2.9959
 X122.5000
 Y62.5310
 X112.0000
G0 Z25.0000
 X-32.0000
G1 Z2.9959
 X-42.5000
 Y59.5368
 X-32.0000
G0 Z25.0000
 X112.0000
G1 Z2.9959
 X122.5000
 Y56.5425
 X112.0000
G0 Z25.0000
 X-32.0000
G1 Z2.9959
 X-42.5000
 Y53.5482
 X-32.0000
G0 Z25.0000
 X112.0000
G1 Z2.9959
 X122.5000
 Y50.5539
 X112.0000
G0 Z25.0000
 X-32.0000
G1 Z2.9959
 X-42.5000
 Y47.5597
 X122.5000
 Y44.5654
 X-42.5000
 Y41.5711
 X122.5000
 Y38.5768
 X-42.5000
 Y35.5826
 X122.5000
 Y32.5883
 X-42.5000
 Y29.5940
 X-11.3347
G0 Z25.0000
 X11.3347
G1 Z2.9959
 X122.5000
 Y26.5998
 X17.2275
G0 Z25.0000
 X-17.2275
G1 Z2.9959
 X-42.5000
 Y23.6055
 X-21.3204
G0 Z25.0000
 X21.3204
G1 Z2.9959
 X122.5000
 Y20.6112
 X85.3949
G0 Z25.0000
 X74.6051
G1 Z2.9959
 X24.0251
G0 Z25.0000
 X-24.0251
G1 Z2.9959
 X-42.5000
 Y17.6169
 X-26.3702
G0 Z25.0000
 X26.3702
G1 Z2.9959
 X71.3106
G0 Z25.0000
 X88.6894
G1 Z2.9959
 X122.5000
 Y14.6227
 X90.9896
G0 Z25.0000
 X69.0104
G1 Z2.9959
 X28.0989
G0 Z25.0000
 X-28.0989
G1 Z2.9959
 X-42.5000
 Y11.6284
 X-29.4960
G0 Z25.0000
 X29.4960
G1 Z2.9959
 X59.6107
G0 Z25.0000
 X100.3893
G1 Z2.9959
 X122.5000
 Y8.6341
 X102.0448
G0 Z25.0000
 X57.9552
G1 Z2.9959
 X30.4689
G0 Z25.0000
 X-30.4689
G1 Z2.9959
 X-42.5000
 Y5.6398
 X-31.2273
G0 Z25.0000
 X31.2273
G1 Z2.9959
 X56.9823
G0 Z25.0000
 X103.0177
G1 Z2.9959
 X122.5000
 Y2.6456
 X103.4860
G0 Z25.0000
 X56.5140
G1 Z2.9959
 X31.5420
G0 Z25.0000
 X-31.5420
G1 Z2.9959
 X-42.5000
 Y-0.3487
 X-31.7834
G0 Z25.0000
 X31.7834
G1 Z2.9959
 X56.2725
G0 Z25.0000
 X103.7274
G1 Z2.9959
 X122.5000
 Y-3.3430
 X103.4127
G0 Z25.0000
 X56.5873
G1 Z2.9959
 X31.4687
G0 Z25.0000
 X-31.4687
G1 Z2.9959
 X-42.5000
 Y-6.3372
 X-31.1540
G0 Z25.0000
 X31.1540
G1 Z2.9959
 X57.2089
G0 Z25.0000
 X102.7911
G1 Z2.9959
 X122.5000
 Y-9.3315
 X101.8182
G0 Z25.0000
 X58.1818
G1 Z2.9959
 X30.2423
G0 Z25.0000
 X-30.2423
G1 Z2.9959
 X-42.5000
 Y-12.3258
 X-29.2694
G0 Z25.0000
 X29.2694
G1 Z2.9959
 X59.8262
G0 Z25.0000
 X100.1738
G1 Z2.9959
 X122.5000
 Y-15.3201
 X98.0083
G0 Z25.0000
 X61.9917
G1 Z2.9959
 X27.6963
G0 Z25.0000
 X-27.6963
G1 Z2.9959
 X-42.5000
 Y-18.3143
 X-25.9676
G0 Z25.0000
 X25.9676
G1 Z2.9959
 X64.9991
G0 Z25.0000
 X95.0009
G1 Z2.9959
 X122.5000
 Y-21.3086
 X90.2463
G0 Z25.0000
 X69.7537
G1 Z2.9959
 X23.3972
G0 Z25.0000
 X-23.3972
G1 Z2.9959
 X-42.5000
 Y-24.3029
 X-20.3889
G0 Z25.0000
 X20.3889
G1 Z2.9959
 X122.5000
 Y-27.2972
 X16.2676
G0 Z25.0000
 X-16.2676
G1 Z2.9959
 X-42.5000
 Y-30.2914
 X-9.6923
G0 Z25.0000
 X9.6923
G1 Z2.9959
 X122.5000
 Y-33.2857
 X-42.5000
 Y-36.2800
 X122.5000
 Y-39.2742
 X-42.5000
 Z0.0000
 X-40.2500
G0 Z25.0000
 X-35.7500
G1 Z0.0000
 X-34.2500
G0 Z25.0000
 X-29.7500
G1 Z0.0000
 X-28.2500
G0 Z25.0000
 X-23.7500
G1 Z0.0000
 X-22.2500
G0 Z25.0000
 X-17.7500
G1 Z0.0000
 X-16.2500
G0 Z25.0000
 X-11.7500
G1 Z0.0000
 X-10.2500
G0 Z25.0000
 X-5.7500
G1 Z0.0000
 X-4.2500
G0 Z25.0000
 X0.2500
G1 Z0.0000
 X1.7500
G0 Z25.0000
 X6.2500
G1 Z0.0000
 X7.7500
G0 Z25.0000
 X12.2500
G1 Z0.0000
 X13.7500
G0 Z25.0000
 X18.2500
G1 Z0.0000
 X19.7500
G0 Z25.0000
 X24.2500
G1 Z0.0000
 X25.7500
G0 Z25.0000
 X30.2500
G1 Z0.0000
 X31.7500
G0 Z25.0000
 X36.2500
G1 Z0.0000
 X37.7500
G0 Z25.0000
 X42.2500
G1 Z0.0000
 X43.7500
G0 Z25.0000
 X48.2500
G1 Z0.0000
 X49.7500
G0 Z25.0000
 X54.2500
G1 Z0.0000
 X55.7500
G0 Z25.0000
 X60.2500
G1 Z0.0000
 X61.7500
G0 Z25.0000
 X66.2500
G1 Z0.0000
 X67.7500
G0 Z25.0000
 X72.2500
G1 Z0.0000
 X73.7500
G0 Z25.0000
 X78.2500
G1 Z0.0000
 X79.7500
G0 Z25.0000
 X84.2500
G1 Z0.0000
 X85.7500
G0 Z25.0000
 X90.2500
G1 Z0.0000
 X91.7500
G0 Z25.0000
 X96.2500
G1 Z0.0000
 X97.7500
G0 Z25.0000
 X102.2500
G1 Z0.0000
 X103.7500
G0 Z25.0000
 X108.2500
G1 Z0.0000
 X109.7500
G0 Z25.0000
 X114.2500
G1 Z0.0000
 X115.7500
G0 Z25.0000
 X120.2500
G1 Z0.0000
 X122.5000
G0 Z25.0000
 Y89.4795
G1 Z0.0000
 X120.2500
G0 Z25.0000
 X115.7500
G1 Z0.0000
 X114.2500
G0 Z25.0000
 X109.7500
G1 Z0.0000
 X108.2500
G0 Z25.0000
 X103.7500
G1 Z0.0000
 X102.2500
G0 Z25.0000
 X97.7500
G1 Z0.0000
 X96.2500
G0 Z25.0000
 X91.7500
G1 Z0.0000
 X90.2500
G0 Z25.0000
 X85.7500
G1 Z0.0000
 X84.2500
G0 Z25.0000
 X79.7500
G1 Z0.0000
 X78.2500
G0 Z25.0000
 X73.7500
G1 Z0.0000
 X72.2500
G0 Z25.0000
 X67.7500
G1 Z0.0000
 X66.2500
G0 Z25.0000
 X61.7500
G1 Z0.0000
 X60.2500
G0 Z25.0000
 X55.7500
G1 Z0.0000
 X54.2500
G0 Z25.0000
 X49.7500
G1 Z0.0000
 X48.2500
G0 Z25.0000
 X43.7500
G1 Z0.0000
 X42.2500
G0 Z25.0000
 X37.7500
G1 Z0.0000
 X36.2500
G0 Z25.0000
 X31.7500
G1 Z0.0000
 X30.2500
G0 Z25.0000
 X25.7500
G1 Z0.0000
 X24.2500
G0 Z25.0000
 X19.7500
G1 Z0.0000
 X18.2500
G0 Z25.0000
 X13.7500
G1 Z0.0000
 X12.2500
G0 Z25.0000
 X7.7500
G1 Z0.0000
 X6.2500
G0 Z25.0000
 X1.7500
G1 Z0.0000
 X0.2500
G0 Z25.0000
 X-4.2500
G1 Z0.0000
 X-5.7500
G0 Z25.0000
 X-10.2500
G1 Z0.0000
 X-11.7500
G0 Z25.0000
 X-16.2500
G1 Z0.0000
 X-17.7500
G0 Z25.0000
 X-22.2500
G1 Z0.0000
 X-23.7500
G0 Z25.0000
 X-28.2500
G1 Z0.0000
 X-29.7500
G0 Z25.0000
 X-34.2500
G1 Z0.0000
 X-35.7500
G0 Z25.0000
 X-40.2500
G1 Z0.0000
 X-42.5000
G0 Z25.0000
M5 (stop spindle)
G04 P3 (wait for 3 seconds)
G0 Z25.0000
M2 (end program)
