;PYCAM-META-DATA: Filename: /sources/cnc/uf.svg
;PYCAM-META-DATA: Timestamp: 2016-08-22 21:37:36.656031
;PYCAM-META-DATA: Version: 0.5.1
;Estimated machine time: 0 minutes
G40 (disable tool radius compensation)
G49 (disable tool length compensation)
G80 (cancel modal motion)
G54 (select coordinate system 1)
G90 (disable incremental moves)
G21 (metric)
G64 P0.050000 Q0.050000 (continuous mode with tolerance and cleanup)
F600.00000
S12000.00000
;PYCAM_TOOLPATH_SETTINGS: START
;[Bounds]
;maxz = 0.0
;maxx = 79.35053
;maxy = 19.34928
;minx = -79.35
;miny = -19.35
;minz = 0.0
;
;[Tool]
;torus_radius = 0.25
;speed = 12000.0
;shape = SphericalCutter
;tool_radius = 0.9
;feedrate = 2400.0
;
;[Process]
;engrave_offset = -0.9
;step_down = 4.0
;generator = EngraveCutter
;postprocessor = SimpleCutter
;milling_style = conventional
;material_allowance = 0.0
;pocketing_type = none
;path_direction = x
;
;PYCAM_TOOLPATH_SETTINGS: END
T1 M6
G0 Z3.0000
M3 (start spindle)
G04 P3 (wait for 3 seconds)
 X-40.6508 Y0.0005
G1 Z-3.50000
 Y0.2459
 X-40.6760 Y0.9932
 X-40.7511 Y1.9799
 X-40.8740 Y2.9481
 X-41.0443 Y3.9009
 X-41.2602 Y4.8366
 X-41.5208 Y5.7545
 X-41.8249 Y6.6531
 X-42.1713 Y7.5315
 X-42.5587 Y8.3884
 X-42.9859 Y9.2225
 X-43.4517 Y10.0326
 X-43.9550 Y10.8176
 X-44.4946 Y11.5763
 X-45.0691 Y12.3075
 X-45.6774 Y13.0096
 X-46.3184 Y13.6818
 X-46.9906 Y14.3226
 X-47.6928 Y14.9311
 X-48.4239 Y15.5055
 X-49.1826 Y16.0451
 X-49.9675 Y16.5482
 X-50.7780 Y17.0141
 X-51.6121 Y17.4415
 X-52.4689 Y17.8288
 X-53.3471 Y18.1751
 X-54.2460 Y18.4792
 X-55.1638 Y18.7399
 X-56.0995 Y18.9559
 X-57.0521 Y19.1259
 X-58.0206 Y19.2491
 X-59.0073 Y19.3240
 X-59.7546 Y19.3493
 X-60.2452
 X-60.9927 Y19.3240
 X-61.9795 Y19.2491
 X-62.9478 Y19.1259
 X-63.9007 Y18.9559
 X-64.8365 Y18.7399
 X-65.7543 Y18.4792
 X-66.6531 Y18.1751
 X-67.5317 Y17.8288
 X-68.3885 Y17.4414
 X-69.2227 Y17.0141
 X-70.0331 Y16.5482
 X-70.8181 Y16.0451
 X-71.5768 Y15.5055
 X-72.3079 Y14.9310
 X-73.0102 Y14.3226
 X-73.6824 Y13.6818
 X-74.3233 Y13.0097
 X-74.9316 Y12.3075
 X-75.5061 Y11.5763
 X-76.0457 Y10.8176
 X-76.5490 Y10.0326
 X-77.0149 Y9.2225
 X-77.4422 Y8.3883
 X-77.8295 Y7.5315
 X-78.1759 Y6.6531
 X-78.4800 Y5.7544
 X-78.7406 Y4.8366
 X-78.9566 Y3.9010
 X-79.1267 Y2.9482
 X-79.2498 Y1.9799
 X-79.3248 Y0.9933
 X-79.3500 Y0.2459
 Y-0.2448
 X-79.3248 Y-0.9921
 X-79.2498 Y-1.9790
 X-79.1267 Y-2.9475
 X-78.9566 Y-3.9002
 X-78.7406 Y-4.8360
 X-78.4799 Y-5.7540
 X-78.1758 Y-6.6529
 X-77.8295 Y-7.5313
 X-77.4422 Y-8.3882
 X-77.0149 Y-9.2224
 X-76.5490 Y-10.0327
 X-76.0457 Y-10.8178
 X-75.5061 Y-11.5766
 X-74.9316 Y-12.3077
 X-74.3233 Y-13.0100
 X-73.6824 Y-13.6822
 X-73.0102 Y-14.3231
 X-72.3080 Y-14.9314
 X-71.5768 Y-15.5060
 X-70.8181 Y-16.0455
 X-70.0330 Y-16.5489
 X-69.2227 Y-17.0148
 X-68.3885 Y-17.4420
 X-67.5316 Y-17.8294
 X-66.6531 Y-18.1758
 X-65.7543 Y-18.4799
 X-64.8365 Y-18.7405
 X-63.9006 Y-18.9565
 X-62.9478 Y-19.1267
 X-61.9795 Y-19.2497
 X-60.9926 Y-19.3248
 X-60.2452 Y-19.3500
 X-59.7545
 X-59.0073 Y-19.3248
 X-58.0206 Y-19.2497
 X-57.0521 Y-19.1267
 X-56.0995 Y-18.9565
 X-55.1637 Y-18.7405
 X-54.2460 Y-18.4799
 X-53.3472 Y-18.1758
 X-52.4690 Y-17.8294
 X-51.6120 Y-17.4420
 X-50.7780 Y-17.0148
 X-49.9676 Y-16.5489
 X-49.1826 Y-16.0455
 X-48.4239 Y-15.5060
 X-47.6928 Y-14.9314
 X-46.9906 Y-14.3231
 X-46.3184 Y-13.6822
 X-45.6775 Y-13.0099
 X-45.0691 Y-12.3077
 X-44.4947 Y-11.5766
 X-43.9551 Y-10.8178
 X-43.4518 Y-10.0327
 X-42.9859 Y-9.2225
 X-42.5587 Y-8.3882
 X-42.1713 Y-7.5312
 X-41.8249 Y-6.6528
 X-41.5209 Y-5.7540
 X-41.2602 Y-4.8361
 X-41.0443 Y-3.9002
 X-40.8740 Y-2.9475
 X-40.7511 Y-1.9791
 X-40.6760 Y-0.9921
 X-40.6508 Y-0.2447
 Y0.0005
G0 Z3.0000
 X19.3485
G1 Z-3.50000
 Y0.2461
 X19.3237 Y0.9936
 X19.2488 Y1.9799
 X19.1256 Y2.9481
 X18.9555 Y3.9010
 X18.7396 Y4.8366
 X18.4788 Y5.7545
 X18.1751 Y6.6531
 X17.8284 Y7.5316
 X17.4415 Y8.3884
 X17.0139 Y9.2223
 X16.5480 Y10.0326
 X16.0447 Y10.8176
 X15.5051 Y11.5763
 X14.9306 Y12.3075
 X14.3222 Y13.0097
 X13.6815 Y13.6818
 X13.0091 Y14.3226
 X12.3068 Y14.9311
 X11.5759 Y15.5055
 X10.8173 Y16.0451
 X10.0322 Y16.5482
 X9.2217 Y17.0141
 X8.3876 Y17.4415
 X7.5308 Y17.8288
 X6.6526 Y18.1751
 X5.7537 Y18.4792
 X4.8359 Y18.7399
 X3.9002 Y18.9559
 X2.9476 Y19.1259
 X1.9792 Y19.2491
 X0.9926 Y19.3240
 X0.2451 Y19.3493
 X-0.2454
 X-0.9930 Y19.3240
 X-1.9797 Y19.2491
 X-2.9481 Y19.1259
 X-3.9009 Y18.9559
 X-4.8368 Y18.7399
 X-5.7546 Y18.4792
 X-6.6534 Y18.1751
 X-7.5320 Y17.8288
 X-8.3887 Y17.4414
 X-9.2230 Y17.0141
 X-10.0332 Y16.5482
 X-10.8184 Y16.0451
 X-11.5770 Y15.5055
 X-12.3081 Y14.9311
 X-13.0104 Y14.3226
 X-13.6828 Y13.6817
 X-14.3236 Y13.0097
 X-14.9318 Y12.3075
 X-15.5063 Y11.5763
 X-16.0460 Y10.8176
 X-16.5493 Y10.0326
 X-17.0151 Y9.2225
 X-17.4423 Y8.3883
 X-17.8298 Y7.5315
 X-18.1760 Y6.6531
 X-18.4801 Y5.7545
 X-18.7408 Y4.8366
 X-18.9568 Y3.9009
 X-19.1269 Y2.9481
 X-19.2501 Y1.9798
 X-19.3251 Y0.9934
 X-19.3502 Y0.2460
 Y-0.2448
 X-19.3251 Y-0.9922
 X-19.2501 Y-1.9790
 X-19.1269 Y-2.9474
 X-18.9568 Y-3.9002
 X-18.7408 Y-4.8361
 X-18.4801 Y-5.7540
 X-18.1760 Y-6.6529
 X-17.8298 Y-7.5313
 X-17.4423 Y-8.3882
 X-17.0150 Y-9.2225
 X-16.5493 Y-10.0327
 X-16.0460 Y-10.8177
 X-15.5063 Y-11.5765
 X-14.9318 Y-12.3077
 X-14.3235 Y-13.0100
 X-13.6827 Y-13.6822
 X-13.0104 Y-14.3231
 X-12.3081 Y-14.9314
 X-11.5770 Y-15.5060
 X-10.8183 Y-16.0455
 X-10.0331 Y-16.5489
 X-9.2230 Y-17.0148
 X-8.3887 Y-17.4420
 X-7.5319 Y-17.8294
 X-6.6534 Y-18.1758
 X-5.7546 Y-18.4799
 X-4.8368 Y-18.7405
 X-3.9008 Y-18.9565
 X-2.9481 Y-19.1267
 X-1.9797 Y-19.2497
 X-0.9929 Y-19.3248
 X-0.2454 Y-19.3500
 X0.2452
 X0.9926 Y-19.3248
 X1.9792 Y-19.2497
 X2.9476 Y-19.1267
 X3.9002 Y-18.9565
 X4.8360 Y-18.7405
 X5.7537 Y-18.4799
 X6.6525 Y-18.1758
 X7.5307 Y-17.8294
 X8.3877 Y-17.4420
 X9.2217 Y-17.0148
 X10.0321 Y-16.5488
 X10.8173 Y-16.0455
 X11.5759 Y-15.5060
 X12.3069 Y-14.9315
 X13.0091 Y-14.3231
 X13.6814 Y-13.6822
 X14.3222 Y-13.0100
 X14.9306 Y-12.3077
 X15.5050 Y-11.5766
 X16.0446 Y-10.8178
 X16.5479 Y-10.0327
 X17.0139 Y-9.2223
 X17.4414 Y-8.3882
 X17.8283 Y-7.5313
 X18.1751 Y-6.6528
 X18.4788 Y-5.7541
 X18.7396 Y-4.8361
 X18.9555 Y-3.9003
 X19.1256 Y-2.9474
 X19.2488 Y-1.9790
 X19.3237 Y-0.9924
 X19.3485 Y-0.2450
 Y0.0005
G0 Z3.0000
 X79.3505
G1 Z-3.50000
 Y0.2455
 X79.3247 Y0.9930
 X79.2498 Y1.9799
 X79.1266 Y2.9481
 X78.9565 Y3.9010
 X78.7405 Y4.8370
 X78.4809 Y5.7541
 X78.1753 Y6.6527
 X77.8293 Y7.5316
 X77.4416 Y8.3882
 X77.0143 Y9.2227
 X76.5491 Y10.0327
 X76.0455 Y10.8177
 X75.5064 Y11.5766
 X74.9325 Y12.3071
 X74.3224 Y13.0096
 X73.6828 Y13.6819
 X73.0103 Y14.3224
 X72.3076 Y14.9310
 X71.5762 Y15.5057
 X70.8185 Y16.0451
 X70.0332 Y16.5482
 X69.2228 Y17.0141
 X68.3889 Y17.4414
 X67.5310 Y17.8288
 X66.6529 Y18.1751
 X65.7551 Y18.4792
 X64.8374 Y18.7398
 X63.9003 Y18.9558
 X62.9476 Y19.1259
 X61.9786 Y19.2491
 X60.9922 Y19.3240
 X60.2443 Y19.3493
 X59.7537
 X59.0068 Y19.3240
 X58.0204 Y19.2491
 X57.0515 Y19.1259
 X56.0989 Y18.9559
 X55.1628 Y18.7399
 X54.2449 Y18.4792
 X53.3461 Y18.1751
 X52.4682 Y17.8288
 X51.6113 Y17.4415
 X50.7773 Y17.0141
 X49.9668 Y16.5482
 X49.1813 Y16.0450
 X48.4226 Y15.5055
 X47.6915 Y14.9310
 X46.9890 Y14.3226
 X46.3172 Y13.6819
 X45.6767 Y13.0096
 X45.0678 Y12.3074
 X44.4934 Y11.5763
 X43.9536 Y10.8177
 X43.4509 Y10.0327
 X42.9846 Y9.2224
 X42.5575 Y8.3882
 X42.1697 Y7.5316
 X41.8239 Y6.6531
 X41.5192 Y5.7545
 X41.2594 Y4.8366
 X41.0425 Y3.9006
 X40.8725 Y2.9481
 X40.7492 Y1.9799
 X40.6744 Y0.9936
 X40.6495 Y0.2461
 Y-0.2450
 X40.6744 Y-0.9924
 X40.7492 Y-1.9790
 X40.8725 Y-2.9474
 X41.0425 Y-3.8999
 X41.2594 Y-4.8361
 X41.5193 Y-5.7541
 X41.8239 Y-6.6528
 X42.1697 Y-7.5313
 X42.5575 Y-8.3881
 X42.9846 Y-9.2224
 X43.4510 Y-10.0328
 X43.9536 Y-10.8179
 X44.4934 Y-11.5765
 X45.0678 Y-12.3076
 X45.6767 Y-13.0100
 X46.3173 Y-13.6824
 X46.9891 Y-14.3231
 X47.6915 Y-14.9314
 X48.4227 Y-15.5060
 X49.1814 Y-16.0455
 X49.9669 Y-16.5488
 X50.7773 Y-17.0148
 X51.6113 Y-17.4420
 X52.4683 Y-17.8295
 X53.3461 Y-18.1758
 X54.2448 Y-18.4799
 X55.1627 Y-18.7405
 X56.0990 Y-18.9565
 X57.0514 Y-19.1267
 X58.0204 Y-19.2497
 X59.0069 Y-19.3248
 X59.7537 Y-19.3500
 X60.2444
 X60.9922 Y-19.3248
 X61.9786 Y-19.2497
 X62.9476 Y-19.1267
 X63.9002 Y-18.9565
 X64.8374 Y-18.7405
 X65.7551 Y-18.4800
 X66.6528 Y-18.1759
 X67.5310 Y-17.8294
 X68.3889 Y-17.4419
 X69.2228 Y-17.0148
 X70.0331 Y-16.5488
 X70.8185 Y-16.0456
 X71.5762 Y-15.5061
 X72.3076 Y-14.9314
 X73.0102 Y-14.3229
 X73.6827 Y-13.6824
 X74.3224 Y-13.0100
 X74.9325 Y-12.3073
 X75.5064 Y-11.5768
 X76.0455 Y-10.8179
 X76.5491 Y-10.0328
 X77.0143 Y-9.2227
 X77.4415 Y-8.3881
 X77.8293 Y-7.5313
 X78.1753 Y-6.6524
 X78.4809 Y-5.7537
 X78.7405 Y-4.8365
 X78.9565 Y-3.9003
 X79.1266 Y-2.9474
 X79.2498 Y-1.9790
 X79.3247 Y-0.9918
 X79.3505 Y-0.2444
 Y0.0005
G0 Z3.0000
M5 (stop spindle)
G04 P3 (wait for 3 seconds)
G0 Z3.0000
M2 (end program)
